AdrianPrados/GaussianPathwiseLfD/ExpJointAdam/Water/AguaDerecha_3.csv
joint_0,joint_1,joint_2,joint_3,joint_4,joint_5
0.116418361663818,-1.459552602177,0.55848199525942,-3.66353191951894,4.48633861541748,-2.33154184023012
0.116418361663818,-1.459552602177,0.55848199525942,-3.66355576137685,4.48631477355957,-2.33158976236452
0.116430759429932,-1.45954115808521,0.558504883443014,-3.66351952175283,4.4862904548645,-2.33155376115908
0.116382598876953,-1.45954115808521,0.558504883443014,-3.66354336361074,4.48632621765137,-2.33156592050661
0.116454601287842,-1.45954115808521,0.558504883443014,-3.66354336361074,4.48630237579346,-2.33154184023012
0.116418361663818,-1.45954115808521,0.558529678975241,-3.66355576137685,4.48630237579346,-2.33152991930117
0.116418361663818,-1.45952876031909,0.558529678975241,-3.66355576137685,4.48630237579346,-2.33155376115908
0.116430759429932,-1.45956499994312,0.558493439351217,-3.66353191951894,4.48630237579346,-2.33156592050661
0.116430759429932,-1.45952876031909,0.558493439351217,-3.66353191951894,4.48631477355957,-2.33156592050661
0.116430759429932,-1.45951683939014,0.558517281209127,-3.66354336361074,4.48632621765137,-2.33154184023012
0.116394519805908,-1.45954115808521,0.55848199525942,-3.66353191951894,4.48632621765137,-2.33155376115908
0.116418361663818,-1.45956499994312,0.558493439351217,-3.66356768230581,4.48630237579346,-2.33157784143557
0.116394519805908,-1.45952876031909,0.558517281209127,-3.66355576137685,4.48632621765137,-2.33151799837221
0.116430759429932,-1.45954115808521,0.558504883443014,-3.66351952175283,4.48635053634644,-2.33155376115908
0.116418361663818,-1.459552602177,0.558541123067037,-3.66353191951894,4.48631477355957,-2.33157784143557
0.116430759429932,-1.45951683939014,0.558493439351217,-3.66354336361074,4.48630237579346,-2.33155376115908
0.116394519805908,-1.459552602177,0.558504883443014,-3.66351952175283,4.48632621765137,-2.33155376115908
0.116418361663818,-1.45956499994312,0.55848199525942,-3.66354336361074,4.48633861541748,-2.33157784143557
0.116430759429932,-1.45952876031909,0.55848199525942,-3.66354336361074,4.48630237579346,-2.33156592050661
0.116454601287842,-1.45956499994312,0.55848199525942,-3.66350760082387,4.48632621765137,-2.33154184023012
0.116382598876953,-1.45954115808521,0.55848199525942,-3.66353191951894,4.48627853393555,-2.33151799837221
0.116442680358887,-1.45952876031909,0.558493439351217,-3.66351952175283,4.48633861541748,-2.33152991930117
0.116442680358887,-1.45957644403491,0.558517281209127,-3.66355576137685,4.48630237579346,-2.33154184023012
0.116418361663818,-1.459552602177,0.558552567158834,-3.66350760082387,4.48631477355957,-2.33156592050661
0.116430759429932,-1.45954115808521,0.558517281209127,-3.66351952175283,4.48631477355957,-2.33160168329348
0.116406917572021,-1.45956499994312,0.558517281209127,-3.66350760082387,4.48631477355957,-2.33157784143557
0.116406917572021,-1.459552602177,0.558504883443014,-3.66353191951894,4.48630237579346,-2.33154184023012
0.116430759429932,-1.45954115808521,0.558529678975241,-3.66353191951894,4.48633861541748,-2.33152991930117
0.116418361663818,-1.45952876031909,0.558504883443014,-3.66357960323476,4.48633861541748,-2.33152991930117
0.116394519805908,-1.459552602177,0.558541123067037,-3.66356768230581,4.48631477355957,-2.33155376115908
0.116394519805908,-1.45952876031909,0.55848199525942,-3.66356768230581,4.48632621765137,-2.33156592050661
0.116418361663818,-1.45952876031909,0.55848199525942,-3.66355576137685,4.48630237579346,-2.33154184023012
0.116430759429932,-1.45954115808521,0.558504883443014,-3.66353191951894,4.4862904548645,-2.33156592050661
0.116394519805908,-1.459552602177,0.558493439351217,-3.66353191951894,4.48632621765137,-2.33156592050661
0.116430759429932,-1.45957644403491,0.558504883443014,-3.66354336361074,4.48631477355957,-2.33156592050661
0.116418361663818,-1.45956499994312,0.558493439351217,-3.66356768230581,4.48631477355957,-2.33154184023012
0.116442680358887,-1.45952876031909,0.558493439351217,-3.66351952175283,4.48630237579346,-2.33158976236452
0.116406917572021,-1.45952876031909,0.558504883443014,-3.66349567989492,4.48633861541748,-2.33154184023012
0.116442680358887,-1.45952876031909,0.558504883443014,-3.66355576137685,4.48635053634644,-2.33155376115908
0.116394519805908,-1.45952876031909,0.558541123067037,-3.66356768230581,4.48631477355957,-2.33154184023012
0.116442680358887,-1.45956499994312,0.558541123067037,-3.66353191951894,4.48631477355957,-2.33154184023012
0.116418361663818,-1.45952876031909,0.558529678975241,-3.66351952175283,4.48631477355957,-2.33155376115908
0.116466522216797,-1.45956499994312,0.558445755635397,-3.66350760082387,4.48632621765137,-2.33154184023012
0.116406917572021,-1.45951683939014,0.558504883443014,-3.66355576137685,4.48631477355957,-2.33152991930117
0.116442680358887,-1.459552602177,0.55848199525942,-3.66359152416372,4.48631477355957,-2.33155376115908
0.116406917572021,-1.45943291605029,0.558684174214498,-3.66349567989492,4.48631477355957,-2.33156592050661
0.116346836090088,-1.45939763010059,0.558722321187155,-3.66347183803701,4.48632621765137,-2.33158976236452
0.116418361663818,-1.45937283456836,0.558747116719381,-3.66349567989492,4.48631477355957,-2.33158976236452
0.116359233856201,-1.4572881025127,0.559496704732076,-3.66349567989492,4.48632621765137,-2.33160168329348
0.116394519805908,-1.4561608594707,0.560103241597311,-3.66349567989492,4.48632621765137,-2.33154184023012
0.116359233856201,-1.44824202478442,0.56644040742983,-3.66347183803701,4.48635053634644,-2.33154184023012
0.116359233856201,-1.44681437433276,0.567526642476217,-3.66347183803701,4.48633861541748,-2.33156592050661
0.116346836090088,-1.4369285863689,0.578980271016256,-3.66345944027089,4.48631477355957,-2.33156592050661
0.116322994232178,-1.43214590967212,0.588689629231588,-3.66343559841298,4.48633861541748,-2.33156592050661
0.116334915161133,-1.42931158960376,0.597603623067037,-3.66341175655507,4.48633861541748,-2.33156592050661
0.116359233856201,-1.42687399805103,0.607739273701803,-3.66343559841298,4.48632621765137,-2.33155376115908
0.116370677947998,-1.4248698514751,0.619269196187155,-3.66345944027089,4.48632621765137,-2.33154184023012
0.116334915161133,-1.42331202447925,0.632448975239889,-3.66347183803701,4.4862904548645,-2.33156592050661
0.116311073303223,-1.42065794885669,0.662155930195944,-3.66341175655507,4.48632621765137,-2.33157784143557
0.116334915161133,-1.41954882562671,0.678469483052389,-3.6634479961791,4.48632621765137,-2.33155376115908
0.116334915161133,-1.41886170328174,0.689966026936666,-3.66345944027089,4.48631477355957,-2.33157784143557
0.116311073303223,-1.41783936441455,0.707579437886373,-3.66345944027089,4.48631477355957,-2.33158976236452
0.116346836090088,-1.4175546926311,0.71982175508608,-3.66349567989492,4.48626661300659,-2.33158976236452
0.116311073303223,-1.41758139551196,0.732497040425436,-3.6634479961791,4.4862904548645,-2.33157784143557
0.116358757019043,-1.41755755365405,0.738868538533346,-3.6634479961791,4.48626661300659,-2.33156592050661
0.116310596466064,-1.41760523736987,0.783467117940084,-3.66345944027089,4.48626613616943,-2.33154184023012
0.116286277770996,-1.41748507440601,0.802233521138326,-3.6634479961791,4.48621845245361,-2.33156592050661
0.116238594055176,-1.41762907922778,0.814764801655905,-3.66341175655507,4.48621797561646,-2.33157784143557
0.116190910339355,-1.41756899774585,0.827090088521139,-3.66342367748403,4.48618221282959,-2.33157784143557
0.116021156311035,-1.41753323495898,0.869477097188131,-3.66341175655507,4.48578596115112,-2.33156592050661
0.115803241729736,-1.41752131403003,0.887360397969381,-3.66343559841298,4.4856538772583,-2.33155376115908
0.115479946136475,-1.41747267663989,0.898905579243795,-3.66338648418569,4.4855694770813,-2.33155376115908
0.113233089447021,-1.41749699533496,0.921733681355612,-3.66333880046987,4.48552417755127,-2.33155376115908
0.109345436096191,-1.41752131403003,0.943751160298483,-3.66327919582509,4.48542881011963,-2.33152991930117
0.104965209960938,-1.41744931161914,0.959590737019674,-3.66315569500112,4.48544073104858,-2.33157784143557
0.0950579643249512,-1.41747315347705,0.985444847737448,-3.66290249447011,4.48544025421143,-2.33152991930117
0.092625617980957,-1.41752131403003,0.990469757710592,-3.66283955196523,4.4853687286377,-2.33151799837221
0.0899538993835449,-1.41750891626392,0.995410744343893,-3.66275562862539,4.48540449142456,-2.33160168329348
0.0843186378479004,-1.41749747217212,1.00515252748598,-3.66245617489004,4.48538017272949,-2.33154184023012
0.0706896781921387,-1.41754515588794,1.02397233644594,-3.66159691433095,4.48532056808472,-2.33148056665529
0.058903694152832,-1.41750891626392,1.03733235994448,-3.66086830715322,4.48530912399292,-2.33115893999209
-0.00686818758119756,-1.41759283960376,1.08561784425844,-3.65514816860341,4.48516511917114,-2.32887465158571
-0.0126908461200159,-1.41754515588794,1.08838445345034,-3.65413202861928,4.48515319824219,-2.32852870622744
-0.0949290434466761,-1.41752083719287,1.10572415987124,-3.62241139034414,4.48486280441284,-2.29875690141787
-0.115562264119283,-1.41753323495898,1.10562402406801,-3.60961689571523,4.48470973968506,-2.28232795396914
-0.158177200947897,-1.41752131403003,1.10566217104067,-3.57858814815664,4.48459100723267,-2.23697692552675
-0.216123406087057,-1.41750891626392,1.10569841066469,-3.52492203334951,4.48457956314087,-2.15861970583071
-0.230358425770895,-1.41747315347705,1.10567361513247,-3.50948013881826,4.48456764221191,-2.13821155229677
-0.265966717396871,-1.41741259515796,1.10570985475649,-3.46948446849965,4.4846396446228,-2.08975297609438
-0.280104462300436,-1.41743739069019,1.10575753847231,-3.45298351864004,4.48460340499878,-2.07161647478213
-0.301188770924703,-1.41743691385303,1.10575849214663,-3.42777599910879,4.48462772369385,-2.04641229311098
-0.321649376546041,-1.41740115106616,1.10575753847231,-3.40319695095205,4.48462772369385,-2.02335578600039
-0.348349396382467,-1.41735346735034,1.10578233400454,-3.37068714718007,4.48456764221191,-1.99644261995424
-0.361326519642965,-1.4173653882793,1.10575753847231,-3.35532106975698,4.48461532592773,-1.98433238664736
-0.392837349568502,-1.4173653882793,1.10573465028872,-3.31885208706045,4.48460340499878,-1.95898324648012
-0.405074898396627,-1.41737730920825,1.10575753847231,-3.30558504680776,4.48460340499878,-1.95028335252871
-0.423079315816061,-1.41740162790332,1.10572129884829,-3.2869831524291,4.48460340499878,-1.93841678300966
-0.446144405995504,-1.41738970697437,1.10573465028872,-3.26461758236074,4.48453140258789,-1.92284232774843
-0.463168446217672,-1.41735346735034,1.10575753847231,-3.24943890194082,4.48459148406982,-1.91080266634096
-0.479679886494772,-1.4173653882793,1.10576993623842,-3.23596920589589,4.484543800354,-1.89774781862368
-0.501474682484762,-1.4173653882793,1.10576993623842,-3.21944202999257,4.48459148406982,-1.87788278261294
-0.52264911333193,-1.41732962549243,1.10573465028872,-3.20366062740468,4.48455572128296,-1.85398227373232
-0.533178631459371,-1.41732962549243,1.10574609438051,-3.19572558025503,4.48460340499878,-1.84034949937929
-0.543427769337789,-1.4173653882793,1.10580522218813,-3.18804134945058,4.48457956314087,-1.82531005540957
-0.568770710621969,-1.41735346735034,1.10578233400454,-3.16973366359853,4.484543800354,-1.78327495256533
-0.578738037739889,-1.41734154642139,1.10579377809633,-3.16258682827138,4.48461532592773,-1.76502782503237
-0.598479572926657,-1.41732962549243,1.10576993623842,-3.14876522640371,4.48460340499878,-1.728164498006
-0.60806113878359,-1.41730578363452,1.10575753847231,-3.14196123699331,4.48461532592773,-1.70965701738466
-0.627215210591451,-1.41735346735034,1.10578233400454,-3.12853302578115,4.48456764221191,-1.67375117937197
-0.636607472096578,-1.41730482996021,1.10580712953676,-3.12218966106557,4.48456764221191,-1.6563461462604
-0.650832955037252,-1.41721947610889,1.10581857362856,-3.11282028774404,4.48457956314087,-1.63119060197939
-0.669652287160055,-1.41699774683032,1.10576993623842,-3.10012020687246,4.48460340499878,-1.59995586076845
-0.683871571217672,-1.41641409814868,1.10578233400454,-3.09067024807119,4.48459148406982,-1.57850200334658
-0.693060223256246,-1.41581232965503,1.10578233400454,-3.08422531704091,4.48459148406982,-1.56521588960756
-0.715653721486227,-1.41388066232715,1.10575753847231,-3.06699909786367,4.48462772369385,-1.53432017961611
-0.72453481355776,-1.4126718801311,1.10574609438051,-3.06027950863027,4.48462772369385,-1.52291137376894
-0.772919480000631,-1.40250189722095,1.10573465028872,-3.01465954403066,4.48495149612427,-1.45807296434511
-0.783405129109518,-1.39955885828052,1.10572129884829,-3.00109495739126,4.48501110076904,-1.44127685228457
-0.789875332509176,-1.39746125162158,1.10569841066469,-2.99196877102041,4.48498678207397,-1.42985040346255
-0.796139065419332,-1.39513285577808,1.10570985475649,-2.9828626118102,4.48502254486084,-1.41820413271059
-0.821953598652975,-1.38294871271167,1.10568505922426,-2.94243158916616,4.4850606918335,-1.36700565019716
-0.838227097188131,-1.37253077447925,1.10564881960024,-2.91596188167714,4.48577117919922,-1.33460456529726
-0.852402035390035,-1.36155541360889,1.10549337068667,-2.88987555126333,4.48648738861084,-1.3099949995624
-0.855127636586325,-1.3586552900127,1.10549241701235,-2.88403286556386,4.48666715621948,-1.3051007429706
-0.856350247059957,-1.35705168664966,1.10544473329653,-2.88126911739492,4.48680019378662,-1.30284673372378
-0.86107570329775,-1.35030682504688,1.10543328920473,-2.87140812496328,4.48757028579712,-1.29387742677797
-0.864510361348287,-1.34472830713306,1.10543328920473,-2.86468329052114,4.48936653137207,-1.28653365770449
-0.868176285420553,-1.33892710626636,1.10543328920473,-2.85796942333364,4.49226474761963,-1.27811986604799
-0.870837036763326,-1.33522208154712,1.10542184511294,-2.85321964840078,4.49504518508911,-1.27168685594668
-0.873647514973776,-1.33142931879077,1.105361763631,-2.84840168575429,4.49883937835693,-1.26444369951357
-0.879907910023825,-1.32356293619189,1.10537225404848,-2.83979954342031,4.50871324539185,-1.24689275423159
-0.883143726979391,-1.31962950647388,1.10534936586489,-2.83595671276235,4.51456451416016,-1.23622924486269
-0.889604870473043,-1.3121121686748,1.10537416139712,-2.82948603252553,4.52711296081543,-1.21091300645937
-0.891373936329977,-1.31039603174243,1.10537416139712,-2.82815613369131,4.53042650222778,-1.2038634459125
-0.894913975392477,-1.3071621221355,1.10536271730532,-2.82598604778432,4.53717994689941,-1.18895465532412
-0.900768105183737,-1.30277569711719,1.10534936586489,-2.82411160091543,4.54697036743164,-1.16434127489199
-0.902891937886373,-1.30142863214526,1.10533792177309,-2.82395805935048,4.54987478256226,-1.15589362779726
-0.914325539265768,-1.29564459741626,1.10510331789126,-2.82397284130239,4.56077337265015,-1.11385661760439
-0.919232193623678,-1.29399760187183,1.10478765169253,-2.82397284130239,4.56317853927612,-1.09813958803286
-0.92176324525942,-1.29321225107227,1.10455304781069,-2.82398476223134,4.56387996673584,-1.09060126939882
-0.926883045827047,-1.29216607034717,1.10406762758364,-2.82399715999746,4.56473684310913,-1.07662564912905
-0.934806648884908,-1.29150326669727,1.10352975526919,-2.82402195552968,4.56534957885742,-1.05911523500551
-0.947334591542379,-1.29158814371143,1.10288888612856,-2.82412972072744,4.56535911560059,-1.04071504274477
-0.95200759569277,-1.29160006464038,1.10246354738344,-2.82412924389028,4.5654354095459,-1.03726989427675
-0.9586127440082,-1.29161246240649,1.10219270387758,-2.82415308574819,4.56574964523315,-1.03627950349917
-0.962802235280172,-1.29162438333545,1.1021354834186,-2.82414116481923,4.56610441207886,-1.03636819521059
-0.968771759663717,-1.29158814371143,1.1021240393268,-2.82412924389028,4.56753349304199,-1.03635484377016
-0.97637921968569,-1.29157622278247,1.10214883485903,-2.82415308574819,4.57192945480347,-1.03635484377016
-0.983320061360494,-1.29158814371143,1.10213643709292,-2.82412876705312,4.57923126220703,-1.03629523912539
-0.986830536519186,-1.29160006464038,1.10214883485903,-2.82414116481923,4.58384418487549,-1.03630668321718
-0.996189896260397,-1.29160006464038,1.10206395784487,-2.8240810833373,4.59834432601929,-1.0363190809833
-1.00021630922426,-1.29160006464038,1.10202676454653,-2.82414116481923,4.60614013671875,-1.03630668321718
-1.00425941148867,-1.29162390649829,1.10185128847231,-2.82412876705312,4.61443519592285,-1.03630668321718
-1.02893239656557,-1.29160006464038,1.09473878542055,-2.8240810833373,4.6696195602417,-1.0363190809833
-1.03417236009707,-1.29157622278247,1.09214479127993,-2.82409300426626,4.68073272705078,-1.0363190809833
-1.06406194368471,-1.29149229944263,1.07096559206118,-2.82404484371328,4.72887516021729,-1.0363190809833
-1.07118016878237,-1.29154045999561,1.06402093568911,-2.82404484371328,4.73660039901733,-1.03633100191225
-1.0786774794208,-1.29145653665576,1.05602914491762,-2.82400908092641,4.74331665039062,-1.03629523912539
-1.11178189912905,-1.29148037851367,1.01807290712465,-2.82398476223134,4.76369047164917,-1.03630668321718
-1.12020236650576,-1.2914207738689,1.0077751318561,-2.82394899944448,4.76755809783936,-1.03634292284121
-1.13235456148256,-1.29138453424487,0.992257897053854,-2.82392468074941,4.7725944519043,-1.03630668321718
-1.13623744646181,-1.29139693201099,0.987217728291647,-2.82392372707509,4.77422332763672,-1.03629523912539
-1.14000541368593,-1.29143269479785,0.982264343892233,-2.82388701061391,4.77599859237671,-1.03628284135927
-1.14375430742373,-1.29138358057056,0.977297608052389,-2.82378830532216,4.77775955200195,-1.0363190809833
-1.14746314684023,-1.2913568776897,0.972454849873678,-2.82363905529165,4.77963542938232,-1.03630668321718
-1.15467864671816,-1.29122765481982,0.96322995821108,-2.82324757198476,4.78357219696045,-1.0363190809833
-1.16481191316714,-1.29118044794116,0.950579468403951,-2.82216229061269,4.79015159606934,-1.03628284135927
-1.17110616365542,-1.29104597986255,0.942780319844381,-2.82136692623281,4.79481220245361,-1.03629476228823
-1.17728931108584,-1.29092581689868,0.935355965291158,-2.82066025356435,4.79993152618408,-1.03620893159975
-1.18648845354189,-1.29072554529224,0.925089661275045,-2.81905521968984,4.80796003341675,-1.03584081331362
-1.19245368639101,-1.29072649896655,0.918959442769186,-2.81769146541738,4.81360340118408,-1.03528911272158
-1.19829541841616,-1.29070265710864,0.913039032612936,-2.81640543560171,4.81955480575562,-1.03438836732973
-1.21015435854067,-1.29067929208789,0.90201455751528,-2.81444754223012,4.83165836334229,-1.03228694597353
-1.21323234239687,-1.29070265710864,0.899452988301412,-2.81427349666738,4.83448076248169,-1.03128368059267
-1.21953374544253,-1.29071505487476,0.89475137392153,-2.81422438244008,4.83995676040649,-1.0283034483539
-1.22906953493227,-1.29071505487476,0.888269249592916,-2.81418861965322,4.8468770980835,-1.02247983614077
-1.23566753069033,-1.29072697580371,0.884177986775533,-2.81421293834829,4.85078907012939,-1.01767856279482
-1.24590188661684,-1.29072697580371,0.878300491963522,-2.81420101741933,4.85511493682861,-1.0083273092853
-1.25279695192446,-1.29071505487476,0.874666992818014,-2.81420101741933,4.85736751556396,-1.00083858171572
-1.27300483385195,-1.29072697580371,0.864008728657858,-2.81420101741933,4.85932302474976,-0.973293606434957
-1.27961522737612,-1.29067929208789,0.860609833394186,-2.81426109890127,4.85934686660767,-0.962949101124899
-1.29433709779848,-1.29064352930103,0.852400604878561,-2.81423725704336,4.85933494567871,-0.938435379658834
-1.30431777635683,-1.29061921060596,0.845525566731588,-2.81424870113515,4.85965347290039,-0.923414532338278
-1.31095010439028,-1.290607289677,0.840333763753073,-2.81422485927724,4.8600378036499,-0.916006390248434
-1.3189700285541,-1.290607289677,0.833478752766744,-2.81420101741933,4.86044216156006,-0.911537949238912
-1.32278091112246,-1.290607289677,0.830111328755514,-2.81418861965322,4.86068153381348,-0.911452118550436
-1.32643205324282,-1.290607289677,0.826754395161764,-2.81421293834829,4.86096382141113,-0.911474053059713
-1.33216125169863,-1.29059536874805,0.821687523518698,-2.81417717556142,4.86209964752197,-0.91148549715151
-1.33816749254336,-1.29049952447925,0.816306893025533,-2.81417717556142,4.86376285552979,-0.9114616552936
-1.34233028093447,-1.29052336633716,0.812619034443991,-2.81416477779531,4.86482429504395,-0.9114616552936
-1.3465989271747,-1.2905114454082,0.808698479329244,-2.81412901500844,4.86615896224976,-0.9114616552936
-1.34869748750796,-1.29057105005298,0.8067253271686,-2.81412901500844,4.86685466766357,-0.91143781343569
-1.37858897844423,-1.29043991983447,0.774653259907858,-2.81416477779531,4.88463592529297,-0.9114616552936
-1.38267118135561,-1.29045184076343,0.769776169453756,-2.81410469631338,4.88767576217651,-0.9114616552936
-1.38841182390322,-1.29045184076343,0.762676064168112,-2.81417717556142,4.89210605621338,-0.9114616552936
-1.41006166139712,-1.29008038461719,0.738909546528951,-2.81412901500844,4.90166997909546,-0.9114616552936
-1.41381341615786,-1.29003270090137,0.735102478657858,-2.81410469631338,4.90211391448975,-0.91143781343569
-1.41741830507387,-1.29004509866748,0.731440369282858,-2.81409277538442,4.90226173400879,-0.91148549715151
-1.42101890245547,-1.29004319131885,0.727895561848776,-2.81408085445547,4.90227222442627,-0.911449734364645
-1.43043643632998,-1.28975041330371,0.720206085835592,-2.81409277538442,4.90238332748413,-0.91143781343569
-1.44209319749941,-1.28787835062061,0.712552849446432,-2.81410469631338,4.90353536605835,-0.911473576222555
-1.45035154024233,-1.28600295007739,0.707977120076315,-2.8141409359374,4.90432500839233,-0.911413494740621
-1.45428353944887,-1.28500588357959,0.706326309834616,-2.81411709407949,4.90439653396606,-0.911449734364645
-1.45545512834658,-1.28482039392505,0.706170860921041,-2.81411709407949,4.90444469451904,-0.911402050648825
-1.4577582518207,-1.28469784677539,0.706272904072897,-2.81408085445547,4.90452766418457,-0.911437336598532
-1.45985490480532,-1.28465969980273,0.706225220357076,-2.81410469631338,4.90460252761841,-0.911413494740621
-1.4608510176288,-1.28466113031421,0.706212822590963,-2.81411709407949,4.90465068817139,-0.911413494740621
-1.46452361742129,-1.28462632120166,0.706175629292623,-2.81409277538442,4.90478992462158,-0.911377731953756
-1.46690398851504,-1.28466256082568,0.706211868916647,-2.81411709407949,4.90483808517456,-0.911365811024801
-1.46763688722719,-1.28467448175464,0.70615274110903,-2.81411709407949,4.90483856201172,-0.911425892506735
-1.46977502504458,-1.28463871896777,0.706140343342916,-2.81406893352651,4.90484952926636,-0.911402050648825
-1.47164661089052,-1.28467448175464,0.706140343342916,-2.81417717556142,4.90486145019531,-0.911402050648825
-1.47286492982973,-1.28465063989673,0.706211868916647,-2.81410469631338,4.90489864349365,-0.911377731953756
-1.47340423265566,-1.28465063989673,0.70620042482485,-2.81409277538442,4.90489768981934,-0.911389652882711
-1.47548801103701,-1.28460295618091,0.70615274110903,-2.81411709407949,4.90494537353516,-0.911317173634664
-1.47642165819277,-1.28469832361255,0.706114594136373,-2.8141409359374,4.9049334526062,-0.911231342946188
-1.47816402116884,-1.28466256082568,0.70609170595278,-2.8141409359374,4.90495777130127,-0.910977665578024
-1.47852594057192,-1.28469880044971,0.7060173193561,-2.81415285686635,4.9049334526062,-0.91089374223818
-1.47959834734072,-1.28468687952075,0.705862824116842,-2.81410469631338,4.90494537353516,-0.910572353993551
-1.48020393053164,-1.28471072137866,0.705765549336569,-2.81416477779531,4.90494537353516,-0.910479370747701
-1.48068362871279,-1.28468687952075,0.705679718648092,-2.81416477779531,4.90496921539307,-0.910445038472311
-1.48129111925234,-1.28469880044971,0.705538574849264,-2.81411709407949,4.90498113632202,-0.910397831593649
-1.4822247664081,-1.28468687952075,0.705477539693014,-2.8141409359374,4.90490913391113,-0.910409275685446
-1.48338300386538,-1.28468687952075,0.705370728169576,-2.81415285686635,4.90494537353516,-0.910373989735739
-1.48428613344301,-1.28471072137866,0.705250565205709,-2.81416477779531,4.90494537353516,-0.910385910664694
-1.48604470888247,-1.28475840509448,0.70501691499819,-2.81415333370351,4.90498113632202,-0.910373989735739
-1.48868066469301,-1.28469880044971,0.703694168721334,-2.81418909649038,4.90498161315918,-0.910409752522604
-1.49056512514223,-1.28467448175464,0.701696221028463,-2.81418861965322,4.9050178527832,-0.910350147877828
-1.49324161211123,-1.28466256082568,0.698479477559225,-2.81415285686635,4.90505504608154,-0.910338226948873
-1.49527913728823,-1.28466256082568,0.695650879536764,-2.81417717556142,4.90503025054932,-0.910397831593649
-1.50096875825991,-1.28461440027271,0.686117951069967,-2.81411709407949,4.90534782409668,-0.910204712544576
-1.50135833421816,-1.28462632120166,0.685164276753561,-2.81412901500844,4.90539455413818,-0.910167996083395
-1.50223142305483,-1.28469832361255,0.683455292378561,-2.81410469631338,4.90546369552612,-0.910058323537008
-1.50489551225771,-1.28455527246509,0.678536240254537,-2.81408085445547,4.90810108184814,-0.908965412770407
-1.50599986711611,-1.28459103525195,0.677441422139303,-2.81411709407949,4.91534614562988,-0.903991047536032
-1.50603515306582,-1.28460295618091,0.677416626607076,-2.81409277538442,4.91664791107178,-0.901697460805075
-1.50601131120791,-1.28456671655688,0.677428070698873,-2.81409277538442,4.92024040222168,-0.895309273396627
-1.50601131120791,-1.28454287469897,0.677441422139303,-2.81408085445547,4.92036151885986,-0.894457165394918
-1.50599939027895,-1.28455527246509,0.6774528662311,-2.81408085445547,4.92031383514404,-0.894445721303121
-1.50601131120791,-1.28460295618091,0.67740518251528,-2.8141409359374,4.92032527923584,-0.894410435353414
-1.50601131120791,-1.28461487710986,0.677404228840963,-2.81417717556142,4.92033767700195,-0.894398514424459
-1.50599939027895,-1.28466256082568,0.677356545125143,-2.81416477779531,4.92030143737793,-0.894422356282369
-1.50601131120791,-1.28460295618091,0.677356545125143,-2.81415333370351,4.92030143737793,-0.894410435353414
-1.50597507158388,-1.28465063989673,0.67736798921694,-2.81416477779531,4.92034912109375,-0.894422356282369
-1.50599939027895,-1.28463871896777,0.677321259175436,-2.81416477779531,4.92032527923584,-0.894410435353414
-1.50599939027895,-1.28466256082568,0.677308861409323,-2.81418909649038,4.92032527923584,-0.894398514424459
-1.50599939027895,-1.28463871896777,0.677368942891256,-2.8141409359374,4.92027759552002,-0.894398514424459
-1.50598746935,-1.28465063989673,0.677332703267233,-2.81418861965322,4.92034912109375,-0.894410435353414
-1.50596362749209,-1.2846749585918,0.67734414735903,-2.81416477779531,4.92034912109375,-0.894398514424459
-1.50601131120791,-1.28471072137866,0.677321259175436,-2.81417717556142,4.92030143737793,-0.894386593495504
-1.50596362749209,-1.28465063989673,0.677332703267233,-2.81422485927724,4.92034912109375,-0.894434277211325
-1.50596362749209,-1.28465063989673,0.67734414735903,-2.81418861965322,4.92032527923584,-0.894434277211325
-1.50591546693911,-1.28468687952075,0.677357498799459,-2.81415285686635,4.92034912109375,-0.894434277211325
-1.50589114824404,-1.28469832361255,0.677392784749166,-2.81420101741933,4.92034959793091,-0.894410435353414
-1.50575906435122,-1.28466256082568,0.677465263997213,-2.81416477779531,4.9207763671875,-0.894446674977438
-1.5057466665851,-1.28471072137866,0.67751390138735,-2.81417717556142,4.9212474822998,-0.894446674977438
-1.50571090379824,-1.28468687952075,0.677501503621237,-2.81415285686635,4.92141389846802,-0.894434277211325
-1.50478488603701,-1.28465063989673,0.677766625081198,-2.81416477779531,4.92399215698242,-0.894446674977438
-1.50464326540102,-1.28465063989673,0.677863899861471,-2.81417717556142,4.92587757110596,-0.894422356282369
-1.50458318391909,-1.28462679803882,0.677912537251608,-2.81418861965322,4.92700004577637,-0.894446674977438
-1.50280028978457,-1.28460295618091,0.678500000630514,-2.81418861965322,4.94415330886841,-0.894482437764303
-1.50155097643007,-1.28459055841479,0.678879563008444,-2.81416477779531,4.95311498641968,-0.894482437764303
-1.49914485612978,-1.28441985071216,0.68055230775942,-2.8141409359374,4.96837854385376,-0.894482437764303
-1.49829179445376,-1.28433211267505,0.681704346333639,-2.81417717556142,4.97388410568237,-0.894482437764303
-1.49741489091982,-1.28403742731128,0.682995621358053,-2.81417717556142,4.97854614257812,-0.894482437764303
-1.49708491960634,-1.28368456781421,0.683564964924948,-2.81417717556142,4.98039960861206,-0.894494358693258
-1.49648410478701,-1.28251393259082,0.685467545186178,-2.81418861965322,4.98448657989502,-0.894530121480123
-1.49641830125918,-1.28205807626758,0.68741494814028,-2.81417717556142,4.98562717437744,-0.894518200551168
-1.49639493623842,-1.28186352670703,0.698029343281881,-2.81418861965322,4.98563575744629,-0.894553963338033
-1.49630958238711,-1.2818992894939,0.701618973408834,-2.81422485927724,4.98564767837524,-0.894530121480123
-1.4958875815021,-1.28194745004688,0.709596459065573,-2.8143097362914,4.98568344116211,-0.894565884266989
-1.48383123079409,-1.28192313135181,0.733565155659811,-2.8155099354186,4.98568344116211,-0.894589726124899
-1.47817927995791,-1.28194745004688,0.740204636250631,-2.81598486522817,4.98567152023315,-0.894603077565328
-1.47186690965761,-1.28192313135181,0.746935669575826,-2.81615891079091,4.98567152023315,-0.894972149525778
-1.46522695222964,-1.28194745004688,0.753493134175436,-2.81612219432973,4.98564767837524,-0.8957465330707
-1.46299535432924,-1.2818992894939,0.755694214497701,-2.8161579571166,4.98563575744629,-0.896082703267233
-1.45846015611757,-1.28191168726001,0.759854141865866,-2.81620659450673,4.98564767837524,-0.896785084401266
-1.44965011278261,-1.2818992894939,0.767428223286764,-2.81620707134389,4.98563575744629,-0.8975456396686
-1.44537479082216,-1.28194745004688,0.770890061055319,-2.81626810650014,4.98564767837524,-0.897602860127584
-1.43883353868593,-1.28188736856494,0.775524918233053,-2.81637444118642,4.98559951782227,-0.897721592579977
-1.43234569231142,-1.28192313135181,0.779628578816549,-2.81644835094594,4.98561143875122,-0.897745434437887
-1.43017989793886,-1.28186352670703,0.780745331441061,-2.81649460415029,4.98558759689331,-0.897756878529684
-1.41969663301577,-1.28191121042285,0.785895172749655,-2.81664003948354,4.98561143875122,-0.897841755543844
-1.41566116014589,-1.28191121042285,0.787581268941061,-2.81663860897207,4.98555183410645,-0.897926155720846
-1.40959912935366,-1.2818992894939,0.789913956318991,-2.81667484859609,4.98553943634033,-0.898145023976461
-1.40325528780092,-1.28182728708301,0.792013947163717,-2.81668629268789,4.98555183410645,-0.898694817219869
-1.39063960710634,-1.28183920801196,0.79645806947817,-2.81668629268789,4.98546743392944,-0.900182549153463
-1.36854917207827,-1.28174336374316,0.810280625020162,-2.81678213695669,4.98250389099121,-0.900254551564352
-1.36659700075258,-1.28175528467212,0.812009636555807,-2.81677069286489,4.98177576065063,-0.900290791188375
-1.3482235113727,-1.28171952188525,0.834538284932272,-2.81852211574697,4.97141265869141,-0.900482956563131
-1.340553585683,-1.28167088449512,0.848004166279928,-2.82235636333608,4.9665994644165,-0.900871578847067
-1.33752280870547,-1.28168375909839,0.853970352803366,-2.82464995006704,4.9645471572876,-0.901312653218405
-1.33603221574892,-1.28163607538257,0.85717755952944,-2.82602657894277,4.96356439590454,-0.901731793080465
-1.33158713976015,-1.2816003125957,0.867264572774069,-2.83075441936635,4.96060562133789,-0.904607597981588
-1.32875949541201,-1.28161223352466,0.874773804341451,-2.83447613338613,4.95887327194214,-0.907231156026022
-1.32594710985293,-1.28166039407764,0.882696930562155,-2.83872761348867,4.95725154876709,-0.909924332295553
-1.32312328020205,-1.28166039407764,0.891098801289694,-2.84322609523916,4.95548057556152,-0.913469139729635
-1.3187144438373,-1.28164799631152,0.904258553181783,-2.85001053432607,4.95234489440918,-0.919056240712301
-1.31568795839419,-1.2816003125957,0.913411919270651,-2.85469688991689,4.95053100585938,-0.923008743916647
-1.31419402757754,-1.28161223352466,0.918067757283346,-2.85690607647085,4.94980382919312,-0.924971405659811
-1.31120044389834,-1.28161223352466,0.927438561116354,-2.86121763805532,4.94841194152832,-0.928563419972555
-1.30821782747378,-1.28163607538257,0.93707257906069,-2.86514725307607,4.94733619689941,-0.931768719349996
-1.30401593843569,-1.28161223352466,0.951699082051412,-2.87077202419423,4.94619131088257,-0.936012093220846
-1.30146247545351,-1.28163607538257,0.961526695881979,-2.87434258083486,4.94545364379883,-0.937769714985983
-1.3001392523395,-1.28163607538257,0.966509644185201,-2.87607445339345,4.94518518447876,-0.938525501881735
-1.29436189333071,-1.28163607538257,0.991372887288229,-2.88439716915273,4.94506645202637,-0.940455738698141
-1.29223949113955,-1.28162415445361,1.00138932863344,-2.88781275371694,4.94501876831055,-0.941170994435446
-1.29019862810244,-1.28157599390063,1.01149446169008,-2.89143051723623,4.94505453109741,-0.941591087971823
-1.28634578386416,-1.28147919595752,1.03168565431704,-2.89908709148549,4.94499254226685,-0.941823307667867
-1.28463203111757,-1.28142960489307,1.04169160524477,-2.90312924007558,4.94489717483521,-0.941921059285299
-1.28177434602846,-1.28122742593799,1.06159478822817,-2.9109517536559,4.94478702545166,-0.942473236714498
-1.28067237535586,-1.28113301218066,1.07142335573305,-2.91487707714223,4.94464492797852,-0.943506542836325
-1.27956515947451,-1.28112156808887,1.08119470277895,-2.91865601162099,4.94463348388672,-0.945802036915914
-1.27870256105532,-1.28110964715991,1.09542924562563,-2.9242221317687,4.94454002380371,-0.951055351887838
-1.27877170244326,-1.28107388437305,1.10924607912172,-2.92935194591665,4.94445514678955,-0.958399597798483
-1.27884322801699,-1.28102572382007,1.11821157137026,-2.93266024212026,4.94432020187378,-0.96416694322695
-1.2788785139667,-1.28105004251514,1.12703591981997,-2.93594231228017,4.94417572021484,-0.970833603535787
-1.27896339098086,-1.28105004251514,1.13998109499087,-2.94040741542959,4.9437255859375,-0.982498947774069
-1.27899867693056,-1.28087885797534,1.15216905275454,-2.9442097149291,4.94248199462891,-0.996167484913961
-1.2791202704059,-1.28072388589893,1.16390210786928,-2.9467674694457,4.94053268432617,-1.01131040254702
-1.27916843095888,-1.28053172052417,1.17502671877016,-2.94812407116079,4.93909454345703,-1.02674800554384
-1.27919036546816,-1.28033717096362,1.1822078863727,-2.9481741390624,4.938401222229,-1.03710300127138
-1.27925092378725,-1.27990420282397,1.19285852113833,-2.94813742260122,4.93822479248047,-1.05273563066591
-1.279274288808,-1.27603180826221,1.21967298189272,-2.94812550167226,4.93820142745972,-1.09516650835146
-1.27926236787905,-1.27503855646167,1.22260362306704,-2.94819750408315,4.93821334838867,-1.10051423708071
-1.27926236787905,-1.27267964304004,1.22814447084536,-2.9481855831542,4.93818950653076,-1.11162406602968
-1.279274288808,-1.2680824559978,1.23524076143374,-2.94817318538808,4.93823719024658,-1.12920934358706
-1.27926189104189,-1.2488215726665,1.24563485780825,-2.94817318538808,4.9382495880127,-1.17951804796328
-1.27926189104189,-1.24243147790942,1.24606973329653,-2.94820942501211,4.9382495880127,-1.19281751314272
-1.27926189104189,-1.23909266412769,1.24597055116762,-2.94817318538808,4.9382495880127,-1.19944364229311
-1.27929813066591,-1.1940496724895,1.24564916292299,-2.9485231838622,4.93820142745972,-1.28165227571596
-1.27929813066591,-1.1900065702251,1.24561101595034,-2.94853844265127,4.93821334838867,-1.28873807588686
-1.2796404997455,-1.14000924051318,1.24560338655581,-2.94870152095937,4.93813896179199,-1.37095386186709
-1.27990419069399,-1.12707026422534,1.24548226991762,-2.94872583965444,4.93784666061401,-1.39002734819521
-1.28034860292544,-1.109286145573,1.2455795446979,-2.94870104412221,4.93702125549316,-1.41465741792788
-1.28228599229922,-1.07274182260547,1.24550706544985,-2.94870104412221,4.92610263824463,-1.46120912233462
-1.28268176714052,-1.06922562540088,1.24550706544985,-2.94872536281728,4.92419528961182,-1.46535617509951
-1.2847641150104,-1.05379517496143,1.24554330507387,-2.94868912319326,4.91322946548462,-1.48292237917055
-1.29575902620424,-1.00338061273608,1.24540979066958,-2.94871296505117,4.85740232467651,-1.53796798387636
-1.29819232622255,-0.994306401615479,1.24544793764223,-2.94866528133535,4.84482574462891,-1.54636031786074
-1.30336171785464,-0.976982430820801,1.24542314211001,-2.94866528133535,4.820725440979,-1.56141406694521
-1.31492740312685,-0.943536118870117,1.24536401430239,-2.94865288356923,4.78066825866699,-1.57934695879091
-1.31779700914492,-0.935441331272461,1.24530297914614,-2.94861712078237,4.77286815643311,-1.5811713377582
-1.32214671770205,-0.923612431888916,1.2453878561603,-2.94861712078237,4.76239919662476,-1.58253986040224
-1.32666713396181,-0.911960439091065,1.24528009096255,-2.94866528133535,4.75209045410156,-1.58342057863344
-1.33180457750429,-0.89995367944751,1.24532777467837,-2.94864096264028,4.74209833145142,-1.58464366594423
-1.35799724260439,-0.854242638950684,1.24522096315493,-2.94862904171132,4.69112205505371,-1.60753947893252
-1.36722404161562,-0.839626149540283,1.24524385133852,-2.94861712078237,4.67052030563354,-1.6284182707416
-1.37411052385439,-0.829107121830322,1.24523240724672,-2.94854511837148,4.65438270568848,-1.64806205431093
-1.37630254427065,-0.825754956608154,1.24523240724672,-2.94854464153432,4.64916896820068,-1.65516454378237
-1.38488847414126,-0.812287644749023,1.24524385133852,-2.94853272060537,4.62954425811768,-1.68575317064394
-1.38895637193789,-0.805645303135254,1.24524385133852,-2.94845881084585,4.62066268920898,-1.70175820985903
-1.40128690401186,-0.78631146371875,1.24525624910464,-2.94646229366445,4.6001296043396,-1.74714118639101
-1.40550834337343,-0.779776887302734,1.24528009096255,-2.94545521358632,4.59548950195312,-1.76037437120547
-1.4138277212726,-0.766914681797363,1.24526864687075,-2.94231333355092,4.59095478057861,-1.78269178072085
-1.41983920732607,-0.75728257120166,1.24530488649477,-2.93881382564687,4.59070253372192,-1.79528743425478
-1.42397433916201,-0.750622109775879,1.24526864687075,-2.93638386348867,4.59072685241699,-1.80231696764101
-1.42807418504824,-0.743881062870361,1.24525624910464,-2.9335199795165,4.59070301055908,-1.80856687227358
-1.44255572954287,-0.720533685093262,1.24536401430239,-2.9222780666747,4.59025716781616,-1.82802468935122
-1.4650300184833,-0.677481488590576,1.24552041689028,-2.90824284176015,4.57613182067871,-1.90418464342226
-1.46864253679384,-0.669877366428711,1.24553090730776,-2.90701450924062,4.56817817687988,-1.93061477342714
-1.47954684892763,-0.645697907810547,1.24559194246401,-2.88710655788564,4.5275239944458,-2.03334743181338
-1.48047620454897,-0.643236951237061,1.24563867250551,-2.87985386470937,4.52100086212158,-2.04249889055361
-1.48295003572573,-0.637804822330811,1.24566346803774,-2.85169710735464,4.49906444549561,-2.057021919881
-1.48363334337343,-0.636482076053955,1.24568826356997,-2.8400346241393,4.49098873138428,-2.05814534822573
-1.48481399217714,-0.634607629185059,1.24573403993715,-2.82102741817617,4.47738075256348,-2.05828410783877
-1.48612243333925,-0.633104161625244,1.24588853517641,-2.79415669063711,4.45536518096924,-2.05842048326601
-1.48762351671328,-0.632547215824463,1.24598580995669,-2.76693453411245,4.42960262298584,-2.05934554735293
-1.48828202882876,-0.632583455448486,1.24597245851626,-2.74678864101552,4.40716361999512,-2.06223708788027
-1.48863727251162,-0.632547215824463,1.24593621889223,-2.72863497356557,4.38180923461914,-2.06770927110781
-1.48881942430605,-0.632547215824463,1.24591333070864,-2.71230997661733,4.35464286804199,-2.07625037828554
-1.4889557997333,-0.632559136753418,1.24593621889223,-2.69765915493154,4.32656240463257,-2.08812553087343
-1.48897916475405,-0.632559136753418,1.24594957033266,-2.68108620266103,4.29108762741089,-2.10689479509463
-1.48895532289614,-0.632559136753418,1.24597245851626,-2.67386211971425,4.27469110488892,-2.11745292345156
-1.488991085683,-0.632571057682373,1.24594957033266,-2.66682924846792,4.25952672958374,-2.12840301195254
-1.48897916475405,-0.632571057682373,1.24596101442446,-2.65984692196035,4.24551105499268,-2.13910037675966
-1.48901492754091,-0.632607297306397,1.24592477480044,-2.65291132549428,4.23326110839844,-2.149635616933
-1.48901492754091,-0.632583455448486,1.24596101442446,-2.63465561489248,4.2077112197876,-2.17018777528872
-1.48906308809389,-0.632619218235352,1.24592668214907,-2.62684692958974,4.19969940185547,-2.17597991624941
-1.48913795152773,-0.632547215824463,1.24616510072817,-2.60116781810903,4.18247032165527,-2.1847623030292
-1.48933250108828,-0.632607297306397,1.24622613588442,-2.59152998546743,4.17896366119385,-2.1849196592914
-1.48972446123232,-0.632607297306397,1.24659902254214,-2.56538738826894,4.17231464385986,-2.18494445482363
-1.48989135423769,-0.632547215824463,1.24687463441958,-2.54922880748891,4.16844415664673,-2.18498069444765
-1.48999816576113,-0.632595376377441,1.24729806581606,-2.5332366428771,4.16258859634399,-2.1850417296039
-1.49009496370424,-0.632571057682373,1.24820596376528,-2.51787390331411,4.15510129928589,-2.18512565294375
-1.49033672014345,-0.632523373966553,1.24946195283999,-2.50429215053701,4.1461501121521,-2.18522388139834
-1.49052840868105,-0.632571057682373,1.2502821127521,-2.49619927028798,4.13892555236816,-2.18539458910097
-1.49324447313418,-0.632583455448486,1.25611383119692,-2.4708587131896,4.08534955978394,-2.18879920641054
-1.49445373216738,-0.632631139164307,1.25949174562563,-2.46823181728506,4.0565767288208,-2.19590217271914
-1.49585706392397,-0.632595376377441,1.2714641729938,-2.46697678188466,3.99568367004395,-2.22539359727968
-1.49596435228457,-0.632595376377441,1.27625924745669,-2.46468748668813,3.98280572891235,-2.23317844072451
-1.49592811266054,-0.632655457859375,1.28618699709047,-2.45891155819082,3.9664261341095,-2.24526626268496
-1.49592811266054,-0.632619218235352,1.29086000124087,-2.45614494899892,3.96215653419495,-2.24896127382387
-1.49590474763979,-0.632655457859375,1.29332238832583,-2.45478453258657,3.96049094200134,-2.2503493467914
-1.49600154558291,-0.632631139164307,1.29592401186098,-2.45352520565175,3.95885324478149,-2.25147754350771
-1.4959662596332,-0.632631139164307,1.3073242346393,-2.44894280056142,3.95430612564087,-2.25341350237002
-1.49597675005068,-0.632631139164307,1.31667787233462,-2.4465552769103,3.9517388343811,-2.25339967409243
-1.49597675005068,-0.632655934696533,1.32994443575014,-2.44512858013296,3.94718313217163,-2.25343543687929
-1.49598819414248,-0.632716016178467,1.33659345308413,-2.44515528301381,3.9442081451416,-2.25339967409243
-1.49600106874575,-0.632743195896484,1.34310895601381,-2.44516768077993,3.94103693962097,-2.25342351595034
-1.49732810655703,-0.632883386020996,1.36464769044985,-2.44516768077993,3.92554974555969,-2.25369483629336
-1.49809152284731,-0.632811383610107,1.36850530305971,-2.44520392040395,3.92116403579712,-2.25412351289858
-1.49875766435732,-0.632835702305176,1.37174398103823,-2.44519152263784,3.91614866256714,-2.2547381559955
-1.50003940263857,-0.632871465092041,1.37594014803042,-2.44517960170888,3.90452146530151,-2.25598889986147
-1.50064689317812,-0.632921056156494,1.37695771852602,-2.44519152263784,3.89871740341187,-2.25719863573183
-1.50152284303774,-0.632931546573975,1.37712270418276,-2.44521584133291,3.88610601425171,-2.26422483125796
-1.50174981752505,-0.633054093723633,1.37692338625063,-2.44516768077993,3.87885999679565,-2.27017671266665
-1.5034125486957,-0.633099393253662,1.37691289583315,-2.44519152263784,3.85371065139771,-2.29959184328188
-1.50358421007265,-0.633111314182617,1.37692529359926,-2.44514336208486,3.84680604934692,-2.3098786512958
-1.50355941454043,-0.633087472324707,1.37687760988344,-2.44520344356679,3.82515001296997,-2.34988266626467
-1.50354749361147,-0.633063630466797,1.37685281435122,-2.44517960170888,3.82292413711548,-2.35400659242739
-1.50355941454043,-0.633063630466797,1.37688905397524,-2.44515575985097,3.82067060470581,-2.3577609697925
-1.50354749361147,-0.633099393253662,1.37685281435122,-2.44519152263784,3.81490564346313,-2.36746246019472
-1.5036075750934,-0.633123711948731,1.37688905397524,-2.44515575985097,3.81150770187378,-2.37224322954287
-1.50371820131411,-0.633075551395752,1.37686425844301,-2.44516768077993,3.80608797073364,-2.37664586702456
-1.50383884111513,-0.633087472324707,1.37687760988344,-2.44514336208486,3.80324602127075,-2.37681276002993
-1.5040081183063,-0.633063630466797,1.37688905397524,-2.44514336208486,3.79989862442017,-2.37682539621462
-1.50441915193667,-0.633051709537842,1.37690049806704,-2.44511952022695,3.79389715194702,-2.3768256346332
-1.50648099580874,-0.633136109714844,1.37691289583315,-2.44511952022695,3.77706384658813,-2.37680155435671
-1.50690967241396,-0.63309987009082,1.37691289583315,-2.44511952022695,3.77271509170532,-2.37684947649111
-1.50715047517885,-0.633124188785889,1.37688905397524,-2.44514336208486,3.77046060562134,-2.37683755556215
-1.50734359422793,-0.633123711948731,1.37688905397524,-2.4451314411559,3.76835680007935,-2.37681347528567
-1.508766476308,-0.633135632877686,1.37688905397524,-2.44515575985097,3.75639963150024,-2.37688571611513
-1.50872642198672,-0.633159474735596,1.37694818178286,-2.4451314411559,3.751549243927,-2.37687379518618
-1.50877410570254,-0.633147553806641,1.37693673769106,-2.44510759929799,3.74767541885376,-2.37684947649111
-1.50877410570254,-0.633111314182617,1.37688905397524,-2.44516720394277,3.74766397476196,-2.37683755556215
-1.50879794756045,-0.633087472324707,1.37693673769106,-2.44510712246084,3.74765062332153,-2.37686163583864
-1.50877410570254,-0.633147553806641,1.37692529359926,-2.44509520153188,3.74766397476196,-2.37689763704409
-1.50878650346865,-0.633111314182617,1.37688905397524,-2.44503464321279,3.74767541885376,-2.376921478902
-1.50879794756045,-0.633123711948731,1.37691289583315,-2.44501080135488,3.74767541885376,-2.37688547769655
-1.50882178941836,-0.633147553806641,1.37694913545717,-2.44496216396474,3.74768686294556,-2.37690955797304
-1.50879794756045,-0.633159474735596,1.37695008913149,-2.44490208248281,3.74767541885376,-2.37693363824953
-1.50876218477358,-0.633135632877686,1.3769853750812,-2.44476856807851,3.74767541885376,-2.37693363824953
-1.50876218477358,-0.633123711948731,1.3769853750812,-2.44468369106435,3.74768686294556,-2.37690955797304
-1.50875026384463,-0.633123711948731,1.37702256837954,-2.44437946895742,3.74767541885376,-2.3768735567676
-1.50877410570254,-0.633135632877686,1.37710458437075,-2.44347681621694,3.74769926071167,-2.37694555917849
-1.50879794756045,-0.633087472324707,1.37709314027895,-2.4424778423705,3.74768686294556,-2.37689763704409
-1.50879794756045,-0.633087472324707,1.37709314027895,-2.44184078792714,3.74769926071167,-2.37688547769655
-1.50875026384463,-0.633147553806641,1.37712937990297,-2.44055618862295,3.74772310256958,-2.37690955797304
-1.50877410570254,-0.633135632877686,1.37709314027895,-2.43912520031118,3.74769926071167,-2.376921478902
-1.50878650346865,-0.633123711948731,1.37710458437075,-2.43722405056142,3.74769926071167,-2.37690955797304
-1.50881034532656,-0.633135632877686,1.37710458437075,-2.43394007305288,3.7477593421936,-2.37694555917849
-1.50876218477358,-0.633123711948731,1.37711602846255,-2.43174471477651,3.7477593421936,-2.37690955797304
-1.50873834291567,-0.633099393253662,1.37706834474672,-2.42923512081289,3.74771070480347,-2.37690955797304
-1.50875026384463,-0.633123711948731,1.37712842622866,-2.42409815410756,3.74778318405151,-2.376921478902
-1.50876218477358,-0.633123711948731,1.37712842622866,-2.42134823421621,3.7477707862854,-2.37690955797304
-1.5087140242206,-0.633135632877686,1.37710458437075,-2.41994871715688,3.74774599075317,-2.37693363824953
-1.50878650346865,-0.633123711948731,1.37708074251284,-2.41433729747915,3.74774599075317,-2.37690955797304
-1.50878650346865,-0.633111314182617,1.37711602846255,-2.40644039730214,3.7477593421936,-2.37688547769655
-1.50873834291567,-0.633135632877686,1.37706834474672,-2.40637888530874,3.74771070480347,-2.37688547769655
-1.5087140242206,-0.633123711948731,1.37708074251284,-2.40640272716665,3.7477707862854,-2.37686163583864
-1.50876218477358,-0.633159474735596,1.37710458437075,-2.40640272716665,3.74771070480347,-2.37690955797304
-1.5087140242206,-0.633135632877686,1.37706834474672,-2.40645088771963,3.74774599075317,-2.37689763704409
-1.50878650346865,-0.633135632877686,1.37708074251284,-2.40642704586172,3.74774599075317,-2.37688547769655
-1.50877410570254,-0.633123711948731,1.3770321051227,-2.40642704586172,3.74771070480347,-2.37688547769655
-1.5087140242206,-0.633183316593506,1.37706834474672,-2.40642704586172,3.74774599075317,-2.3768735567676
-1.5087140242206,-0.633135632877686,1.37705690065493,-2.40645088771963,3.74773454666138,-2.37686163583864
-1.50875026384463,-0.633111314182617,1.37706834474672,-2.4064146480956,3.7477593421936,-2.3768735567676
-1.50875026384463,-0.633159474735596,1.37704450288881,-2.40642704586172,3.7477593421936,-2.3768735567676
-1.50873834291567,-0.633135632877686,1.37706834474672,-2.4064146480956,3.74773454666138,-2.3768735567676
-1.50875026384463,-0.633123711948731,1.37700921693911,-2.40643896679067,3.7477593421936,-2.3768735567676
-1.5087140242206,-0.633111314182617,1.37700921693911,-2.4064146480956,3.7477593421936,-2.37689763704409
-1.50869018236269,-0.633135632877686,1.37704450288881,-2.40643896679067,3.74781847000122,-2.3768735567676
-1.5087140242206,-0.633135632877686,1.37699681917299,-2.40642704586172,3.74785757064819,-2.37686163583864
-1.50872594514956,-0.633147553806641,1.37694818178286,-2.40646280864858,3.74837827682495,-2.37683755556215
-1.50864202180971,-0.633123711948731,1.37680417696108,-2.40652289013051,3.75087404251099,-2.37686139742006
-1.50861865678896,-0.633099393253662,1.37680417696108,-2.40651096920156,3.75138902664185,-2.37681347528567
-1.50857097307314,-0.633159474735596,1.37675553957094,-2.40655912975454,3.75251817703247,-2.37683731714358
-1.50859433809389,-0.633135632877686,1.37669641176333,-2.40654720882558,3.75312280654907,-2.37680131593813
-1.50858241716494,-0.633195237522461,1.37664872804751,-2.40651096920156,3.75371408462524,-2.37677747408022
-1.50849849382509,-0.633123711948731,1.37663728395571,-2.40653481105947,3.75400018692017,-2.37681347528567
-1.5085337797748,-0.633111314182617,1.37664872804751,-2.40651096920156,3.75437593460083,-2.37676555315127
-1.50841457048525,-0.633171395664551,1.37656289735903,-2.40651096920156,3.7588210105896,-2.37675363222231
-1.50831538835634,-0.633159474735596,1.37641984621157,-2.40657105068349,3.76302480697632,-2.37680155435671
-1.50803834596743,-0.633123711948731,1.376433197652,-2.40655912975454,3.76765489578247,-2.37676555315127
-1.50784618059267,-0.633135632877686,1.3764217535602,-2.40653481105947,3.77123975753784,-2.37676555315127
-1.50770408311953,-0.633135632877686,1.37639695802797,-2.40655912975454,3.77336072921753,-2.37677747408022
-1.50728542009463,-0.633147553806641,1.37636167207827,-2.40657105068349,3.78735971450806,-2.37678963342776
-1.50712854066958,-0.633123711948731,1.37638551393618,-2.40657105068349,3.79531049728394,-2.37677747408022
-1.50682336488833,-0.633123711948731,1.37633783022036,-2.40658297161245,3.80380201339722,-2.3767412344562
-1.50560790697207,-0.633111314182617,1.37626153627505,-2.40661921123647,3.82280111312866,-2.3765872160541
-1.50469285646547,-0.633123711948731,1.3760088125812,-2.40659584621572,3.83841562271118,-2.37628418604006
-1.50408250490297,-0.633111314182617,1.37575608888735,-2.40682758907461,3.85509443283081,-2.3762849012958
-1.5035026709186,-0.633123711948731,1.37555390993227,-2.40693297008657,3.86621332168579,-2.37628442445864
-1.50253802934755,-0.633111314182617,1.3753870169269,-2.40696825603628,3.88244009017944,-2.37623650232424
-1.50202781358828,-0.633135632877686,1.37524110475649,-2.40698065380239,3.89338541030884,-2.37618810335268
-1.50166923204531,-0.633159474735596,1.37497216859926,-2.40705313305044,3.90425848960876,-2.37612778345217
-1.50050861040224,-0.633099393253662,1.3732536474811,-2.40706362346792,3.92638564109802,-2.37604433694948
-1.49889070192446,-0.633147553806641,1.36989671388735,-2.40717424968862,3.94775557518005,-2.3759220282184
-1.49727183977236,-0.633123711948731,1.36643582979311,-2.40729488948964,3.96314191818237,-2.37565547624697
-1.49617892900576,-0.633111314182617,1.3635986487018,-2.4072920284667,3.97309684753418,-2.37550002733339
-1.4949315229999,-0.633147553806641,1.36022454897036,-2.4073535404601,3.98328304290771,-2.37532049814333
-1.49272901216616,-0.633075551395752,1.35380059877505,-2.40734018901967,3.99801993370056,-2.37520200410952
-1.49107867876162,-0.633135632877686,1.34852296510805,-2.40732779125356,4.00778293609619,-2.37514359155764
-1.4885986487018,-0.633099393253662,1.33923417726626,-2.40732779125356,4.0223274230957,-2.37503439584841
-1.4870026747333,-0.633111314182617,1.33311158815493,-2.40733971218252,4.03038692474365,-2.37495047250857
-1.48508435884585,-0.633087472324707,1.32420713106264,-2.40732779125356,4.0410270690918,-2.37487870851626
-1.48213225999941,-0.633111314182617,1.31058580080141,-2.4072920284667,4.05520820617676,-2.37477070489992
-1.48007184663881,-0.633111314182617,1.30040437379946,-2.40731587032461,4.06435489654541,-2.37471062341799
-1.4625828901874,-0.633098916416504,1.21833306947817,-2.40727963070058,4.13403129577637,-2.37388760248293
-1.4591649214374,-0.633075551395752,1.20126992860903,-2.40724339107656,4.15252590179443,-2.37144238153567
-1.45722943941225,-0.633075551395752,1.1903751532184,-2.40726723293447,4.16543674468994,-2.36853391328921
-1.45020229021181,-0.633135632877686,1.13213140169253,-2.40723194698476,4.24386024475098,-2.33125335374941
-1.44947559038271,-0.633135632877686,1.11843949953188,-2.40726770977163,4.26321506500244,-2.31736880937685
-1.44816095033755,-0.633111314182617,1.09570771852602,-2.40732779125356,4.29337024688721,-2.28961331049074
-1.44697505632509,-0.633183316593506,1.05872232118715,-2.40726770977163,4.33851051330566,-2.2370494047748
-1.44640905061831,-0.633171395664551,1.04910546938051,-2.4072920284667,4.34969902038574,-2.22302943864931
-1.44511396089663,-0.633135632877686,1.0243709723102,-2.40727963070058,4.37802028656006,-2.18782550493349
-1.44503766695131,-0.633135632877686,1.01455766359438,-2.4072920284667,4.38984394073486,-2.17376023927797
-1.44502717653383,-0.633147553806641,0.989669624959127,-2.4072920284667,4.42085218429565,-2.13856250444521
-1.44501477876772,-0.633123711948731,0.979471985493795,-2.40726770977163,4.43349361419678,-2.12465316454043
-1.44499093690981,-0.633195237522461,0.969352547322408,-2.40731587032461,4.44629335403442,-2.11043197313418
-1.44500285783877,-0.633159474735596,0.954394165669576,-2.4072920284667,4.46576595306396,-2.08918029466738
-1.44507533708681,-0.633159474735596,0.944596115742819,-2.40733971218252,4.47913217544556,-2.07485706010927
-1.44503909746279,-0.633171395664551,0.93967324892153,-2.4072920284667,4.48587608337402,-2.06766301790346
-1.4450629393207,-0.633135632877686,0.929714028035299,-2.40727963070058,4.49893379211426,-2.05316287675966
-1.44508678117861,-0.633147553806641,0.920061890278951,-2.40727963070058,4.51227951049805,-2.0382927099811
-1.44509917894472,-0.633123711948731,0.910396401082174,-2.40730347255849,4.52532577514648,-2.02345449129214
-1.44514686266054,-0.633147553806641,0.896459404622213,-2.40731587032461,4.54500865936279,-2.00078040758242
-1.44503909746279,-0.633147553806641,0.887362305318014,-2.40726770977163,4.55816125869751,-1.98522740999331
-1.44511109987368,-0.633159474735596,0.882845703755514,-2.40726770977163,4.56468868255615,-1.97744113603701
-1.44511109987368,-0.633075551395752,0.869419876729147,-2.40731587032461,4.58451128005981,-1.95381910005678
-1.44512302080263,-0.633123711948731,0.856343094502584,-2.40730347255849,4.60367250442505,-1.92994577089419
-1.44511157671084,-0.633135632877686,0.847700897847311,-2.40726770977163,4.61631107330322,-1.91350442567934
-1.44522029558291,-0.633171395664551,0.830378357564108,-2.40727963070058,4.64066457748413,-1.88012344041933
-1.44527942339052,-0.633135632877686,0.821856323872701,-2.40726770977163,4.6522741317749,-1.8630955854999
-1.44527942339052,-0.633111314182617,0.813237015401022,-2.40731587032461,4.66363668441772,-1.84583217302431
-1.44533950487246,-0.633111314182617,0.804653946553366,-2.40723194698476,4.67488145828247,-1.82832461992373
-1.44537526765932,-0.633135632877686,0.791932884846823,-2.40726770977163,4.69063091278076,-1.80162078539004
-1.44539958635439,-0.633171395664551,0.783320252095358,-2.40732779125356,4.70117807388306,-1.78347713152041
-1.44548350969423,-0.633147553806641,0.761954132710592,-2.40726770977163,4.72622680664062,-1.7369764486896
-1.44554406801333,-0.633135632877686,0.753520790730612,-2.40730347255849,4.7363452911377,-1.71813899675478
-1.44555408159365,-0.633147553806641,0.744952026997701,-2.40727963070058,4.74626350402832,-1.69929534593691
-1.4455660025226,-0.633135632877686,0.736292664204733,-2.40732779125356,4.75626277923584,-1.68057710329165
-1.44560176530947,-0.633159474735596,0.718939606343405,-2.4072920284667,4.77635478973389,-1.64230662981142
-1.44573527971377,-0.633123711948731,0.69727594057192,-2.40727963070058,4.80022096633911,-1.5933406988727
-1.44610816637148,-0.633111314182617,0.656596008931295,-2.40727963070058,4.83612823486328,-1.50386172929873
-1.44625312486757,-0.633135632877686,0.647211853657858,-2.40730347255849,4.8418288230896,-1.48409492174257
-1.4464319388019,-0.633099393253662,0.633103195820944,-2.40730394939565,4.84830617904663,-1.45470363298525
-1.4470594565021,-0.633111314182617,0.582043472920553,-2.4072920284667,4.85258197784424,-1.36067325273623
-1.44727832475771,-0.633147553806641,0.576739136372701,-2.40732779125356,4.85256958007812,-1.35180837312807
-1.44746333757509,-0.633159474735596,0.571480576192037,-2.40730394939565,4.85257005691528,-1.34300929704775
-1.44820768037905,-0.633135632877686,0.560664955769674,-2.40725578884267,4.85260581970215,-1.32587653795351
-1.45515042940249,-0.633183793430664,0.511419121419088,-2.40739073375844,4.85245037078857,-1.25887519518007
-1.45885306993593,-0.633123711948731,0.494483772908346,-2.40737595180654,4.85242605209351,-1.24151975313296
-1.46175891557802,-0.633207635288574,0.483026329671041,-2.40742458919668,4.85235452651978,-1.23185998598208
-1.47217590013613,-0.633208588962891,0.447048966084616,-2.40751232723379,4.85205793380737,-1.21259624162783
-1.48932153383364,-0.633171395664551,0.388974014912741,-2.40761627773427,4.85152816772461,-1.20848113695254
-1.49576455751528,-0.633147076969482,0.369818512593405,-2.40753187755727,4.85154056549072,-1.20838195482363
-1.51506930986513,-0.633171395664551,0.316239182149069,-2.40749611477041,4.85148048400879,-1.20324355760683
-1.51975089708437,-0.633159474735596,0.305596176777975,-2.40745892147207,4.85148048400879,-1.19895679155459
-1.52461225191225,-0.633207635288574,0.295606438313619,-2.40749563793325,4.8514928817749,-1.19294530550112
-1.53745824495424,-0.633219556217529,0.272073570881979,-2.40751995662832,4.85148000717163,-1.16973907152285
-1.55454093614687,-0.633195237522461,0.241377655659811,-2.40749611477041,4.85142040252686,-1.12085849443545
-1.56148082414736,-0.633183316593506,0.228704277669088,-2.40748371700429,4.85145664215088,-1.09559518495669
-1.58293039003481,-0.633135632877686,0.184206787739889,-2.40750803569936,4.850905418396,-0.998608414326803
-1.58634883562197,-0.633171395664551,0.176342789326803,-2.40751995662832,4.85081958770752,-0.98272163072695
-1.58967191377749,-0.633135632877686,0.168591324483053,-2.40751995662832,4.85071039199829,-0.967836205159323
-1.59788972536196,-0.633147553806641,0.149346176777975,-2.40755619625234,4.8497838973999,-0.937127892171041
-1.60391456285586,-0.633123711948731,0.134098831807272,-2.40758099178457,4.84821367263794,-0.92068320909609
-1.60687953630556,-0.633123711948731,0.126307312642233,-2.40750803569936,4.84772634506226,-0.915070835744039
-1.60835868517031,-0.633087472324707,0.122353378926412,-2.40754427532339,4.8477087020874,-0.912937466298239
-1.62446338335146,-0.633147553806641,0.0873897711383265,-2.40754427532339,4.84774541854858,-0.909072224293844
-1.63050777116884,-0.633159474735596,0.0761917273150843,-2.40758003811025,4.84772157669067,-0.909107987080709
-1.63659364381899,-0.633135632877686,0.0654171148883265,-2.40750803569936,4.84773349761963,-0.909071747456686
-1.63859779039492,-0.633087472324707,0.0618675390826624,-2.40747179607534,4.84773349761963,-0.909107510243551
-1.6405728499042,-0.633123711948731,0.0584457556353968,-2.40747179607534,4.84773349761963,-0.909059826527731
-1.66285640398134,-0.633099393253662,0.0282037893878382,-2.40749611477041,4.84773349761963,-0.909011665974752
-1.66638309160341,-0.633171395664551,0.0241554419146937,-2.40748371700429,4.84774541854858,-0.909023586903707
-1.68571406999697,-0.633207635288574,0.0135105291949671,-2.40747179607534,4.84786510467529,-0.899318043385641
-1.69064885774721,-0.63324339807544,0.013521973286764,-2.40749611477041,4.84785318374634,-0.890393082295553
-1.69276553789248,-0.633195237522461,0.0135467688189905,-2.40743603328847,4.84785318374634,-0.884808365498678
-1.70120221773256,-0.633183316593506,0.0134742895709437,-2.40747179607534,4.84791278839111,-0.846151653920309
-1.70275003114809,-0.633280114536621,0.0134628454791468,-2.40750803569936,4.84785318374634,-0.837002102528707
-1.70934087434878,-0.633816079502441,0.0134246985064905,-2.40755619625234,4.84786510467529,-0.806259934102194
-1.72127229372133,-0.636573151951172,0.0129430929767054,-2.4075681171813,4.84785318374634,-0.778542820607321
-1.7241042296039,-0.637493447666504,0.0122821966754358,-2.40754427532339,4.84790134429932,-0.776211086903707
-1.73505431810488,-0.643921212559082,0.00864679018129522,-2.40748419384145,4.84792518615723,-0.775373760853903
-1.73737556139101,-0.645719842319824,0.00793153444399053,-2.40753235439443,4.84798812866211,-0.775385681782858
-1.73965102830996,-0.647689656620361,0.0074241797076624,-2.40753187755727,4.84799766540527,-0.775337998067037
-1.74677640596499,-0.655221776371338,0.00732881227602178,-2.40750803569936,4.84810447692871,-0.775373760853903
-1.75697642961611,-0.669804887180664,0.00724488893617803,-2.40755619625234,4.84815263748169,-0.775409523640768
-1.75778419176211,-0.671362714176514,0.0072563330279749,-2.40751995662832,4.84820175170898,-0.775373760853903
-1.75924045244326,-0.674480752354004,0.00730592409242803,-2.40747179607534,4.84816455841064,-0.775361839924948
-1.76358443895449,-0.685649709110596,0.00730592409242803,-2.40749563793325,4.84817600250244,-0.775349918995992
-1.76471645036806,-0.688597516422607,0.00734121004213506,-2.40743603328847,4.84822463989258,-0.775361839924948
-1.76595813432802,-0.691259221439697,0.00732881227602178,-2.40743603328847,4.84824848175049,-0.775373760853903
-1.77681047121157,-0.702391461735107,0.00726968446840459,-2.40743603328847,4.84832191467285,-0.775409523640768
-1.77948791185488,-0.704318360691406,0.00726968446840459,-2.40738787273549,4.8483943939209,-0.775361839924948
-1.78679925600161,-0.70998557031665,0.00746423402895147,-2.40729155162954,4.84884929656982,-0.775361839924948
-1.7879379431354,-0.711312131290772,0.00738698640932256,-2.40721907238149,4.84896278381348,-0.775361839924948
-1.78831416765322,-0.71170790613208,0.00741273561586553,-2.40715899089956,4.84912109375,-0.775385681782858
-1.78951675096621,-0.715904073124268,0.00749856630434209,-2.40711083034658,4.84937381744385,-0.775409523640768
-1.78950578371157,-0.716623143558838,0.00737458864320928,-2.40717138866567,4.8493857383728,-0.775421444569723
-1.79031783739199,-0.71933730066333,0.00734979311098272,-2.40714754680776,4.84939861297607,-0.775373760853903
-1.79715663591494,-0.724150971775391,0.00735360780824834,-2.40712322811269,4.84952068328857,-0.775410000477926
-1.79990464845766,-0.725233392124512,0.00724488893617803,-2.40714754680776,4.84951782226562,-0.775421444569723
-1.8054612318622,-0.728173093204834,0.00717050233949834,-2.40712370494985,4.84957790374756,-0.775457684193746
-1.80706960359682,-0.729249791508057,0.00717336336244756,-2.40711178402089,4.84961318969727,-0.775457684193746
-1.80903560320009,-0.730537728672363,0.00693971315492803,-2.40711178402089,4.8496732711792,-0.775481526051657
-1.81306678453554,-0.735040501957275,0.00591546693910772,-2.40703930477285,4.84969711303711,-0.775457684193746
-1.8132966200458,-0.735209302311279,0.00547296205629522,-2.40707554439687,4.84970855712891,-0.775469605122701
-1.81448251405825,-0.735922173862793,0.0052574316607874,-2.40701546291494,4.84974479675293,-0.775505367909567
-1.81448203722109,-0.735849694614746,0.00530511537660772,-2.40701450924062,4.84975671768188,-0.775469605122701
-1.81444627443422,-0.735849694614746,0.00531655946840459,-2.40695299724721,4.84972095489502,-0.775505367909567
-1.81441051164736,-0.735873536472656,0.005317513142721,-2.40676989177846,4.84974527359009,-0.775505367909567
-1.81448203722109,-0.735897378330566,0.00532895723451787,-2.40661682705068,4.84978103637695,-0.775517288838522
-1.81444627443422,-0.735885457401611,0.00526887575258428,-2.40653433422231,4.84978103637695,-0.775529209767477
-1.81443435350527,-0.735897378330566,0.00529367128481084,-2.40658249477529,4.84976863861084,-0.775493446980612
-1.81444627443422,-0.73593361795459,0.00529367128481084,-2.40657105068349,4.84978055953979,-0.775505367909567
-1.81442195573916,-0.735885457401611,0.00528031984438115,-2.4065948925414,4.84974479675293,-0.775481526051657
-1.81439811388125,-0.735897378330566,0.00526887575258428,-2.40657105068349,4.84970855712891,-0.775505367909567
-1.81438619295229,-0.735885457401611,0.00530511537660772,-2.40661873439931,4.84976863861084,-0.775505367909567
-1.81437427202334,-0.735873536472656,0.00524503389467412,-2.40664305309438,4.84973287582397,-0.775517288838522
-1.81443435350527,-0.735921697025635,0.0052574316607874,-2.40665497402334,4.84978055953979,-0.775469128285543
-1.81438619295229,-0.735885457401611,0.00526887575258428,-2.40661873439931,4.84975671768188,-0.775529209767477
-1.81442195573916,-0.735921697025635,0.00523263612856084,-2.40660681347036,4.84976863861084,-0.775517288838522
-1.81438619295229,-0.735885457401611,0.00526887575258428,-2.40663113216543,4.84972095489502,-0.775481526051657
-1.81435043016543,-0.735873536472656,0.00529367128481084,-2.40666737178945,4.84970855712891,-0.775505367909567
-1.81435043016543,-0.735849694614746,0.00529367128481084,-2.40676321605825,4.84972095489502,-0.775493446980612
-1.81433850923647,-0.735837773685791,0.00529367128481084,-2.40678753475332,4.84969663619995,-0.775469128285543
-1.81433850923647,-0.735861615543701,0.00530511537660772,-2.40677561382436,4.84970855712891,-0.775493446980612
-1.81435043016543,-0.735825852756836,0.00532895723451787,-2.40678753475332,4.849684715271,-0.775517288838522
-1.81431466737856,-0.735789613132813,0.00534135500063115,-2.40690006832265,4.849684715271,-0.775517288838522
-1.81431466737856,-0.735813454990723,0.00532895723451787,-2.40700640300893,4.84964895248413,-0.775481526051657
-1.81430274644961,-0.735789613132813,0.00529367128481084,-2.40707792858266,4.84963703155518,-0.775481526051657
-1.81429034868349,-0.735765771274902,0.00532895723451787,-2.40849127391958,4.84933948516846,-0.775505367909567
-1.81425458589663,-0.735753850345947,0.00535279909242803,-2.40857328991079,4.84919786453247,-0.775493446980612
-1.81427842775454,-0.735753850345947,0.00531655946840459,-2.4090305767455,4.84900045394897,-0.775481526051657
-1.81423074403872,-0.735813454990723,0.00535279909242803,-2.40935721019887,4.84897804260254,-0.775505367909567
-1.81426650682558,-0.735789613132813,0.00532895723451787,-2.41146339992666,4.84893035888672,-0.775505367909567
-1.81425458589663,-0.735765771274902,0.0053642431842249,-2.41192926983022,4.84890651702881,-0.775469128285543
-1.81425458589663,-0.735801534061768,0.00537759462465459,-2.41238894085073,4.84893035888672,-0.775493446980612
-1.81427842775454,-0.735789613132813,0.00535279909242803,-2.41591848949575,4.8488826751709,-0.775517288838522
-1.81429034868349,-0.735753850345947,0.0053642431842249,-2.41763319591665,4.84891843795776,-0.775493446980612
-1.81425458589663,-0.735741929416992,0.0053642431842249,-2.41924967388296,4.84891891479492,-0.775505367909567
-1.81423074403872,-0.735717610721924,0.00537759462465459,-2.42132153133535,4.84889459609985,-0.775493446980612
-1.81423074403872,-0.735765771274902,0.00537759462465459,-2.42195858577871,4.84889459609985,-0.775469128285543
-1.81420642534365,-0.735801534061768,0.00534135500063115,-2.42216791729116,4.84894275665283,-0.775505367909567
-1.8142183462726,-0.735789613132813,0.00545007387270147,-2.42220701793813,4.84893083572388,-0.775493446980612
-1.81419450441469,-0.735717133884766,0.0054863134967249,-2.42220701793813,4.84891891479492,-0.775481526051657
-1.81423074403872,-0.735705689792969,0.00557023683656865,-2.42219509700918,4.84900283813477,-0.775481526051657
-1.81421882310976,-0.7356813710979,0.005653206502096,-2.42218269924306,4.84896659851074,-0.775505367909567
-1.81420642534365,-0.735645608311035,0.0056541601764124,-2.42214645961904,4.84896659851074,-0.775505367909567
-1.81419450441469,-0.73557265222583,0.00579911867250615,-2.42211021999502,4.84900283813477,-0.775481526051657
-1.8141830603229,-0.735536412601807,0.00589448610414678,-2.42208637813711,4.84899044036865,-0.775481526051657
-1.81417113939394,-0.735489205723145,0.00594026247133428,-2.42209877590322,4.84902667999268,-0.775493446980612
-1.8141830603229,-0.735442475681641,0.00590402284731084,-2.42211069683217,4.84901428222656,-0.775481526051657
-1.81420690218081,-0.735478715305664,0.00591546693910772,-2.42211069683217,4.84900283813477,-0.775529209767477
-1.81419498125185,-0.735478715305664,0.00590402284731084,-2.42212261776113,4.84902667999268,-0.775529209767477
-1.81420690218081,-0.735478715305664,0.00590402284731084,-2.42206301311635,4.84902715682983,-0.775493446980612
-1.81425458589663,-0.735466794376709,0.00590402284731084,-2.42208685497426,4.84907484054565,-0.775457684193746
-1.81423074403872,-0.735466794376709,0.00587922731508428,-2.42207445720815,4.84906435012817,-0.775457684193746
-1.8141830603229,-0.735478715305664,0.00595361391176397,-2.42203821758413,4.84915828704834,-0.775493446980612
-1.81423074403872,-0.735406236057617,0.00603658357729131,-2.42201437572622,4.84913444519043,-0.775457684193746
-1.81419498125185,-0.735297040348389,0.00608331361879522,-2.42199053386831,4.84913444519043,-0.775457684193746
-1.81419498125185,-0.735176877384522,0.00609475771059209,-2.4219666920104,4.84914588928223,-0.775457684193746
-1.81420690218081,-0.73510821283374,0.00613099733461553,-2.42199101070547,4.84913444519043,-0.775457684193746
-1.81424266496767,-0.73510821283374,0.00609475771059209,-2.42201485256338,4.84915828704834,-0.775421444569723
-1.8141830603229,-0.73510821283374,0.00610810915102178,-2.42199101070547,4.84913396835327,-0.775457684193746
-1.81421882310976,-0.73510821283374,0.00611955324281865,-2.42200293163442,4.84912204742432,-0.775445286427633
-1.81415778795351,-0.735143975620606,0.00610810915102178,-2.42201485256338,4.84913444519043,-0.775457684193746
-1.81401473680605,-0.735095815067627,0.00609475771059209,-2.42195477108144,4.84918212890625,-0.775457207356588
-1.81387073198427,-0.73510821283374,0.00613099733461553,-2.42199101070547,4.84914588928223,-0.775457684193746
-1.81384689012636,-0.735120133762695,0.00608331361879522,-2.42195477108144,4.84917020797729,-0.775433842335836
-1.81383544603457,-0.735083894138672,0.00610810915102178,-2.42196716884756,4.84917020797729,-0.775457684193746
-1.81387168565859,-0.735083894138672,0.00610810915102178,-2.42199101070547,4.84913444519043,-0.775457684193746
-1.81385976472964,-0.735095815067627,0.00608331361879522,-2.42202677349233,4.84913444519043,-0.775469128285543
-1.81385976472964,-0.73510821283374,0.00613099733461553,-2.42196716884756,4.84914588928223,-0.775457684193746
-1.81385976472964,-0.735120133762695,0.00610810915102178,-2.42202677349233,4.84915828704834,-0.775433842335836
-1.81382400194277,-0.73513205469165,0.00608331361879522,-2.42203869442129,4.84917020797729,-0.775445286427633
-1.81387168565859,-0.73513205469165,0.00604707399477178,-2.4220510921874,4.84917020797729,-0.775421444569723
-1.81388360658755,-0.735143975620606,0.00591546693910772,-2.4220510921874,4.84918212890625,-0.775457684193746
-1.81382352510561,-0.735143975620606,0.00589162508119756,-2.42206301311635,4.84915828704834,-0.775421444569723
-1.81381160417666,-0.73513205469165,0.00587922731508428,-2.4220510921874,4.84914588928223,-0.775421444569723
-1.81378776231875,-0.735120133762695,0.00590402284731084,-2.42206301311635,4.84913444519043,-0.775433842335836
-1.81377584138979,-0.735155896549561,0.00594026247133428,-2.42203917125844,4.84918212890625,-0.775457684193746
-1.8137996832477,-0.735120133762695,0.00591546693910772,-2.4220510921874,4.84920597076416,-0.775457684193746
-1.81383544603457,-0.735120133762695,0.005927864705221,-2.42201485256338,4.84913444519043,-0.775457684193746
-1.81384784380068,-0.735120133762695,0.00590402284731084,-2.42203869442129,4.84913444519043,-0.775433842335836
-1.81383544603457,-0.735095815067627,0.00591546693910772,-2.42202677349233,4.84917020797729,-0.775433842335836
-1.81381160417666,-0.73510821283374,0.005927864705221,-2.42208685497426,4.84918212890625,-0.775433842335836
-1.81381160417666,-0.73513205469165,0.00585538545717412,-2.42209877590322,4.84918212890625,-0.775457684193746
-1.81384784380068,-0.735143975620606,0.00581819215883428,-2.42208685497426,4.84912204742432,-0.775445286427633
-1.81384784380068,-0.735168294315674,0.00578290620912725,-2.42206301311635,4.84914588928223,-0.775457684193746
-1.81383544603457,-0.735179738407471,0.00575811067690069,-2.42206301311635,4.84915828704834,-0.775433842335836
-1.81382400194277,-0.735143975620606,0.0056999365435999,-2.42206301311635,4.84917020797729,-0.775457684193746
-1.81383544603457,-0.735191659336426,0.0056999365435999,-2.42208733181142,4.84914588928223,-0.775445286427633
-1.81382400194277,-0.735155896549561,0.00573617616762334,-2.42208733181142,4.84913444519043,-0.775445286427633
-1.81381160417666,-0.735179261570313,0.00572473207582647,-2.42213501552724,4.84913444519043,-0.775421444569723
-1.81382400194277,-0.735179261570313,0.00572473207582647,-2.42212309459829,4.84911012649536,-0.775481526051657
-1.81381160417666,-0.735227422123291,0.00567514101137334,-2.42214741329336,4.84913444519043,-0.775409523640768
-1.81383544603457,-0.735239343052246,0.00567514101137334,-2.42219557384633,4.84914588928223,-0.775409523640768
-1.81382400194277,-0.735227422123291,0.00567609468568975,-2.4222313366332,4.84913396835327,-0.775457684193746
-1.81381160417666,-0.735203580265381,0.00568849245180303,-2.42221893886709,4.84912204742432,-0.775445286427633
-1.81378776231875,-0.735467271213867,0.00548345247377569,-2.42241444210195,4.84913444519043,-0.775433842335836
-1.81381160417666,-0.735454873447754,0.0054243246661585,-2.42258467296743,4.84914588928223,-0.775457684193746
-1.81381160417666,-0.735454396610596,0.00546056429018194,-2.42470850567006,4.84915828704834,-0.775445286427633
-1.81385976472964,-0.735407189731934,0.00546056429018194,-2.42478766063833,4.84911012649536,-0.775445286427633
-1.81383544603457,-0.735419110660889,0.00544816652406865,-2.42478766063833,4.84912204742432,-0.775481526051657
-1.81380016008486,-0.735442475681641,0.00547296205629522,-2.42477573970937,4.84912204742432,-0.775421444569723
-1.81382400194277,-0.735419110660889,0.00547296205629522,-2.42478766063833,4.84913396835327,-0.775445286427633
-1.81383544603457,-0.735431031589844,0.00546056429018194,-2.42479958156728,4.84912204742432,-0.775457684193746
-1.81382400194277,-0.735454396610596,0.00543672243227178,-2.42481150249624,4.84915828704834,-0.775469128285543
-1.81387168565859,-0.735407189731934,0.00543672243227178,-2.42479958156728,4.84908628463745,-0.775457684193746
-1.81384784380068,-0.735431031589844,0.00543672243227178,-2.42481150249624,4.84908628463745,-0.775457684193746
-1.81387168565859,-0.735454396610596,0.00547296205629522,-2.42478766063833,4.84909820556641,-0.775469128285543
-1.81381160417666,-0.735407189731934,0.00544816652406865,-2.42483534435415,4.84912204742432,-0.775433842335836
-1.81385976472964,-0.735407189731934,0.00546056429018194,-2.42477573970937,4.84909820556641,-0.775433842335836
-1.81385976472964,-0.735442475681641,0.00546056429018194,-2.42482342342519,4.8490743637085,-0.775457684193746
-1.81385976472964,-0.735407189731934,0.00544816652406865,-2.4248472652831,4.84911012649536,-0.775457684193746
-1.81388360658755,-0.735454396610596,0.00544816652406865,-2.42482342342519,4.84913444519043,-0.775445286427633
-1.81387168565859,-0.735431031589844,0.00547296205629522,-2.42477526287221,4.84913444519043,-0.775445286427633
-1.81384784380068,-0.735419110660889,0.00546056429018194,-2.42477526287221,4.84913444519043,-0.775457684193746
-1.81385976472964,-0.735419110660889,0.00550920168031865,-2.42481150249624,4.8490743637085,-0.775433842335836
-1.81381160417666,-0.735419110660889,0.00547296205629522,-2.42481150249624,4.84908628463745,-0.775445286427633
-1.81385976472964,-0.735442475681641,0.00547296205629522,-2.42478718380117,4.84908628463745,-0.775469128285543
-1.81378776231875,-0.735419110660889,0.00547296205629522,-2.42479958156728,4.8490743637085,-0.775457684193746
-1.81382400194277,-0.735407189731934,0.00547296205629522,-2.42481150249624,4.8490743637085,-0.775433842335836
-1.81384784380068,-0.735419110660889,0.00548440614809209,-2.4247514210143,4.84912204742432,-0.775469128285543
-1.81381160417666,-0.735395268802979,0.00548440614809209,-2.42478718380117,4.84911012649536,-0.775445286427633
-1.81385976472964,-0.735431031589844,0.00548440614809209,-2.42477573970937,4.8490743637085,-0.775457684193746
-1.81382400194277,-0.735419110660889,0.00546056429018194,-2.42477573970937,4.84908628463745,-0.775421444569723
-1.81384784380068,-0.735431031589844,0.00544816652406865,-2.42478718380117,4.84909820556641,-0.775457684193746
-1.81388360658755,-0.735431031589844,0.00547296205629522,-2.42478718380117,4.84909820556641,-0.775421444569723
-1.81384784380068,-0.735407189731934,0.00548440614809209,-2.42477573970937,4.84911012649536,-0.775445286427633
-1.81382400194277,-0.735419110660889,0.00548440614809209,-2.42478718380117,4.84913444519043,-0.775481526051657
-1.81383544603457,-0.735454396610596,0.00546056429018194,-2.42478718380117,4.84909820556641,-0.775445286427633
-1.81384784380068,-0.735407189731934,0.00550920168031865,-2.42477573970937,4.84909820556641,-0.775445286427633
-1.81383544603457,-0.735419110660889,0.00547296205629522,-2.42478718380117,4.8490743637085,-0.775457684193746
-1.81382400194277,-0.735407189731934,0.0054252783404749,-2.42481150249624,4.84908628463745,-0.775445286427633
-1.81380016008486,-0.735419110660889,0.00547296205629522,-2.42481150249624,4.84913444519043,-0.775445286427633
-1.81382400194277,-0.735407189731934,0.00543672243227178,-2.42477573970937,4.84914588928223,-0.775445286427633
-1.81383544603457,-0.735442475681641,0.00546056429018194,-2.42477573970937,4.84911012649536,-0.775421444569723
-1.81384784380068,-0.735442475681641,0.00543672243227178,-2.42477573970937,4.84912204742432,-0.775433842335836
-1.81382400194277,-0.735407189731934,0.00548440614809209,-2.4247514210143,4.84912204742432,-0.775457684193746
-1.81382400194277,-0.735419110660889,0.00547296205629522,-2.42476334194326,4.84914588928223,-0.775445286427633
-1.81381160417666,-0.735395268802979,0.00546056429018194,-2.42477573970937,4.84911012649536,-0.775469128285543
-1.81382400194277,-0.735419110660889,0.00548440614809209,-2.42478718380117,4.84913444519043,-0.775409523640768
-1.81383544603457,-0.735419110660889,0.00544816652406865,-2.42481150249624,4.84913444519043,-0.775445286427633
-1.81382400194277,-0.735466794376709,0.00544816652406865,-2.42478718380117,4.84911012649536,-0.775457684193746
-1.81382400194277,-0.735395268802979,0.00548440614809209,-2.42483534435415,4.84912204742432,-0.775445286427633
-1.81384784380068,-0.735442475681641,0.00544816652406865,-2.42478718380117,4.84913444519043,-0.775433842335836
-1.81380016008486,-0.735407189731934,0.00547296205629522,-2.42473950008535,4.84913444519043,-0.775457684193746
-1.81381160417666,-0.735419110660889,0.00543672243227178,-2.42482342342519,4.84913444519043,-0.775457684193746
-1.81385976472964,-0.735442475681641,0.00547296205629522,-2.42478718380117,4.84909820556641,-0.775457684193746
-1.81382400194277,-0.735431031589844,0.00543672243227178,-2.42482342342519,4.84913444519043,-0.775493446980612
-1.81383544603457,-0.735431031589844,0.00543672243227178,-2.42479958156728,4.84908628463745,-0.775433842335836
-1.81381160417666,-0.735431031589844,0.00546056429018194,-2.42477573970937,4.84912204742432,-0.775481526051657
-1.81381160417666,-0.735407189731934,0.00546056429018194,-2.42477573970937,4.84911012649536,-0.775457684193746
-1.81384784380068,-0.735395268802979,0.00544816652406865,-2.42479958156728,4.84915828704834,-0.775469128285543
-1.81381160417666,-0.735407189731934,0.00544816652406865,-2.42477573970937,4.84908628463745,-0.775457684193746
-1.81382400194277,-0.735395268802979,0.00543672243227178,-2.42479958156728,4.84913444519043,-0.775421444569723
-1.81378776231875,-0.735419110660889,0.00544816652406865,-2.42481150249624,4.84912204742432,-0.775469128285543
-1.81383544603457,-0.735431031589844,0.0054252783404749,-2.42476334194326,4.8490743637085,-0.775421444569723
-1.81382400194277,-0.735419110660889,0.00543672243227178,-2.42481150249624,4.84913444519043,-0.775481526051657
-1.81382400194277,-0.735419110660889,0.00547296205629522,-2.42477573970937,4.84912204742432,-0.775469128285543
-1.81378776231875,-0.735466794376709,0.00549585023988897,-2.4247514210143,4.84913444519043,-0.775457684193746
-1.81387168565859,-0.735431031589844,0.00548440614809209,-2.42479958156728,4.84914588928223,-0.775481526051657
-1.81378776231875,-0.735466794376709,0.00544816652406865,-2.42476334194326,4.84912204742432,-0.775493446980612
