AdrianPrados/GaussianPathwiseLfD/ExpJointAdam/Water/AguaDerecha_1.csv
joint_0,joint_1,joint_2,joint_3,joint_4,joint_5
-0.118706051503317,-0.651243047123291,-0.18869686126709,-2.71179546932363,4.25129318237305,-1.47985726991762
-0.118693653737203,-0.651231126194336,-0.188660621643066,-2.71184315303945,4.25131702423096,-1.47980910936464
-0.118717495595114,-0.651254968052246,-0.188685417175293,-2.71184315303945,4.25132846832275,-1.47984534898867
-0.118729893361227,-0.651243047123291,-0.188660621643066,-2.71184315303945,4.25135278701782,-1.47988158861269
-0.118741337453024,-0.651231126194336,-0.18869686126709,-2.71183123211049,4.25131702423096,-1.47985726991762
-0.118729893361227,-0.651254968052246,-0.188708305358887,-2.71181931118154,4.25134086608887,-1.47988158861269
-0.118753735219137,-0.651231126194336,-0.18869686126709,-2.71180739025258,4.25132846832275,-1.47984534898867
-0.118753735219137,-0.651219205265381,-0.188708305358887,-2.71179546932363,4.25132846832275,-1.47983342805971
-0.118693653737203,-0.651219205265381,-0.18867301940918,-2.71180739025258,4.25131702423096,-1.47982150713076
-0.118729893361227,-0.651243047123291,-0.18867301940918,-2.71177162746572,4.25129318237305,-1.47984534898867
-0.118753735219137,-0.651243047123291,-0.188685417175293,-2.71181931118154,4.25134086608887,-1.47980910936464
-0.118729893361227,-0.651231126194336,-0.18867301940918,-2.71178354839467,4.25132846832275,-1.47983342805971
-0.118789498006002,-0.651207284336426,-0.188637733459473,-2.71180739025258,4.25132846832275,-1.47982150713076
-0.118706051503317,-0.651219205265381,-0.18864917755127,-2.71181931118154,4.25132846832275,-1.47980910936464
-0.118729893361227,-0.651159123783447,-0.18864917755127,-2.71175922969961,4.25134086608887,-1.47984534898867
-0.118765656148092,-0.651183442478516,-0.188612937927246,-2.71178354839467,4.25135278701782,-1.47985726991762
-0.118874375020162,-0.651183442478516,-0.188612937927246,-2.71178354839467,4.25131702423096,-1.47982150713076
-0.119081322346823,-0.651195363407471,-0.188565254211426,-2.71179546932363,4.25130462646484,-1.47986919084658
-0.119202438985006,-0.651135281925537,-0.188551902770996,-2.71178354839467,4.25123310089111,-1.47984534898867
-0.119573418294088,-0.651135281925537,-0.188443183898926,-2.71178354839467,4.25129318237305,-1.47982150713076
-0.119835201893942,-0.651123360996582,-0.188349723815918,-2.71177162746572,4.25125694274902,-1.47985726991762
-0.120052162800924,-0.651123360996582,-0.188338279724121,-2.7117353878417,4.25124502182007,-1.47985726991762
-0.120234791432516,-0.651147202854492,-0.188313484191895,-2.7117353878417,4.25125694274902,-1.47982150713076
-0.120601002370016,-0.651111440067627,-0.188252449035645,-2.7117353878417,4.25124454498291,-1.47984534898867
-0.124247852955953,-0.651087121372559,-0.18813419342041,-2.71169914821767,4.25119686126709,-1.47984534898867
-0.127369228993551,-0.651063279514648,-0.188037872314453,-2.71172346691274,4.25119686126709,-1.47984534898867
-0.129933182393209,-0.651087121372559,-0.187966346740723,-2.71172299007558,4.25117301940918,-1.47988158861269
-0.134413067494528,-0.651099519138672,-0.187967300415039,-2.71172346691274,4.25118541717529,-1.47985726991762
-0.136034790669576,-0.651075200443604,-0.187932014465332,-2.71171154598379,4.25119733810425,-1.47986919084658
-0.146808926259176,-0.651099519138672,-0.187920570373535,-2.71167530635976,4.25124502182007,-1.47985726991762
-0.150655571614401,-0.651063279514648,-0.187968254089355,-2.71174730877065,4.25124502182007,-1.47984534898867
-0.154596153889791,-0.651123360996582,-0.187920570373535,-2.71168770412588,4.25126934051514,-1.47988158861269
-0.179549042378561,-0.651087121372559,-0.187943458557129,-2.7117353878417,4.25123310089111,-1.47988158861269
-0.183755222951071,-0.651075200443604,-0.187943458557129,-2.71166338543081,4.2512092590332,-1.47985726991762
-0.185902420674459,-0.651075200443604,-0.187943458557129,-2.71172346691274,4.25123310089111,-1.47986919084658
-0.190286461506979,-0.651027516727783,-0.187920570373535,-2.71171154598379,4.25119733810425,-1.47983342805971
-0.201798264180319,-0.651087121372559,-0.187943458557129,-2.71169914821767,4.25125694274902,-1.47986919084658
-0.211373631154196,-0.651087121372559,-0.187920570373535,-2.71169914821767,4.25123310089111,-1.4799054304706
-0.218794647847311,-0.651051358585693,-0.187943458557129,-2.7117353878417,4.25122117996216,-1.47985726991762
-0.251818958912985,-0.651075200443604,-0.187943458557129,-2.71168770412588,4.25118541717529,-1.47982150713076
-0.26056939760317,-0.651087121372559,-0.187956809997559,-2.71169914821767,4.25123310089111,-1.47983342805971
-0.263508145009176,-0.651063279514648,-0.187920570373535,-2.71169914821767,4.2512092590332,-1.47982150713076
-0.275619808827535,-0.651087121372559,-0.187943458557129,-2.71169914821767,4.25118541717529,-1.47984534898867
-0.30435830751528,-0.651087121372559,-0.187909126281738,-2.71166338543081,4.2512092590332,-1.47982150713076
-0.310718361531393,-0.651111440067627,-0.187956809997559,-2.71166338543081,4.25122117996216,-1.47982150713076
-0.317108933125631,-0.651087121372559,-0.187909126281738,-2.71167530635976,4.25118541717529,-1.47982150713076
-0.329937760029928,-0.651099519138672,-0.187909126281738,-2.71168770412588,4.2512092590332,-1.47982150713076
-0.353043858204977,-0.651099519138672,-0.187909126281738,-2.71163906673574,4.25116157531738,-1.47985726991762
-0.356364075337545,-0.651147202854492,-0.187920570373535,-2.71167530635976,4.25118541717529,-1.47979766527285
-0.363056484852926,-0.651099519138672,-0.187909126281738,-2.71166338543081,4.25117301940918,-1.47982150713076
-0.369732681904928,-0.651087121372559,-0.187920570373535,-2.71160330394887,4.25113725662231,-1.47980910936464
-0.39969522157778,-0.651099519138672,-0.187909126281738,-2.71160330394887,4.24991703033447,-1.47980910936464
-0.407659832631246,-0.651063279514648,-0.187956809997559,-2.71160330394887,4.24955368041992,-1.47982150713076
-0.447466675435201,-0.651087121372559,-0.187956809997559,-2.71156754116201,4.24929523468018,-1.47976142564882
-0.457889858876364,-0.651111440067627,-0.187909126281738,-2.71160330394887,4.24930858612061,-1.47977334657778
-0.466512028370992,-0.651039437656738,-0.187932014465332,-2.71159138301992,4.2492847442627,-1.47974902788271
-0.514326397572653,-0.651099519138672,-0.187223434448242,-2.71148171047353,4.24922513961792,-1.479713741933
-0.52681285539736,-0.651099519138672,-0.18599796295166,-2.71144737819814,4.24921321868896,-1.479713741933
-0.547511879597799,-0.651111440067627,-0.182209968566895,-2.71136297802114,4.24920129776001,-1.47970134416689
-0.576227966939108,-0.651099519138672,-0.172325134277344,-2.71137537578725,4.24922513961792,-1.47962886491884
-0.588337246571676,-0.651111440067627,-0.165637016296387,-2.71139921764516,4.24915361404419,-1.47956592241396
-0.592399422322408,-0.651147202854492,-0.163189888000488,-2.71138729671621,4.24920129776001,-1.47950441042055
-0.600329701100485,-0.651183442478516,-0.157707214355469,-2.71139921764516,4.24916553497314,-1.47934896150698
-0.639282528554098,-0.651183442478516,-0.122254371643066,-2.71147122005605,4.2491774559021,-1.4782455603229
-0.64690620103945,-0.651147202854492,-0.114130973815918,-2.71144737819814,4.24916553497314,-1.47746831575503
-0.676600281392233,-0.651135281925537,-0.0809011459350586,-2.71148361782216,4.24912929534912,-1.47176486650576
-0.701052490864889,-0.651207284336426,-0.0538358688354492,-2.71150745968007,4.24898433685303,-1.46259099641909
-0.737298313771383,-0.651195363407471,-0.022395133972168,-2.7115436993041,4.24794673919678,-1.44694930711855
-0.747136894856588,-0.651195363407471,-0.0174932479858398,-2.71157946209096,4.24738788604736,-1.44109660783877
-0.753676239644186,-0.651171044712402,-0.0152196884155273,-2.71150745968007,4.24722623825073,-1.43687946001162
-0.794112030659811,-0.651183442478516,-0.0134553909301758,-2.71162762264394,4.24706268310547,-1.40488416353335
-0.809541527424948,-0.651195363407471,-0.0134191513061523,-2.71165146450185,4.24706268310547,-1.38925010362734
-0.831550900136129,-0.651231126194336,-0.0134792327880859,-2.71161522487783,4.24706268310547,-1.36058646837343
-0.858211819325582,-0.651254968052246,-0.0134916305541992,-2.71161522487783,4.24701499938965,-1.2963174025165
-0.862069431935446,-0.651231126194336,-0.0134668350219727,-2.71157946209096,4.24701499938965,-1.28167611757387
-0.873224083577291,-0.651266888981201,-0.0135030746459961,-2.71153130153798,4.24705028533936,-1.2304199377643
-0.886431042348043,-0.651266888981201,-0.013514518737793,-2.71151890377187,4.24706268310547,-1.15273887315859
-0.889546696339742,-0.651279286747315,-0.0134916305541992,-2.71151890377187,4.24703884124756,-1.13357383409609
-0.892789665852682,-0.651231126194336,-0.013514518737793,-2.71148314098501,4.24703884124756,-1.11502725282778
-0.91182262102236,-0.65129120767627,-0.013575553894043,-2.7112790546813,4.2471227645874,-1.03963977495302
-0.918346707020895,-0.651351289158203,-0.0136480331420898,-2.71127953151845,4.24709892272949,-1.0255072752582
-0.925340954457418,-0.651351289158203,-0.0136833190917969,-2.71125568966054,4.24708652496338,-1.01711494127382
-0.932673279439108,-0.651363686924316,-0.0136957168579102,-2.7112184963622,4.24711084365845,-1.01468497911562
-0.937709633504049,-0.651387528782227,-0.0136823654174805,-2.71118273357534,4.24713468551636,-1.01496535936464
-0.950037781392233,-0.65159352243457,-0.0137319564819336,-2.71115889171743,4.24718236923218,-1.01508933702578
-0.954973045979635,-0.651690320377686,-0.0137815475463867,-2.7111832104125,4.24721956253052,-1.01505357423891
-0.964443031941549,-0.651918248539307,-0.0138521194458008,-2.7111832104125,4.24738788604736,-1.01505357423891
-0.983794991170065,-0.65437729776416,-0.0139703750610352,-2.7111340961852,4.24864292144775,-1.01510125795473
-1.00072604814638,-0.666292027836182,-0.0141630172729492,-2.71114744762563,4.25864410400391,-1.01519805589785
-1.00304395357241,-0.668473557834961,-0.014185905456543,-2.71114744762563,4.2615270614624,-1.01525766054262
-1.00417977968325,-0.669500188236572,-0.014185905456543,-2.71115936855459,4.26294422149658,-1.01524573961367
-1.00650245348086,-0.67161305368457,-0.0141143798828125,-2.71097149471425,4.26550674438477,-1.01524526277651
-1.01862508455385,-0.680504636173584,-0.0141267776489258,-2.70681919674062,4.27526569366455,-1.01526910463442
-1.02378780046572,-0.684122876530029,-0.0141267776489258,-2.70436539272451,4.28007841110229,-1.01524526277651
-1.04508906999697,-0.698783234958984,-0.0141496658325195,-2.69906677822256,4.31217479705811,-1.01561862627138
-1.05032617250551,-0.701877908115723,-0.0140905380249023,-2.69830860714101,4.32427644729614,-1.01570064226259
-1.08068257967104,-0.709288434391357,-0.0141382217407227,-2.67513575176381,4.36280727386475,-1.01568776765932
-1.08543044725527,-0.709352330570557,-0.0141382217407227,-2.67136110881948,4.36279487609863,-1.01569968858828
-1.10286075273623,-0.709698514347412,-0.0142240524291992,-2.66610970119619,4.36281967163086,-1.01569968858828
-1.10651141801943,-0.710871533756592,-0.014185905456543,-2.66610922435903,4.3630542755127,-1.0157359282123
-1.10922795930971,-0.712996320133545,-0.0142593383789062,-2.66614498714589,4.36403846740723,-1.01577121416201
-1.12066919008364,-0.72706492364917,-0.0142107009887695,-2.66612114528798,4.37703704833984,-1.01577121416201
-1.12367469469179,-0.729490594272949,-0.014246940612793,-2.66609730343007,4.38058090209961,-1.0157473723041
-1.14264756837954,-0.742868737583496,-0.014185905456543,-2.66607298473501,4.40767288208008,-1.01572353044619
-1.14817363420595,-0.746928052311279,-0.0142107009887695,-2.66603722194814,4.41715717315674,-1.01577169099917
-1.15003282228579,-0.748328523044922,-0.0141983032226562,-2.66601290325307,4.42035245895386,-1.0157359282123
-1.17032796541323,-0.76011403024707,-0.0142221450805664,-2.66569723705434,4.44228744506836,-1.0157473723041
-1.17627412477602,-0.761688546543457,-0.0142698287963867,-2.6655436954894,4.44369411468506,-1.01575977007021
-1.18142825761904,-0.76241763055835,-0.0141630172729492,-2.66548313717031,4.44377660751343,-1.01577121416201
-1.1859019438373,-0.762902573948242,-0.014185905456543,-2.66533770183706,4.44376564025879,-1.01572353044619
-1.20344335237612,-0.763210133915283,-0.0142965316772461,-2.66541351894521,4.44462251663208,-1.0157473723041
-1.20633250871767,-0.763281182651856,-0.0145158767700195,-2.66543736080312,4.44580459594727,-1.0157473723041
-1.20712358156313,-0.763257340793945,-0.0145902633666992,-2.66543736080312,4.44633913040161,-1.0157473723041
-1.20878774324526,-0.763256863956787,-0.0153627395629883,-2.66543736080312,4.44902038574219,-1.01572353044619
-1.21246892610659,-0.763304547672607,-0.0203151702880859,-2.66541304210805,4.45901966094971,-1.0157473723041
-1.21947843233217,-0.763341264133789,-0.0256175994873047,-2.66541304210805,4.46551370620728,-1.0157473723041
-1.22169334093203,-0.763340787296631,-0.0275793075561523,-2.6654011211791,4.4661808013916,-1.01577121416201
-1.22639400163759,-0.763340310459473,-0.0320472717285156,-2.66537727932119,4.46646451950073,-1.01572353044619
-1.22889978090395,-0.763364152317383,-0.034724235534668,-2.66537727932119,4.46653652191162,-1.01572353044619
-1.24761516252627,-0.763340310459473,-0.0565004348754883,-2.66528095821523,4.46979999542236,-1.0157473723041
-1.25043231645693,-0.763304547672607,-0.0606489181518555,-2.66528095821523,4.47144412994385,-1.0157473723041
-1.25303537050356,-0.763304547672607,-0.0651769638061523,-2.66521992305898,4.47364473342896,-1.0157473723041
-1.26611024538149,-0.763280228977539,-0.0911674499511719,-2.66032757381582,4.48618078231812,-1.01572353044619
-1.26839572588076,-0.763292149906494,-0.0958032608032227,-2.658091684381,4.48666381835938,-1.01569968858828
-1.26960212389101,-0.763304547672607,-0.0980768203735352,-2.65678467373037,4.48669767379761,-1.01571160951723
-1.28590137163271,-0.763292149906494,-0.124845504760742,-2.63121761898183,4.48672151565552,-1.0157359282123
-1.28810245195498,-0.763280228977539,-0.12868595123291,-2.62670530895376,4.48674583435059,-1.01572353044619
-1.29267341295351,-0.763268308048584,-0.137954711914062,-2.61792530635976,4.48684215545654,-1.01569968858828
-1.29686910310854,-0.763304547672607,-0.146203994750977,-2.6144281826415,4.48703670501709,-1.0157473723041
-1.29873973528017,-0.763268308048584,-0.149109840393066,-2.6144167385497,4.4872579574585,-1.01569968858828
-1.29973727861513,-0.763304547672607,-0.150669097900391,-2.61438097576284,4.48759746551514,-1.01569968858828
-1.30504733720888,-0.763328389530518,-0.155062675476074,-2.6144167385497,4.49364376068115,-1.01572353044619
-1.30711871782412,-0.763316468601563,-0.155716896057129,-2.61436905483388,4.49785804748535,-1.01569968858828
-1.30967504182924,-0.763280228977539,-0.155735969543457,-2.61438097576284,4.50594520568848,-1.01567584673037
-1.3154767195331,-0.763292149906494,-0.155713081359863,-2.614137311975,4.53822088241577,-1.01567584673037
-1.32451945940127,-0.763280228977539,-0.155735969543457,-2.61313166240835,4.57061624526978,-1.01566392580141
-1.32631332079043,-0.763316468601563,-0.155735969543457,-2.61306061367177,4.57088184356689,-1.01567584673037
-1.3345401922809,-0.763268308048584,-0.15577220916748,-2.61310877422475,4.57094383239746,-1.01565200487246
-1.33641034761538,-0.763328389530518,-0.155808448791504,-2.61314501384878,4.57112503051758,-1.01569968858828
-1.34146672884096,-0.763388947849609,-0.155892372131348,-2.61315693477773,4.57238960266113,-1.01567584673037
-1.3429277578937,-0.763400868778565,-0.155927658081055,-2.61313309291982,4.57253217697144,-1.01565200487246
-1.34321815172304,-0.76341278970752,-0.155953407287598,-2.61314501384878,4.5725564956665,-1.01565200487246
-1.34322578111757,-0.763448552494385,-0.155976295471191,-2.61314501384878,4.57260417938232,-1.01565200487246
-1.34324962297548,-0.763436154728272,-0.156035423278809,-2.61321701625966,4.5725679397583,-1.01565200487246
-1.34324962297548,-0.763471917515137,-0.156047821044922,-2.61316933254384,4.57261562347412,-1.01567584673037
-1.34323722520937,-0.763412312870361,-0.156277656555176,-2.61315693477773,4.57260370254517,-1.01569968858828
-1.34321338335146,-0.763459996586182,-0.156618118286133,-2.61319317440175,4.57259178161621,-1.01566392580141
-1.3432620207416,-0.763436154728272,-0.157018661499023,-2.61315693477773,4.57260370254517,-1.01567584673037
-1.34322578111757,-0.763448075657227,-0.157282829284668,-2.6131812534728,4.57261562347412,-1.01568776765932
-1.34320146242251,-0.763424233799316,-0.157557487487793,-2.6131812534728,4.57260370254517,-1.01563960710634
-1.34323722520937,-0.763352231388428,-0.160643577575684,-2.61315693477773,4.57259178161621,-1.01571160951723
-1.34327346483339,-0.763436154728272,-0.161816596984863,-2.61316933254384,4.57260370254517,-1.01568776765932
-1.34323722520937,-0.763400391941406,-0.163025856018066,-2.61315693477773,4.57259178161621,-1.01567584673037
-1.3432620207416,-0.763424233799316,-0.166149139404297,-2.61319317440175,4.57253170013428,-1.01567584673037
-1.3432620207416,-0.763436154728272,-0.170279502868652,-2.61319317440175,4.57255554199219,-1.01566392580141
-1.3432620207416,-0.763400391941406,-0.17031192779541,-2.61316933254384,4.57257986068726,-1.01567584673037
-1.34320146242251,-0.763364152317383,-0.170275688171387,-2.61316933254384,4.5725679397583,-1.01565200487246
-1.34318954149355,-0.763400391941406,-0.17025089263916,-2.61319317440175,4.57259178161621,-1.01567584673037
-1.34323722520937,-0.763376073246338,-0.170215606689453,-2.61316933254384,4.57255554199219,-1.01567584673037
-1.34320146242251,-0.763376073246338,-0.170228004455566,-2.6131812534728,4.5725679397583,-1.01563960710634
-1.34322578111757,-0.763352231388428,-0.17025089263916,-2.61316933254384,4.57259178161621,-1.01566392580141
-1.34314185777773,-0.763340310459473,-0.170239448547363,-2.61315693477773,4.57257986068726,-1.01565200487246
-1.34318954149355,-0.763316468601563,-0.170239448547363,-2.61316933254384,4.5725679397583,-1.01569968858828
-1.34316569963564,-0.763316468601563,-0.170191764831543,-2.61314501384878,4.57260370254517,-1.01566392580141
-1.34315330186953,-0.763316468601563,-0.17020320892334,-2.61315693477773,4.57260370254517,-1.01567584673037
-1.34318954149355,-0.763280228977539,-0.170191764831543,-2.61315693477773,4.57257986068726,-1.01567584673037
-1.34314185777773,-0.763256387119629,-0.170132637023926,-2.61315693477773,4.57257986068726,-1.01569968858828
-1.3430817762958,-0.763244466190674,-0.170144081115723,-2.61314501384878,4.57254409790039,-1.01569968858828
-1.34314138094057,-0.763232545261719,-0.170096397399902,-2.61313309291982,4.5725679397583,-1.01566392580141
-1.34270602861513,-0.763149098759033,-0.169951438903809,-2.61312117199087,4.57257986068726,-1.01566392580141
-1.34250194231142,-0.7630890172771,-0.169952392578125,-2.6131812534728,4.57254409790039,-1.01569968858828
-1.34240562120547,-0.76311285913501,-0.169879913330078,-2.61313309291982,4.57255554199219,-1.01572353044619
-1.34174758592714,-0.762944535618164,-0.169192314147949,-2.61314501384878,4.57255554199219,-1.01572353044619
-1.34165174165835,-0.762932137852051,-0.168858528137207,-2.61312117199087,4.57254409790039,-1.01572353044619
-1.34116870561709,-0.762620286350586,-0.168639183044434,-2.6131812534728,4.5725679397583,-1.01571160951723
-1.33751613298525,-0.762391404514648,-0.16845703125,-2.61313309291982,4.57254362106323,-1.01572353044619
-1.33506423631777,-0.762188271885254,-0.16825008392334,-2.61313309291982,4.57253170013428,-1.01571160951723
-1.32406264940371,-0.761759595280029,-0.166207313537598,-2.61312117199087,4.57252025604248,-1.01571160951723
-1.32012349763979,-0.761760548954346,-0.164898872375488,-2.61312117199087,4.57253170013428,-1.01569968858828
-1.31753331819643,-0.761773423557617,-0.163603782653809,-2.61313309291982,4.57250785827637,-1.01568776765932
-1.30396873155703,-0.761725263004639,-0.151999473571777,-2.61315693477773,4.57250785827637,-1.01572353044619
-1.30019027391543,-0.761737183933594,-0.147647857666016,-2.61319317440175,4.57244825363159,-1.01572353044619
-1.29259854951967,-0.761737183933594,-0.137790679931641,-2.61321701625966,4.5724720954895,-1.01571160951723
-1.29125243822207,-0.761701421146729,-0.136028289794922,-2.61322941402578,4.57248401641846,-1.0157473723041
-1.28983956972231,-0.761737183933594,-0.134221076965332,-2.6132656536498,4.57246017456055,-1.01569968858828
-1.28429109254946,-0.761725263004639,-0.127111434936523,-2.61330141643667,4.57242393493652,-1.01569968858828
-1.28073484102358,-0.761761025791504,-0.122661590576172,-2.61334957698964,4.57244825363159,-1.01571160951723
-1.2790268103229,-0.761725263004639,-0.120600700378418,-2.61332525829458,4.57244825363159,-1.01569968858828
-1.27392274538149,-0.761737183933594,-0.114504814147949,-2.61334910015249,4.57242393493652,-1.01571160951723
-1.26329261461367,-0.761725263004639,-0.101559638977051,-2.61342300991201,4.57241201400757,-1.01572353044619
-1.25372916856875,-0.761773423557617,-0.0900630950927734,-2.61366333583974,4.5723762512207,-1.0157359282123
-1.23937398592104,-0.761713342075684,-0.0735750198364258,-2.6137711010375,4.57234001159668,-1.01572353044619
-1.2254470030414,-0.761749104862549,-0.0558271408081055,-2.61461891750478,4.57220506668091,-1.0157359282123
-1.2212932745563,-0.761761025791504,-0.0508623123168945,-2.61485590557241,4.57212495803833,-1.01572353044619
-1.19901115099062,-0.761725263004639,-0.022425651550293,-2.61511292080068,4.57202816009521,-1.01571160951723
-1.19317275682558,-0.761725263004639,-0.0141115188598633,-2.61513676265859,4.5720043182373,-1.01571160951723
-1.16816169420351,-0.761749104862549,0.0291917959796351,-2.61532082180166,4.57166862487793,-1.01578361192812
-1.16464835802187,-0.761737183933594,0.0371444861041468,-2.61543955425405,4.57157325744629,-1.01579553285708
-1.1520827452289,-0.761701421146729,0.0668600241290491,-2.61586393932485,4.57137012481689,-1.0157473723041
-1.13972789445986,-0.761701421146729,0.104684654866354,-2.61742033580922,4.57116794586182,-1.01579553285708
-1.13580257097353,-0.761749104862549,0.119480911885397,-2.61891903499746,4.57105875015259,-1.01577121416201
-1.12880450883974,-0.761749104862549,0.155463043843405,-2.62566580394887,4.57052803039551,-1.01579553285708
-1.12641460100283,-0.761713342075684,0.176248375569479,-2.63111176113271,4.56978511810303,-1.01581937471499
-1.12598354021181,-0.761761025791504,0.181597534810201,-2.63273539165639,4.56938314437866,-1.01584369341005
-1.12566692033877,-0.761713342075684,0.186920944844381,-2.63442339519643,4.56889057159424,-1.01580745378603
-1.1252387205707,-0.761749104862549,0.25080377260317,-2.6604339085021,4.56729412078857,-1.01579553285708
-1.12531024614443,-0.761640385990479,0.263489548360006,-2.66600908855581,4.56719923019409,-1.01585513750185
-1.12532264391054,-0.761652783756592,0.316777054463522,-2.68594755748891,4.56683731079102,-1.01584369341005
-1.12535840669741,-0.761617497806885,0.341142479573385,-2.69447483638906,4.56640243530273,-1.01585513750185
-1.1254075209247,-0.76160557687793,0.35328179994692,-2.69873156170034,4.56601238250732,-1.01585513750185
-1.12540656725039,-0.761605100040772,0.369874779378073,-2.70446886638784,4.56515979766846,-1.01586753526797
-1.12666064897646,-0.761568860416748,0.435999695454733,-2.72488464931631,4.56399345397949,-1.01717359224428
-1.12685996690859,-0.761497334843018,0.447298828755514,-2.72736515621328,4.56383514404297,-1.01713592210879
-1.12724000612368,-0.758524731998779,0.514870468770162,-2.7351876697936,4.55653238296509,-1.01721984544863
-1.12736159959902,-0.757073239689209,0.52387506166567,-2.73589434246206,4.55520153045654,-1.0171597639667
-1.12849361101259,-0.744552449589111,0.575447861348287,-2.73659195522451,4.54238986968994,-1.01723176637758
-1.12936431566347,-0.742351369266846,0.58243447939028,-2.73662771801137,4.53938674926758,-1.01725608507265
-1.12992507616152,-0.741283730869629,0.585842911397116,-2.73663963894033,4.53772830963135,-1.01729184785952
-1.13755399385561,-0.727815465336182,0.617852036152975,-2.73677315334463,4.5232138633728,-1.01758081117739
-1.14230043092837,-0.719445542698242,0.6274040381061,-2.73683228115224,4.51843070983887,-1.01768714586367
-1.14426261583437,-0.715655164127686,0.629860703145162,-2.73687996486806,4.51598930358887,-1.01771098772158
-1.15191346803774,-0.700897054081299,0.633765999470846,-2.73685564617299,4.50597047805786,-1.01794034639467
-1.15581161180605,-0.693679646854736,0.633549515401022,-2.73691668132924,4.50099420547485,-1.01814490953554
-1.16542750993838,-0.676581696873047,0.633638207112448,-2.73689140895986,4.49106979370117,-1.0186131636249
-1.17472154298891,-0.65909560144458,0.633648697529928,-2.73689140895986,4.48055744171143,-1.02130538622011
-1.17907506624331,-0.651076630955078,0.633648697529928,-2.73681940654897,4.47423028945923,-1.02545196214785
-1.18374520937075,-0.643030480747559,0.633673493062155,-2.73679556469106,4.46816253662109,-1.03066760698427
-1.19921046892275,-0.618237332706787,0.633648697529928,-2.73681940654897,4.45306491851807,-1.05147153535952
-1.2027590910541,-0.612689809208252,0.633734528218405,-2.73677124599599,4.44950580596924,-1.05768329301943
-1.22830421129336,-0.578043774967529,0.633780304585592,-2.7366992435851,4.4330005645752,-1.10747749010195
-1.23205835023989,-0.573258237247803,0.633745018635885,-2.73668732265615,4.43298435211182,-1.11602765718569
-1.25036794344057,-0.549948529606201,0.633927170430319,-2.73623432735586,4.43300819396973,-1.16058952013125
-1.25818759599795,-0.539466218357422,0.633972946797506,-2.73519482235097,4.43298435211182,-1.18275958696474
-1.26990825334658,-0.521123246555664,0.634180847798483,-2.7295929394164,4.43297243118286,-1.22038156190981
-1.27237397829165,-0.517444447880127,0.634323898945944,-2.72652544597768,4.43297243118286,-1.22776014009585
-1.27479106584658,-0.513957337742188,0.634404007588522,-2.72270550350332,4.43294858932495,-1.23500949541201
-1.27842027345766,-0.508939580326416,0.634415451680319,-2.71560444454336,4.43297243118286,-1.24569636980166
-1.28207046190371,-0.504148320560791,0.634426895772116,-2.70668377498769,4.432936668396,-1.256071869527
-1.28446084657778,-0.501103715305664,0.634463135396139,-2.69977535823964,4.43288803100586,-1.26286822954287
-1.29032260576357,-0.494238690739014,0.63464337984194,-2.67965235332631,4.43292427062988,-1.27985698381533
-1.29263335863222,-0.49187786996875,0.634744469319479,-2.67057337383413,4.43288850784302,-1.28651744524111
-1.29493076006045,-0.489753560428955,0.63491136232485,-2.66064896206045,4.43286418914795,-1.2932975927936
-1.31128770509829,-0.478904561405518,0.637869660054342,-2.59576763729238,4.43255996704102,-1.34019786516298
-1.31425697008242,-0.477574662571289,0.639662567769186,-2.5863462887206,4.43232727050781,-1.34847194353213
-1.3171389738666,-0.476410703068115,0.642014328633444,-2.57783283809804,4.43173456192017,-1.35671836534609
-1.33061677614321,-0.473951177006104,0.667118851338522,-2.55128397564077,4.41294574737549,-1.39899045625796
-1.3329237143146,-0.47391493738208,0.674054924641744,-2.54969133953237,4.40549325942993,-1.40467483202089
-1.34147960344423,-0.473999337559082,0.704012695943014,-2.54792132000112,4.37391233444214,-1.41622382799257
-1.35117227235903,-0.473975495701172,0.744553391133444,-2.54798140148305,4.32852172851562,-1.41842109361757
-1.35309106508364,-0.47399981439624,0.753797356282369,-2.54792132000112,4.31768798828125,-1.41845637956728
-1.36018020311464,-0.47402365625415,0.792019669209616,-2.54790939907216,4.2746696472168,-1.41846877733339
-1.36411410966982,-0.474072293644287,0.817004028950826,-2.54793371776723,4.24863719940186,-1.41852885881533
-1.36545497575869,-0.474108533268311,0.826559845601217,-2.54789747814321,4.2396879196167,-1.41856509843935
-1.37112552324404,-0.474359826450684,0.879725281392233,-2.54788555721425,4.20018196105957,-1.42031985918154
-1.37123614946474,-0.474371747379639,0.889399353657858,-2.5478736362853,4.19476747512817,-1.42307359377016
-1.37125999132265,-0.474383668308594,0.895276848469869,-2.54777350048208,4.19173145294189,-1.42576009431948
-1.3713210264789,-0.474395589237549,0.916992966328756,-2.54468359569692,4.1854190826416,-1.44367868105044
-1.37135726610293,-0.474419431095459,0.921191040669576,-2.54225411037588,4.18494415283203,-1.44953948656191
-1.37139350572695,-0.474407510166504,0.922902886067526,-2.54070295910024,4.18485164642334,-1.45247775713076
-1.37339669862856,-0.474431352024414,0.9327018896686,-2.50122465709829,4.18466234207153,-1.49180728593935
-1.37428313890566,-0.474469022159912,0.932667557393209,-2.49148764232778,4.18449878692627,-1.4993785063373
-1.37503940263857,-0.474528149967529,0.932656113301412,-2.48167194942617,4.18418502807617,-1.50706702867617
-1.37756854692568,-0.474635915165283,0.932644669209616,-2.45201029400014,4.18254375457764,-1.52995187440981
-1.37973720232119,-0.474623994236328,0.932633225117819,-2.42746367077016,4.17762088775635,-1.54880267778505
-1.3803976217853,-0.47459967554126,0.932657066975729,-2.41824020961904,4.1743369102478,-1.55673724809755
-1.38111144701113,-0.47462351739917,0.932609383259908,-2.40871872524404,4.17012691497803,-1.56483012834658
-1.38218337694277,-0.47462351739917,0.932633225117819,-2.35740341762685,4.12566757202148,-1.60536939302553
-1.38219577470888,-0.47462351739917,0.932609383259908,-2.34358276943349,4.10920524597168,-1.61425525346865
-1.38220769563784,-0.474659757023193,0.932621781026022,-2.28408302883291,4.02930212020874,-1.63657123247255
-1.3822434584247,-0.47464735925708,0.932633225117819,-2.27508844951772,4.01742839813232,-1.63760692278017
-1.38411981264223,-0.47462351739917,0.932657066975729,-2.21835150341176,3.95318508148193,-1.63841039339174
-1.39051992097964,-0.474683598881104,0.932657066975729,-2.1642328701415,3.9194655418396,-1.63903743425478
-1.39236241975893,-0.474707917576172,0.932705704365866,-2.14944281200551,3.91287207603455,-1.63917762437929
-1.39662772813906,-0.474744157200195,0.932680908833639,-2.11471142391347,3.90107321739197,-1.63921195665468
-1.40053826967348,-0.474779919987061,0.932609383259908,-2.07983460048818,3.89510774612427,-1.63923627534975
-1.40163165727724,-0.474779443149902,0.932644669209616,-2.07001652340078,3.89391756057739,-1.63924819627871
-1.40456229845156,-0.474779443149902,0.932669464741842,-2.04603972057485,3.89221811294556,-1.63924819627871
-1.40754729906191,-0.474911527042725,0.932633225117819,-2.00838961223745,3.88445806503296,-1.63923579851259
-1.40802270570864,-0.474960164432861,0.932596985493795,-1.99923624614858,3.88092088699341,-1.63921195665468
-1.40838176408877,-0.474923924808838,0.932644669209616,-1.94205250362539,3.84888124465942,-1.63927203813662
-1.40840560594668,-0.474923924808838,0.932585541401998,-1.9332963428893,3.84236001968384,-1.63924819627871
-1.40845424333681,-0.474984006290772,0.932574097310201,-1.87869038204336,3.80392217636108,-1.63926011720766
-1.40847903886904,-0.474984006290772,0.932574097310201,-1.86943926433706,3.79796648025513,-1.63930780092348
-1.40857631364931,-0.475020245914795,0.932549301777975,-1.85590900997304,3.78904008865356,-1.63928395906557
-1.40878373781313,-0.475116567020752,0.932525459920065,-1.84699215511464,3.78304529190063,-1.63929587999453
-1.41102296510805,-0.475166158085205,0.932501618062155,-1.81339277843618,3.76420259475708,-1.63927203813662
-1.41168719926943,-0.475236729984619,0.932526413594381,-1.80592074016714,3.76008081436157,-1.63928395906557
-1.41204816499819,-0.475236253147461,0.932501618062155,-1.80228199581289,3.75802087783813,-1.63929587999453
-1.41750175157656,-0.47530825555835,0.932526413594381,-1.7649933300414,3.7428822517395,-1.63934356371035
-1.41901237169375,-0.47535593927417,0.932490173970358,-1.75808014492177,3.74213266372681,-1.63927203813662
-1.42032224336733,-0.47530825555835,0.932526413594381,-1.75397600750112,3.74211549758911,-1.63927203813662
-1.42379600206484,-0.475355462437012,0.932560745869772,-1.74488415340566,3.74203157424927,-1.63933211961855
-1.42454749742617,-0.475367383365967,0.932621781026022,-1.74344887355947,3.74202013015747,-1.63930780092348
-1.42533904710879,-0.475343541508057,0.932549301777975,-1.74211897472524,3.74199628829956,-1.63930780092348
-1.42779952684511,-0.475367383365967,0.932596985493795,-1.73876394848012,3.74198389053345,-1.63930780092348
-1.42866307893862,-0.475355462437012,0.932585541401998,-1.73792471508169,3.74200773239136,-1.63927203813662
-1.44153863588442,-0.47537978113208,0.932537857686178,-1.73574413875722,3.74109792709351,-1.63924819627871
-1.44256002107729,-0.475391702061035,0.932609383259908,-1.73575605968618,3.74050569534302,-1.63928395906557
-1.44502288499941,-0.475391702061035,0.932608429585592,-1.7357078991332,3.73616075515747,-1.63928395906557
-1.44731599489321,-0.475355462437012,0.932633225117819,-1.73566021541738,3.72604036331177,-1.63927203813662
-1.44782287279238,-0.47537978113208,0.932657066975729,-1.73559774974965,3.72136831283569,-1.6392596403705
-1.45141679445376,-0.475439862614014,0.932585541401998,-1.73352255443715,3.6891303062439,-1.63930780092348
-1.45206052461733,-0.475453214054443,0.932574097310201,-1.73166145900869,3.68398523330688,-1.63924819627871
-1.45605403581728,-0.475523785953857,0.932596985493795,-1.71262850383901,3.66502237319946,-1.63927203813662
-1.45732003847231,-0.475523785953857,0.932585541401998,-1.70747055629873,3.66316843032837,-1.63927203813662
-1.46194345155825,-0.475547627811768,0.932596985493795,-1.69448437313222,3.65790033340454,-1.63929587999453
-1.46252662340273,-0.475535706882813,0.932560745869772,-1.69307961086416,3.65761232376099,-1.63928395906557
-1.46296435991396,-0.475560025577881,0.932585541401998,-1.69155468563222,3.65724802017212,-1.63928395906557
-1.46408635774721,-0.475523785953857,0.932609383259908,-1.68716826061391,3.65565347671509,-1.63928395906557
-1.46432143846621,-0.475523785953857,0.932560745869772,-1.6865078411498,3.65556383132935,-1.63927203813662
-1.46443635622133,-0.475547627811768,0.932560745869772,-1.68579163173818,3.6555027961731,-1.63927203813662
-1.46438819566836,-0.475523785953857,0.932560745869772,-1.68456806759023,3.6552414894104,-1.6392596403705
-1.46445972124209,-0.475511865024902,0.932621781026022,-1.68457998851919,3.65521764755249,-1.6392596403705
-1.46444780031313,-0.475523785953857,0.932585541401998,-1.68453230480337,3.65510988235474,-1.63927203813662
-1.46441203752627,-0.475511865024902,0.932621781026022,-1.68453230480337,3.65507459640503,-1.63928395906557
-1.46432811418642,-0.475499944095947,0.932621781026022,-1.6845079861083,3.65513467788696,-1.63928395906557
-1.46435195604433,-0.475476102238037,0.932596985493795,-1.6845079861083,3.65513467788696,-1.63924819627871
-1.46432811418642,-0.475476102238037,0.932585541401998,-1.68453230480337,3.65513467788696,-1.63924819627871
-1.4642804304706,-0.475451783542969,0.932633225117819,-1.68448414425039,3.65514612197876,-1.63924819627871
-1.4642918745624,-0.475415543918945,0.932644669209616,-1.68449606517934,3.65519380569458,-1.63924819627871
-1.46426803270449,-0.475391702061035,0.932633225117819,-1.68452038387441,3.65518236160278,-1.63923579851259
-1.46425658861269,-0.4754274648479,0.932609383259908,-1.68448414425039,3.65521860122681,-1.6392596403705
-1.46412498155703,-0.475295380955078,0.932633225117819,-1.68454422573232,3.65551805496216,-1.63923579851259
-1.46410113969912,-0.475295380955078,0.932633225117819,-1.68454422573232,3.65557909011841,-1.63921195665468
-1.46414882341494,-0.475295380955078,0.932657066975729,-1.68453230480337,3.65573740005493,-1.63927203813662
-1.46412402788271,-0.475259618168213,0.932585541401998,-1.6845923862853,3.65656900405884,-1.63927203813662
-1.46406394640078,-0.475234822635986,0.932609383259908,-1.68458046535634,3.65706777572632,-1.6392243544208
-1.46399242082705,-0.475187138920166,0.932633225117819,-1.68460430721425,3.65733194351196,-1.63920003572573
-1.46392137209047,-0.475090817814209,0.932633225117819,-1.68501963237905,3.66835641860962,-1.6392243544208
-1.46387368837465,-0.475055055027344,0.932596985493795,-1.68528475383901,3.67179918289185,-1.6392243544208
-1.46379024187197,-0.474861935978272,0.932574097310201,-1.69221462825918,3.70089864730835,-1.6392243544208
-1.46377832094301,-0.474826650028565,0.932560745869772,-1.69582047084951,3.70954847335815,-1.6392243544208
-1.46384984651674,-0.474839047794678,0.932549301777975,-1.70054640392446,3.71811056137085,-1.63918811479677
-1.46382600465883,-0.474839047794678,0.932513062153951,-1.70232548336172,3.72110986709595,-1.63921195665468
-1.46382600465883,-0.474779443149902,0.932452026997701,-1.73354401210927,3.75714921951294,-1.63916427293886
-1.46377832094301,-0.474791364078857,0.932465378438131,-1.74119820217275,3.76440095901489,-1.63917619386782
-1.46371728578676,-0.474815205936768,0.932370011006491,-1.7991320095458,3.81044149398804,-1.63915235200991
-1.46369392076601,-0.474779443149902,0.932417694722311,-1.81458487133169,3.82395601272583,-1.63918811479677
-1.46331960359682,-0.474827126865723,0.932381455098287,-1.86673082927846,3.8813157081604,-1.63916427293886
-1.46321136156191,-0.474815205936768,0.932357613240377,-1.87550892452382,3.89354848861694,-1.63917619386782
-1.46254188219179,-0.474815205936768,0.932286087666647,-1.89669527629995,3.92533755302429,-1.63921195665468
-1.4595893065082,-0.474827126865723,0.932130638753073,-1.92524208645009,3.96889424324036,-1.63917619386782
-1.45834619203676,-0.474779443149902,0.932129685078756,-1.93340172390127,3.98081517219543,-1.63917619386782
-1.44989759126772,-0.474791364078857,0.931699577962057,-1.97455944637441,4.03176116943359,-1.63914043108095
-1.44358140627016,-0.474827126865723,0.931568924580709,-1.99997105220937,4.05766296386719,-1.63912803331484
-1.43838960329165,-0.474839524631836,0.931397263203756,-2.02219118694448,4.07847309112549,-1.63914043108095
-1.42922908464541,-0.47489960611377,0.930705849324362,-2.07032694439077,4.12643623352051,-1.63910419145693
-1.42673665681948,-0.474923924808838,0.93043023744692,-2.08534159282827,4.14385795593262,-1.63910419145693
-1.42592126527895,-0.474935845737793,0.93033200899233,-2.09059061626577,4.14975357055664,-1.63911611238589
-1.41694814363589,-0.474959687595703,0.929404083882467,-2.14552750209951,4.2163462638855,-1.63910419145693
-1.41396934190859,-0.474971608524658,0.929261032735006,-2.16341795543813,4.23811388015747,-1.63908034959902
-1.40197688737978,-0.475007371311523,0.926945511494772,-2.23520626644277,4.3250207901001,-1.63905650774111
-1.40015489259829,-0.474983529453613,0.92573053041567,-2.24626173595571,4.33881855010986,-1.63911611238589
-1.39753657976259,-0.474983529453613,0.923134628926412,-2.26234068493032,4.3593921661377,-1.63910419145693
-1.39663821855654,-0.474995450382568,0.922040764485494,-2.2674838505187,4.36585330963135,-1.63908034959902
-1.38697320619692,-0.475043610935547,0.902333084736959,-2.30916704754018,4.42239618301392,-1.63905650774111
-1.38467675844301,-0.475007371311523,0.896148506795065,-2.31522383312368,4.43134117126465,-1.63906842867006
-1.37032634416689,-0.475019769077637,0.83365232149233,-2.33341469387197,4.46935081481934,-1.63906842867006
-1.36868125597109,-0.475055531864502,0.820921723042623,-2.3337999782958,4.47311115264893,-1.63908034959902
-1.36466485658755,-0.474995450382568,0.742199722920553,-2.33373322109365,4.49299430847168,-1.63905650774111
-1.36476165453066,-0.475007371311523,0.719437424336569,-2.33376946071767,4.49858427047729,-1.63906842867006
-1.36468917528261,-0.475043610935547,0.704281632100241,-2.33378138164663,4.50229406356812,-1.63899642625918
-1.36476070085634,-0.475055531864502,0.651381317769186,-2.33372082332754,4.51778650283813,-1.63896018663515
-1.36485797563662,-0.474959687595703,0.614653412495748,-2.3336607418456,4.52882814407349,-1.63830358186831
-1.36490565935244,-0.475043610935547,0.607511345540182,-2.33370937923574,4.53104972839355,-1.63814145723452
-1.3650749365436,-0.475043610935547,0.5789421240436,-2.33370937923574,4.53993082046509,-1.63809806505312
-1.36564094225039,-0.475043610935547,0.509600464497701,-2.33370937923574,4.55240535736084,-1.63747865358462
-1.36983806291689,-0.475079373722412,0.416582886372701,-2.33362545589589,4.55232858657837,-1.63477927843203
-1.37130767503847,-0.475019769077637,0.403765503560201,-2.33357729534292,4.55238819122314,-1.63471872011294
-1.37681514421572,-0.475079373722412,0.366973702107565,-2.33352722744131,4.55235242843628,-1.63364726701845
-1.38492376009096,-0.475067452793457,0.321705643330709,-2.333469053308,4.55232858657837,-1.6219428221332
-1.39027530351748,-0.475079373722412,0.295559708272116,-2.333469053308,4.55235242843628,-1.60995752016176
-1.39388496080507,-0.475055531864502,0.280694786702291,-2.33345713237905,4.55236434936523,-1.60075599351992
-1.39808208147158,-0.475139932041504,0.266421143208639,-2.33350529293203,4.55235242843628,-1.5901897589313
-1.4027946631061,-0.475079373722412,0.252748314534323,-2.33344521145009,4.55231666564941,-1.57852298418154
-1.40609962144961,-0.475103692417481,0.243590180073873,-2.33345713237905,4.55236434936523,-1.56981736818422
-1.41101056734194,-0.475127534275391,0.230010811482565,-2.333469053308,4.55236434936523,-1.55561954179873
-1.41417724290957,-0.475091294651367,0.220942322407858,-2.33344521145009,4.55234050750732,-1.54522258440127
-1.41723186174502,-0.475103692417481,0.212002579365866,-2.33344521145009,4.55234050750732,-1.53418142000307
-1.42025405565371,-0.475151852970459,0.203244988118307,-2.33345713237905,4.55234050750732,-1.52278024355044
-1.42837316194643,-0.475067452793457,0.181851212178366,-2.33342136959218,4.55236434936523,-1.49125272432436
-1.43181068101992,-0.475151852970459,0.173252884541647,-2.33348145107412,4.55236434936523,-1.47726136842837
-1.43526107469668,-0.475115613346436,0.164865318928854,-2.33349337200307,4.55232858657837,-1.46265775362124
-1.45292121568789,-0.475091294651367,0.123658005391256,-2.333469053308,4.55238819122314,-1.38041478792299
-1.4565261046039,-0.475079373722412,0.115774933491842,-2.33345713237905,4.55234050750732,-1.36283952394594
-1.4792369047748,-0.475091294651367,0.0666664282428187,-2.33345713237905,4.55237627029419,-1.24662143388857
-1.48382455507387,-0.475079373722412,0.0557106176959437,-2.33342136959218,4.55240058898926,-1.22053558031191
-1.50253278413881,-0.475127534275391,0.0190704504596155,-2.33349337200307,4.55237674713135,-1.13249618211855
-1.50606376329531,-0.475128487949707,0.0127456823932093,-2.33350529293203,4.55242443084717,-1.11871463457216
-1.51307422319521,-0.475091294651367,-4.67300415039062e-05,-2.33344521145009,4.55241250991821,-1.09422427812685
-1.52208120027651,-0.475139932041504,-0.0163450241088867,-2.33345713237905,4.5524845123291,-1.07160407701601
-1.5338137785541,-0.475079373722412,-0.0354194641113281,-2.33336128811025,4.55260515213013,-1.05563670793642
-1.53942853609194,-0.475139932041504,-0.0452356338500977,-2.33334889034414,4.55281019210815,-1.0527141729938
-1.55754453340639,-0.475115613346436,-0.0760526657104492,-2.33147015194082,4.55703830718994,-1.05130225816836
-1.56339103380312,-0.475176171665527,-0.0845327377319336,-2.33099426845693,4.56141376495361,-1.05127841631045
-1.56523639360537,-0.475140408878662,-0.0872983932495117,-2.33095993618154,4.56313991546631,-1.05126601854433
-1.56894570985903,-0.475175694828369,-0.0927762985229492,-2.33088841060781,4.56720876693726,-1.05125362077822
-1.57807237306704,-0.475223855381348,-0.106019020080566,-2.33079113582754,4.58080387115479,-1.05113107362856
-1.58725530305971,-0.475188092594482,-0.11705493927002,-2.33074392894887,4.59627962112427,-1.05075818697085
-1.59104472795595,-0.475248174076416,-0.12089729309082,-2.33066811184072,4.60318756103516,-1.05056554475893
-1.5929310957538,-0.475235776310303,-0.122849464416504,-2.33053364376211,4.6067419052124,-1.05040723482241
-1.59477264085879,-0.475248174076416,-0.124750137329102,-2.33041205028676,4.61024141311646,-1.05027181306948
-1.61088163057436,-0.475320176487305,-0.142698287963867,-2.32305492977285,4.64070653915405,-1.04355270067324
-1.61506969133486,-0.47534544885669,-0.147181510925293,-2.318079134027,4.64694833755493,-1.03915340105166
-1.62276965776552,-0.475392178898193,-0.155974388122559,-2.30685104946279,4.65401697158813,-1.02727920213808
-1.63002759615053,-0.475415543918945,-0.16652774810791,-2.29431833843374,4.6559009552002,-1.0116437117206
-1.63272744814028,-0.475392178898193,-0.170790672302246,-2.28915705303335,4.65596055984497,-1.0042408148395
-1.63453990617861,-0.475416020756104,-0.173314094543457,-2.28590073207998,4.65599727630615,-0.99893027940859
-1.64238864580263,-0.475584344272949,-0.183262825012207,-2.2739855251708,4.65633583068848,-0.972816769276754
-1.64550525346865,-0.475607709293701,-0.186935424804688,-2.27038969616079,4.65687274932861,-0.962732140217916
-1.66313153902163,-0.47574074686084,-0.21018123626709,-2.25549139598989,4.67094326019287,-0.922260586415426
-1.66492015520205,-0.475680188541748,-0.213160514831543,-2.25428738216543,4.67292499542236,-0.918955151234762
-1.66906243959536,-0.47565586984668,-0.220966339111328,-2.25149788478994,4.6775369644165,-0.911427323018209
-1.67430860200991,-0.475643472080566,-0.232210159301758,-2.24747576336049,4.68319320678711,-0.903974835072653
-1.68522483507265,-0.475667790775635,-0.25478458404541,-2.24011101345205,4.69354295730591,-0.899051491414205
-1.68657809892763,-0.47567971170459,-0.257811546325684,-2.23898710827016,4.69485759735107,-0.899033848439352
-1.68921786943545,-0.475691632633545,-0.263915061950684,-2.23649944881582,4.69739866256714,-0.899034802113668
-1.69559604326357,-0.47567971170459,-0.279117584228516,-2.22961678127431,4.70358562469482,-0.898987118397848
-1.69933730760683,-0.475667790775635,-0.288329124450684,-2.22415413478994,4.70685005187988,-0.89896279970278
-1.70060187975039,-0.47567971170459,-0.291327476501465,-2.22214235881948,4.70765209197998,-0.898974720631735
-1.70536548296084,-0.475667790775635,-0.303217887878418,-2.21342243770742,4.70994424819946,-0.898974720631735
-1.70907003084292,-0.475667790775635,-0.31217098236084,-2.2064577541747,4.712158203125,-0.898938957844869
-1.71412736574282,-0.475619630222656,-0.32425594329834,-2.19660820583486,4.715500831604,-0.898915115986959
-1.72023421922793,-0.475595788364746,-0.338164329528809,-2.18358673671865,4.71980714797974,-0.898915115986959
-1.72255069414248,-0.475619630222656,-0.343358039855957,-2.17837109188222,4.72175693511963,-0.898855034505026
-1.72432262102236,-0.475619630222656,-0.347699165344238,-2.17389072994375,4.72364854812622,-0.89881927171816
-1.73178655305971,-0.475643472080566,-0.364886283874512,-2.15251841167592,4.73522043228149,-0.898770157490866
-1.73286372820009,-0.475643472080566,-0.366921424865723,-2.14868273357534,4.73742389678955,-0.898723427449362
-1.73390037218203,-0.47565586984668,-0.368546485900879,-2.14523186306142,4.7393045425415,-0.898663822804586
-1.73477965990175,-0.475631551151611,-0.369654655456543,-2.14215054134511,4.74084377288818,-0.898663822804586
-1.73515731493105,-0.475691632633545,-0.369946479797363,-2.14086689571523,4.74142456054688,-0.89866286913027
-1.73606950441469,-0.475632504825928,-0.369982719421387,-2.13870348552846,4.74260950088501,-0.898614231740133
-1.73659021059145,-0.47567971170459,-0.369982719421387,-2.13763727764272,4.74316072463989,-0.898542229329244
-1.73939401308169,-0.475667790775635,-0.369948387145996,-2.13166775325918,4.7469630241394,-0.898340050374166
-1.74096662202944,-0.475691632633545,-0.36998462677002,-2.12892975429677,4.74836683273315,-0.898180309926168
-1.74165755907168,-0.475667790775635,-0.369959831237793,-2.12827362636709,4.74861621856689,-0.898023907338278
-1.74966842332949,-0.476525143986084,-0.370091438293457,-2.12392820934438,4.74907875061035,-0.894813362752096
-1.75037366548647,-0.477217988376953,-0.370031356811523,-2.12389053920888,4.74904155731201,-0.894704167042867
-1.75255328813662,-0.480644540195801,-0.37005615234375,-2.12383141140127,4.74910163879395,-0.891036335621969
-1.75425893465151,-0.484021024113037,-0.370057106018066,-2.12377085308217,4.7491135597229,-0.885809246693746
-1.75537044206728,-0.486856774692871,-0.370043754577637,-2.12374796489858,4.74908924102783,-0.881617848073141
-1.75596648851504,-0.489159421329834,-0.370031356811523,-2.12369885067129,4.74908924102783,-0.878662888203756
-1.76020747820009,-0.50122149408374,-0.369899749755859,-2.12365116695547,4.7491250038147,-0.865336243306295
-1.76119643846621,-0.503668622379639,-0.369959831237793,-2.12363972286367,4.74911308288574,-0.863026920949117
-1.76240474382509,-0.505985574131348,-0.369912147521973,-2.12363972286367,4.74907732009888,-0.861154381428854
-1.76722747484316,-0.514454678898193,-0.369775772094727,-2.12352814296865,4.74911308288574,-0.853708569203512
-1.76865369478335,-0.515759305363037,-0.369780540466309,-2.12353148082876,4.7491250038147,-0.851590458546774
-1.77324563661684,-0.519201115970947,-0.369805335998535,-2.12343468288564,4.74916172027588,-0.847145382558004
-1.78064185777773,-0.526312665348389,-0.369792938232422,-2.12339939693593,4.74923276901245,-0.847133461629049
-1.78298026720156,-0.530848817234375,-0.369757652282715,-2.12342323879384,4.74920892715454,-0.847121540700094
-1.78320962587465,-0.532599286442139,-0.369804382324219,-2.12347139934682,4.74916076660156,-0.847157303486959
-1.78314954439272,-0.53255112588916,-0.369708061218262,-2.12347139934682,4.74917316436768,-0.847205464039938
-1.78313762346377,-0.532479123478272,-0.369660377502441,-2.12345947841787,4.7491250038147,-0.847229305897848
-1.78314954439272,-0.532479123478272,-0.369648933410645,-2.12354387859487,4.74908924102783,-0.847265068684713
-1.78312570253481,-0.532455281620361,-0.369671821594238,-2.12357964138173,4.74906539916992,-0.847253147755758
-1.78313762346377,-0.532467202549316,-0.369671821594238,-2.12356772045278,4.74905300140381,-0.847265068684713
-1.78308946291079,-0.532443360691406,-0.369648933410645,-2.12361588100576,4.7490291595459,-0.847300831471578
-1.78311378160586,-0.532443360691406,-0.369648933410645,-2.12359203914785,4.74907732009888,-0.847288910542623
-1.78310138383974,-0.532455281620361,-0.369660377502441,-2.12362780193471,4.74901723861694,-0.847312752400533
-1.78307754198183,-0.532419041996338,-0.369660377502441,-2.12361588100576,4.74904108047485,-0.847324673329489
-1.78308946291079,-0.532467202549316,-0.369660377502441,-2.1236039600768,4.74899339675903,-0.847324673329489
-1.78306562105288,-0.532455281620361,-0.369671821594238,-2.12357964138173,4.74899339675903,-0.847337071095602
-1.78307754198183,-0.532419041996338,-0.369660377502441,-2.1236039600768,4.74900531768799,-0.847312752400533
-1.78304177919497,-0.532419041996338,-0.369671821594238,-2.12361588100576,4.74899339675903,-0.847348992024557
-1.78308946291079,-0.532431439762451,-0.369660377502441,-2.12366404155874,4.74898147583008,-0.847360912953512
-1.78312570253481,-0.532455281620361,-0.369685173034668,-2.12363972286367,4.74894571304321,-0.847396675740377
-1.78304177919497,-0.532431439762451,-0.369660377502441,-2.12365212062978,4.74898147583008,-0.847396675740377
-1.78308946291079,-0.532443360691406,-0.369636535644531,-2.12365212062978,4.74894571304321,-0.847360912953512
-1.78301793733706,-0.532443360691406,-0.369685173034668,-2.12367643932485,4.74893379211426,-0.847420517598287
-1.78306562105288,-0.532431439762451,-0.369671821594238,-2.12368836025381,4.74898147583008,-0.847360912953512
-1.78305370012392,-0.532431439762451,-0.369671821594238,-2.12371267894887,4.74894571304321,-0.847408596669332
-1.7830174604999,-0.532431439762451,-0.369671821594238,-2.12372555355214,4.74898147583008,-0.847408596669332
-1.7830174604999,-0.532455281620361,-0.369660377502441,-2.12378515819692,4.74893379211426,-0.847420517598287
-1.7830174604999,-0.532419041996338,-0.369660377502441,-2.12385620693349,4.74894571304321,-0.847360912953512
-1.78299361864199,-0.532419041996338,-0.369671821594238,-2.12388052562856,4.74896955490112,-0.847360912953512
-1.78299361864199,-0.532347516422607,-0.369624137878418,-2.12388052562856,4.7489218711853,-0.847372357045309
-1.78306562105288,-0.532311276798584,-0.369636535644531,-2.12386860469961,4.74898147583008,-0.847432438527242
-1.78304177919497,-0.532323197727539,-0.369624137878418,-2.12388052562856,4.74894571304321,-0.847420517598287
-1.78298217455019,-0.532335595493652,-0.369612693786621,-2.12388052562856,4.74893379211426,-0.847420517598287
-1.78298217455019,-0.532323197727539,-0.369636535644531,-2.12389244655752,4.74894571304321,-0.847456280385153
-1.78301793733706,-0.532287434940674,-0.369587898254395,-2.12386860469961,4.74889755249023,-0.847408596669332
-1.7830060164081,-0.532287434940674,-0.369612693786621,-2.1238800487914,4.74893379211426,-0.847408596669332
-1.78302985826601,-0.532335595493652,-0.369624137878418,-2.12391628841543,4.74894571304321,-0.847432438527242
-1.78301793733706,-0.532299355869629,-0.369648933410645,-2.12388052562856,4.74890995025635,-0.847432438527242
-1.78305370012392,-0.532323197727539,-0.369576454162598,-2.12391628841543,4.74895763397217,-0.847444359456198
-1.78305370012392,-0.532311276798584,-0.369612693786621,-2.12389244655752,4.74888610839844,-0.847420517598287
-1.78306562105288,-0.532371358280518,-0.369601249694824,-2.1239644489684,4.74888610839844,-0.847444359456198
-1.78301793733706,-0.532287434940674,-0.369612693786621,-2.12391628841543,4.74893379211426,-0.847456280385153
-1.78302985826601,-0.532323197727539,-0.369612693786621,-2.12389244655752,4.74888610839844,-0.847420517598287
-1.78301793733706,-0.532299355869629,-0.369624137878418,-2.12392868618154,4.74893379211426,-0.847420517598287
-1.78304177919497,-0.532311276798584,-0.369612693786621,-2.12392868618154,4.74895763397217,-0.847432438527242
-1.78304177919497,-0.532275514011719,-0.369601249694824,-2.12389244655752,4.74890995025635,-0.847456280385153
-1.78302985826601,-0.532323197727539,-0.369636535644531,-2.12391628841543,4.7489218711853,-0.847432438527242
-1.78304177919497,-0.532299355869629,-0.369624137878418,-2.12394060711049,4.74894571304321,-0.847408596669332
-1.78301793733706,-0.532359437351563,-0.369660377502441,-2.12392868618154,4.7489218711853,-0.847420517598287
-1.78302985826601,-0.532359437351563,-0.369671821594238,-2.12392868618154,4.74889755249023,-0.847468201314108
-1.78304177919497,-0.532323197727539,-0.369671821594238,-2.12395252803945,4.74893379211426,-0.847456280385153
-1.7830060164081,-0.532323197727539,-0.369660377502441,-2.12392868618154,4.74890995025635,-0.847432438527242
-1.7830060164081,-0.532287434940674,-0.369636535644531,-2.12392868618154,4.7489218711853,-0.847444359456198
-1.78305370012392,-0.532299355869629,-0.369671821594238,-2.12389244655752,4.7489218711853,-0.847456280385153
-1.78302985826601,-0.532311276798584,-0.369648933410645,-2.12394060711049,4.74895763397217,-0.847432438527242
-1.78298217455019,-0.532359437351563,-0.369587898254395,-2.12391628841543,4.74894571304321,-0.847444359456198
-1.78296977678408,-0.532311276798584,-0.369624137878418,-2.12394060711049,4.74894571304321,-0.847420517598287
-1.78296977678408,-0.532299355869629,-0.369624137878418,-2.1239644489684,4.74890995025635,-0.847420517598287
-1.78296977678408,-0.532347516422607,-0.369612693786621,-2.12394060711049,4.7489218711853,-0.847468201314108
-1.78298217455019,-0.532359437351563,-0.369624137878418,-2.12390436748647,4.74894571304321,-0.847468201314108
-1.78296977678408,-0.532287434940674,-0.369636535644531,-2.12391628841543,4.7489218711853,-0.847492520009176
-1.78304177919497,-0.532299355869629,-0.369612693786621,-2.12391628841543,4.74893379211426,-0.847468201314108
-1.78298217455019,-0.532299355869629,-0.369685173034668,-2.12395252803945,4.74887371063232,-0.847456280385153
-1.78298217455019,-0.532287434940674,-0.369612693786621,-2.12394060711049,4.7489218711853,-0.847456280385153
-1.78298217455019,-0.532359437351563,-0.369648933410645,-2.12391628841543,4.7489218711853,-0.847504440938131
-1.78301793733706,-0.532335595493652,-0.369648933410645,-2.12394060711049,4.74889755249023,-0.847444359456198
-1.78299361864199,-0.532287434940674,-0.369624137878418,-2.12391628841543,4.7489218711853,-0.847444359456198
-1.7830060164081,-0.532371358280518,-0.369648933410645,-2.12390436748647,4.74890995025635,-0.847456280385153
-1.78301793733706,-0.532359437351563,-0.369612693786621,-2.12390436748647,4.7489218711853,-0.847432438527242
-1.78302985826601,-0.532323197727539,-0.369624137878418,-2.12391628841543,4.74890995025635,-0.847432438527242
-1.78296977678408,-0.532299355869629,-0.369612693786621,-2.12395252803945,4.7489218711853,-0.847468201314108
-1.78299361864199,-0.532347516422607,-0.369648933410645,-2.12391628841543,4.74893379211426,-0.847444359456198
-1.78305370012392,-0.532311276798584,-0.369612693786621,-2.12394060711049,4.74888610839844,-0.847444359456198
-1.7830060164081,-0.532275514011719,-0.369612693786621,-2.12391628841543,4.74887371063232,-0.847456280385153
-1.7830060164081,-0.532287434940674,-0.369624137878418,-2.12392868618154,4.74889755249023,-0.847468201314108
-1.78298217455019,-0.532311276798584,-0.369660377502441,-2.12389244655752,4.74889755249023,-0.847456280385153
-1.78301793733706,-0.532323197727539,-0.369624137878418,-2.12392868618154,4.74890995025635,-0.847480122243063
-1.78295833269228,-0.532335595493652,-0.369624137878418,-2.12386860469961,4.74889755249023,-0.847444359456198
-1.78298217455019,-0.532311276798584,-0.369648933410645,-2.12392868618154,4.74889755249023,-0.847444359456198
-1.7830060164081,-0.532287434940674,-0.369648933410645,-2.12395252803945,4.74887371063232,-0.847456280385153
-1.78301793733706,-0.532311276798584,-0.369612693786621,-2.12392868618154,4.74893379211426,-0.847456280385153
-1.78304177919497,-0.532311276798584,-0.369624137878418,-2.12391628841543,4.74894571304321,-0.847468201314108
-1.78304177919497,-0.532299355869629,-0.369648933410645,-2.12394060711049,4.74893379211426,-0.847468201314108
-1.78299361864199,-0.532275514011719,-0.369612693786621,-2.12394060711049,4.74893379211426,-0.847468201314108
-1.78298217455019,-0.532347516422607,-0.369601249694824,-2.12389244655752,4.74890995025635,-0.847444359456198
-1.7830060164081,-0.532323197727539,-0.369624137878418,-2.12390436748647,4.74890995025635,-0.847444359456198
-1.78301793733706,-0.532299355869629,-0.369636535644531,-2.12389244655752,4.74890995025635,-0.847456280385153
-1.7830060164081,-0.532299355869629,-0.369601249694824,-2.12391628841543,4.7489218711853,-0.847468201314108
-1.78301793733706,-0.532299355869629,-0.369612693786621,-2.12389244655752,4.74893379211426,-0.847444359456198
-1.78305370012392,-0.532299355869629,-0.369601249694824,-2.12394060711049,4.74894571304321,-0.847468201314108
-1.78301793733706,-0.532287434940674,-0.369612693786621,-2.12390436748647,4.74888610839844,-0.847432438527242
-1.78301793733706,-0.532287434940674,-0.369636535644531,-2.12391628841543,4.7489218711853,-0.847456280385153
-1.78302985826601,-0.532335595493652,-0.369648933410645,-2.12389244655752,4.7489218711853,-0.847444359456198
-1.78301793733706,-0.532287434940674,-0.369624137878418,-2.12390436748647,4.7489218711853,-0.847432438527242
-1.78301793733706,-0.532275514011719,-0.369636535644531,-2.12389244655752,4.74890995025635,-0.847480122243063
-1.78304177919497,-0.532347516422607,-0.369636535644531,-2.12391628841543,4.74890995025635,-0.847468201314108
-1.78295833269228,-0.532275514011719,-0.369624137878418,-2.12390436748647,4.74886226654053,-0.847468201314108
-1.7830060164081,-0.532335595493652,-0.369660377502441,-2.12391628841543,4.74893379211426,-0.847480122243063
-1.78301793733706,-0.532323197727539,-0.369636535644531,-2.12391628841543,4.74890995025635,-0.847468201314108
-1.78298217455019,-0.532323197727539,-0.369636535644531,-2.12389244655752,4.74889755249023,-0.847432438527242
-1.78301793733706,-0.532359437351563,-0.369624137878418,-2.12394060711049,4.74893379211426,-0.847444359456198
-1.78302985826601,-0.532311276798584,-0.369636535644531,-2.12390436748647,4.7489218711853,-0.847492520009176
-1.78304177919497,-0.532275514011719,-0.369660377502441,-2.12389244655752,4.74890995025635,-0.847468201314108
-1.7830060164081,-0.532323197727539,-0.369648933410645,-2.12389244655752,4.74890995025635,-0.847468201314108
-1.78299361864199,-0.532299355869629,-0.369612693786621,-2.12389244655752,4.74890995025635,-0.847444359456198
-1.78301793733706,-0.532275514011719,-0.369612693786621,-2.12390436748647,4.74893379211426,-0.847444359456198
-1.78298217455019,-0.532311276798584,-0.369636535644531,-2.12390436748647,4.74890995025635,-0.847456280385153
-1.78299361864199,-0.532299355869629,-0.369671821594238,-2.12389244655752,4.74889755249023,-0.847456280385153
-1.78299361864199,-0.532311276798584,-0.369612693786621,-2.12390436748647,4.74894571304321,-0.847504440938131
-1.78302985826601,-0.532323197727539,-0.369624137878418,-2.12392868618154,4.74888610839844,-0.847420517598287
-1.78301793733706,-0.532287434940674,-0.369636535644531,-2.12391628841543,4.74888610839844,-0.847444359456198
-1.78296977678408,-0.532311276798584,-0.369624137878418,-2.12391628841543,4.74893379211426,-0.847456280385153
-1.7830060164081,-0.532335595493652,-0.369648933410645,-2.12391628841543,4.74889755249023,-0.847468201314108
-1.78304177919497,-0.532323197727539,-0.369636535644531,-2.12389244655752,4.74894571304321,-0.847468201314108
-1.7830060164081,-0.532323197727539,-0.369685173034668,-2.12389244655752,4.74890995025635,-0.847468201314108
-1.7830060164081,-0.532323197727539,-0.369587898254395,-2.12390436748647,4.74893379211426,-0.847444359456198
-1.78301793733706,-0.532311276798584,-0.369612693786621,-2.12389244655752,4.74887371063232,-0.847432438527242
-1.78302985826601,-0.532311276798584,-0.369601249694824,-2.1238800487914,4.74893379211426,-0.847480122243063
-1.78304177919497,-0.532311276798584,-0.369660377502441,-2.1238800487914,4.7489218711853,-0.847432438527242
-1.78302985826601,-0.532323197727539,-0.369648933410645,-2.12389244655752,4.7489218711853,-0.847456280385153
-1.78301793733706,-0.532275514011719,-0.369612693786621,-2.12394060711049,4.74889755249023,-0.847468201314108
-1.78299361864199,-0.532323197727539,-0.369612693786621,-2.12391628841543,4.74889755249023,-0.847444359456198
