AdrianPrados/GaussianPathwiseLfD/ExpJointAdam/Water/AguaLeft_1.csv
joint_0,joint_1,joint_2,joint_3,joint_4,joint_5
-0.221846882496969,-0.756759480839111,-0.577916145324707,-1.27926524103198,0.131847858428955,6.64458352724184
-0.221823040639059,-0.756759480839111,-0.577903747558594,-1.27925379694019,0.131836414337158,6.64458352724184
-0.221834484730856,-0.756771401768066,-0.577927589416504,-1.27921755731616,0.131836414337158,6.64457208315005
-0.221823040639059,-0.756795243625977,-0.577927589416504,-1.27922947824512,0.131847858428955,6.64455968538393
-0.221858803425924,-0.756807164554932,-0.577903747558594,-1.27924139917407,0.131847858428955,6.64458352724184
-0.221883122120992,-0.756771401768066,-0.577855110168457,-1.27921755731616,0.131800174713135,6.64459592500796
-0.221846882496969,-0.756759480839111,-0.577855110168457,-1.27924139917407,0.131836414337158,6.64455968538393
-0.221823040639059,-0.756771401768066,-0.577903747558594,-1.27922947824512,0.131824016571045,6.64460736909975
-0.221823040639059,-0.756771401768066,-0.577879905700684,-1.27925379694019,0.131847858428955,6.64454776445498
-0.221858803425924,-0.756795243625977,-0.577903747558594,-1.27926524103198,0.131836414337158,6.64458352724184
-0.221834484730856,-0.756759480839111,-0.577916145324707,-1.27926524103198,0.131847858428955,6.64459592500796
-0.221834484730856,-0.756771401768066,-0.577879905700684,-1.27925379694019,0.131836414337158,6.64460736909975
-0.221858803425924,-0.756747083072998,-0.57789134979248,-1.2792776387981,0.131836414337158,6.64455968538393
-0.221846882496969,-0.756747083072998,-0.57789134979248,-1.27925379694019,0.131860256195068,6.64458352724184
-0.221810642872946,-0.756747083072998,-0.577903747558594,-1.27925379694019,0.131860256195068,6.64464360872378
-0.221846882496969,-0.756771401768066,-0.57789134979248,-1.27924139917407,0.13181209564209,6.64459592500796
-0.221810642872946,-0.756795243625977,-0.577927589416504,-1.27921755731616,0.131836414337158,6.64458352724184
-0.221834484730856,-0.756759480839111,-0.577927589416504,-1.27928908288989,0.131824016571045,6.64457208315005
-0.221834484730856,-0.756795243625977,-0.577927589416504,-1.27925379694019,0.131847858428955,6.64459592500796
-0.221834484730856,-0.756723241215088,-0.577939033508301,-1.27924139917407,0.131860256195068,6.64455968538393
-0.221810642872946,-0.756759480839111,-0.577916145324707,-1.27922947824512,0.131836414337158,6.64460736909975
-0.221846882496969,-0.756759480839111,-0.57789134979248,-1.27925379694019,0.131824016571045,6.64457208315005
-0.221834484730856,-0.756783322697022,-0.577916145324707,-1.27926524103198,0.13181209564209,6.64458352724184
-0.221834484730856,-0.756747083072998,-0.577903747558594,-1.27926524103198,0.131836414337158,6.64460736909975
-0.221846882496969,-0.756747083072998,-0.577927589416504,-1.27926524103198,0.131847858428955,6.64459592500796
-0.221823040639059,-0.756747083072998,-0.577879905700684,-1.27928908288989,0.131824016571045,6.64458352724184
-0.221834484730856,-0.756771401768066,-0.577939033508301,-1.27926524103198,0.131824016571045,6.64457208315005
-0.221834484730856,-0.756771401768066,-0.577939033508301,-1.27925379694019,0.131860256195068,6.64459592500796
-0.221799198781149,-0.756783322697022,-0.577903747558594,-1.27922947824512,0.131860256195068,6.64457208315005
-0.221823040639059,-0.756747083072998,-0.577879905700684,-1.27922947824512,0.131824016571045,6.64457208315005
-0.221834484730856,-0.756759480839111,-0.57784366607666,-1.27919371545825,0.131847858428955,6.64457208315005
-0.221834484730856,-0.756723241215088,-0.57789134979248,-1.27921755731616,0.131824016571045,6.64459592500796
-0.221883122120992,-0.756723241215088,-0.57781982421875,-1.27922947824512,0.13181209564209,6.64457208315005
-0.221823040639059,-0.756759480839111,-0.577855110168457,-1.27918131769214,0.131824016571045,6.64459592500796
-0.221858803425924,-0.756711320286133,-0.57779598236084,-1.27926524103198,0.131836414337158,6.64459592500796
-0.221834484730856,-0.756735162144043,-0.57781982421875,-1.27925379694019,0.13178825378418,6.64457208315005
-0.221823040639059,-0.756711320286133,-0.577807426452637,-1.27920563638721,0.131836414337158,6.64463121095766
-0.221846882496969,-0.756675557499268,-0.577784538269043,-1.27920563638721,0.131847858428955,6.64461976686587
-0.221858803425924,-0.756687478428223,-0.577783584594727,-1.27916891992603,0.131800174713135,6.64460736909975
-0.221858803425924,-0.756651238804199,-0.577699661254883,-1.27896435678516,0.131775856018066,6.64464360872378
-0.221823040639059,-0.756627396946289,-0.577661514282227,-1.27884276330981,0.13181209564209,6.64463168779482
-0.221810642872946,-0.756627396946289,-0.577479362487793,-1.27875645578418,0.131775856018066,6.64463168779482
-0.221823040639059,-0.756590680485107,-0.577252388000488,-1.27826579034839,0.131752014160156,6.64461976686587
-0.221858803425924,-0.756579236393311,-0.577157974243164,-1.2775457662395,0.131800174713135,6.64464360872378
-0.221799198781149,-0.756505326633789,-0.576870918273926,-1.27496560037646,0.13178825378418,6.64466745058169
-0.221823040639059,-0.756371335392334,-0.576811790466309,-1.27421648920093,0.13178825378418,6.6446912924396
-0.221799198781149,-0.756191090946533,-0.576728820800781,-1.27199395120654,0.131763935089111,6.64469176927675
-0.221786801015035,-0.755987481479981,-0.576728820800781,-1.26964505136523,0.131776332855225,6.64473992982973
-0.221786801015035,-0.755604581241943,-0.576693534851074,-1.26026566446338,0.131776332855225,6.64481145540346
-0.22177488008608,-0.755486802463867,-0.576728820800781,-1.25675805032764,0.131752014160156,6.64481145540346
-0.221762959157125,-0.755463437443115,-0.576704978942871,-1.25494559228931,0.131752014160156,6.64481145540346
-0.221798721943991,-0.755428151493408,-0.576729774475098,-1.2497628492168,0.131776332855225,6.64481145540346
-0.22175103822817,-0.755476312046387,-0.576729774475098,-1.24613793314014,0.131776332855225,6.64479953447451
-0.22177488008608,-0.755476312046387,-0.576729774475098,-1.24435742319141,0.131763935089111,6.64478713670839
-0.221739117299215,-0.755451993351318,-0.576718330383301,-1.2385094922832,0.13178825378418,6.64481145540346
-0.22175103822817,-0.755440549259522,-0.576682090759277,-1.23595555246387,0.131776332855225,6.64482337633242
-0.221786801015035,-0.75530560434375,-0.576657295227051,-1.23238165796313,0.131752014160156,6.64478713670839
-0.221739117299215,-0.755246953373291,-0.576682090759277,-1.23116000116382,0.131752014160156,6.64481145540346
-0.221690479909078,-0.755005196934082,-0.576633453369141,-1.22790558755908,0.13178825378418,6.64484674135317
-0.221678082142965,-0.754701928501465,-0.576571464538574,-1.22503312051807,0.131752014160156,6.64485913911928
-0.221605602894918,-0.754422501926758,-0.576462745666504,-1.22258265436206,0.131740093231201,6.64484721819033
-0.221570793782369,-0.753933267002441,-0.576416969299316,-1.21985943735156,0.131763935089111,6.64483482042422
-0.22149640718569,-0.753223733311035,-0.57646656036377,-1.21672137201343,0.131776332855225,6.64484721819033
-0.221388165150778,-0.752418832187988,-0.57640552520752,-1.21323092401538,0.131776332855225,6.64484721819033
-0.220334355031149,-0.749349908237793,-0.57640552520752,-1.20238478601489,0.131763935089111,6.64483482042422
-0.219203774129049,-0.747886494999268,-0.576489448547363,-1.19944842279468,0.131776332855225,6.64481145540346
-0.216740433369772,-0.744574384098389,-0.57645320892334,-1.19596035898242,0.131727695465088,6.64478713670839
-0.215314213429586,-0.742562131290772,-0.576454162597656,-1.19518120706592,0.131763935089111,6.64484674135317
-0.21191388765444,-0.738371686344482,-0.57649040222168,-1.19491846979175,0.131752014160156,6.6448109785663
-0.210018936787741,-0.736186818485596,-0.576417922973633,-1.19487078607593,0.131752014160156,6.64479905763735
-0.20796233812441,-0.733976678257324,-0.57640552520752,-1.19490654886279,0.131752014160156,6.64483482042422
-0.205715481434957,-0.731508569126465,-0.576526641845703,-1.19490654886279,0.131752014160156,6.64483482042422
-0.202064339314596,-0.727791146641113,-0.57651424407959,-1.19489462793384,0.131763458251953,6.64483482042422
-0.199370209370748,-0.725053624515869,-0.576537132263184,-1.19493086755786,0.131763935089111,6.64478713670839
-0.197950188313619,-0.723721818333008,-0.57651424407959,-1.19490654886279,0.131752014160156,6.64478713670839
-0.195000950490133,-0.721021966343262,-0.576501846313477,-1.19491846979175,0.131740093231201,6.64476329485048
-0.188589398060934,-0.715565041904785,-0.57656192779541,-1.19493086755786,0.131740093231201,6.64479905763735
-0.18014890352358,-0.708637074833252,-0.576537132263184,-1.19494278848682,0.131728172302246,6.64479905763735
-0.176748577748434,-0.706003026371338,-0.576489448547363,-1.19493086755786,0.131716251373291,6.64477521577944
-0.173149887715475,-0.703399018650391,-0.57651424407959,-1.19491846979175,0.131716251373291,6.6448109785663
-0.165504280720846,-0.698295907383301,-0.576489448547363,-1.19490654886279,0.131703853607178,6.64478713670839
-0.15727407137026,-0.693201856022217,-0.57646656036377,-1.19494278848682,0.131716251373291,6.64476329485048
-0.15097409883608,-0.689445809727051,-0.576537132263184,-1.19491846979175,0.131716251373291,6.64477521577944
-0.148872677479879,-0.688300923710205,-0.576478004455566,-1.19491846979175,0.131728172302246,6.64481145540346
-0.146855179463522,-0.687126950626709,-0.576525688171387,-1.19491846979175,0.131752014160156,6.64481145540346
-0.136387650166647,-0.681429700260498,-0.576525688171387,-1.19491846979175,0.131740093231201,6.64479905763735
-0.118574444447653,-0.672655896549561,-0.57646656036377,-1.19486887872729,0.131653785705566,6.64482289949526
-0.114020172749655,-0.670349435215332,-0.576537132263184,-1.19491846979175,0.131667613983154,6.64479905763735
-0.109344307576315,-0.66801484048877,-0.576489448547363,-1.19487078607593,0.131619930267334,6.64482289949526
-0.0836156050311487,-0.654879407291748,-0.576525688171387,-1.19469912469897,0.131607532501221,6.64482289949526
-0.0782030264483851,-0.652049855594971,-0.576537132263184,-1.19465334833179,0.131571769714355,6.64479905763735
-0.0669592062579554,-0.645973519687988,-0.576573371887207,-1.19461758554492,0.131596088409424,6.64483482042422
-0.0582783857928675,-0.641106919651367,-0.576573371887207,-1.1945813459209,0.1315598487854,6.64479905763735
-0.049506966267721,-0.635952309971191,-0.57656192779541,-1.19456942499194,0.131511688232422,6.64477521577944
-0.0435498396502894,-0.632288770084717,-0.576537132263184,-1.19453318536792,0.13147497177124,6.64479905763735
-0.0374177137957972,-0.628435449009277,-0.576550483703613,-1.19455750406299,0.13149881362915,6.64478713670839
-0.0312464872943323,-0.624527291660645,-0.576573371887207,-1.19452126443896,0.131461143493652,6.64481145540346
-0.0251076857196253,-0.620427922611572,-0.576598167419434,-1.19452126443896,0.131451606750488,6.64478713670839
-0.0188820997821253,-0.616172627811768,-0.576550483703613,-1.19453366220508,0.131415843963623,6.64477521577944
-0.00942594209779912,-0.609538869266846,-0.576573371887207,-1.19454558313403,0.13140344619751,6.64479905763735
-0.00290853181947881,-0.605050877933838,-0.57656192779541,-1.19455750406299,0.131402969360352,6.64482289949526
0.00363588333129883,-0.600414113407471,-0.57656192779541,-1.19452174127612,0.13140344619751,6.64482289949526
0.0101633071899414,-0.595724419956543,-0.57660961151123,-1.19454558313403,0.131367206573486,6.64478713670839
0.0236072540283203,-0.586046056156494,-0.576598167419434,-1.19454558313403,0.13140344619751,6.64478713670839
0.0270857810974121,-0.583630399113037,-0.576621055603027,-1.1944855016521,0.131331920623779,6.64481145540346
0.0448083877563477,-0.571516351108887,-0.576621055603027,-1.19452174127612,0.131343364715576,6.64478713670839
0.0520744323730469,-0.566760854130127,-0.576634407043457,-1.19455798090015,0.13130521774292,6.64477521577944
0.0594630241394043,-0.562050179844238,-0.57660961151123,-1.19452174127612,0.131160736083984,6.64478713670839
0.0743865966796875,-0.553135232334473,-0.57660961151123,-1.19455798090015,0.131126880645752,6.64477521577944
0.0859832763671875,-0.546972112064697,-0.57660961151123,-1.19450982034717,0.131016731262207,6.64476329485048
0.0979189872741699,-0.541108445530273,-0.576634407043457,-1.19453366220508,0.130860805511475,6.64479905763735
0.105830192565918,-0.537597493534424,-0.57658576965332,-1.19454558313403,0.130813121795654,6.64478713670839
0.109773635864258,-0.535951928501465,-0.57658576965332,-1.19454558313403,0.130738258361816,6.64473897615542
0.125825881958008,-0.530094937687256,-0.57656192779541,-1.19454558313403,0.130508422851562,6.64478713670839
0.133702278137207,-0.52765257776294,-0.576573371887207,-1.19450982034717,0.130344867706299,6.64477521577944
0.141466617584229,-0.525368527775147,-0.576598167419434,-1.19454558313403,0.130187511444092,6.64477521577944
0.156938076019287,-0.521324948673584,-0.57660961151123,-1.19452174127612,0.129821300506592,6.64475137392153
0.164416313171387,-0.519516782169678,-0.576634407043457,-1.19452174127612,0.129644393920898,6.64481145540346
0.175336837768555,-0.51727660120044,-0.576598167419434,-1.19449742258105,0.129042148590088,6.64478713670839
0.182577133178711,-0.516021565800049,-0.576598167419434,-1.1944855016521,0.128481388092041,6.64477521577944
0.189705371856689,-0.514859990482666,-0.576621055603027,-1.19452174127612,0.127833366394043,6.64476329485048
0.20344877243042,-0.513157681827881,-0.576512336730957,-1.19447215021167,0.125710964202881,6.64476329485048
0.233517646789551,-0.510376290684082,-0.576621055603027,-1.19447358072314,0.106886863708496,6.64481145540346
0.249928951263428,-0.509246186619141,-0.576621055603027,-1.19449742258105,0.0871686935424805,6.64481145540346
0.275520324707031,-0.508729295139648,-0.576573371887207,-1.1942413610271,0.040809154510498,6.64481145540346
0.282084465026855,-0.508729295139648,-0.576573371887207,-1.19413168848071,0.0270280838012695,6.64479905763735
0.288646697998047,-0.508741216068604,-0.576550483703613,-1.19396384180103,0.0126543045043945,6.64476329485048
0.301956653594971,-0.508717374210693,-0.576573371887207,-1.19374783456836,-0.0166581312762659,6.64479905763735
0.329866886138916,-0.508717374210693,-0.576525688171387,-1.19316943109546,-0.0731099287616175,6.64482337633242
0.337131023406982,-0.508681611423828,-0.576489448547363,-1.19298537195239,-0.0857356230365198,6.64481145540346
0.373743534088135,-0.508644894962647,-0.576489448547363,-1.18728526056323,-0.137430969868795,6.64488298097719
0.381048202514648,-0.508681611423828,-0.57651424407959,-1.18378766000781,-0.145030323659078,6.64484721819033
0.388271808624268,-0.50865729272876,-0.576501846313477,-1.17967970788989,-0.151465717946188,6.64488298097719
0.391894817352295,-0.50863345087085,-0.57651424407959,-1.17750676095996,-0.154347721730367,6.64488298097719
0.399196624755859,-0.508644894962647,-0.576478004455566,-1.17256195962939,-0.159262482319967,6.64484721819033
0.406494617462158,-0.508572892551758,-0.576525688171387,-1.1677315992168,-0.163511101399557,6.64487106004824
0.424213409423828,-0.508549527531006,-0.57651424407959,-1.15519888818774,-0.170934025441305,6.64482337633242
0.431283473968506,-0.508560971622803,-0.57651424407959,-1.14976580560718,-0.17268401781191,6.64483482042422
0.445259571075439,-0.508549527531006,-0.576478004455566,-1.13893254220996,-0.174890820180075,6.64484721819033
0.452066421508789,-0.508525208835938,-0.57651424407959,-1.13387806833301,-0.174965206776754,6.64481145540346
0.458774566650391,-0.508525685673096,-0.576501846313477,-1.12895853937183,-0.174905125294821,6.64483482042422
0.472477912902832,-0.508525685673096,-0.576501846313477,-1.1192582410625,-0.174928967152731,6.64484674135317
0.479118824005127,-0.508561448459961,-0.576525688171387,-1.1145613950542,-0.174917046223776,6.64484674135317
0.485658645629883,-0.508525685673096,-0.576489448547363,-1.11004193246875,-0.174952809010641,6.64481145540346
0.49221134185791,-0.508512811069824,-0.576501846313477,-1.10621293008838,-0.174966637288229,6.64481145540346
0.498622417449951,-0.508464650516846,-0.576525688171387,-1.10291464746509,-0.175039116536276,6.64482289949526
0.508117198944092,-0.508453206425049,-0.576537132263184,-1.09845335901294,-0.175136391316549,6.64483482042422
0.51750659942627,-0.508429364567139,-0.57645320892334,-1.09480746210132,-0.175295178090231,6.6448109785663
0.5238938331604,-0.508367375736572,-0.576501846313477,-1.09239275873218,-0.175525967274801,6.64479905763735
0.533525466918945,-0.508246259098389,-0.57645320892334,-1.08844025552783,-0.175837818776266,6.64485866228213
0.539888858795166,-0.50809987009082,-0.576489448547363,-1.08624728143726,-0.176056687031881,6.64483482042422
0.546278953552246,-0.507920102482178,-0.57651424407959,-1.08401043832813,-0.176373783742086,6.6448109785663
0.563196659088135,-0.507051305179932,-0.576489448547363,-1.07798178613696,-0.178516689931051,6.64479905763735
0.570240020751953,-0.50658209741626,-0.57651424407959,-1.07605011880908,-0.180620495473043,6.64483482042422
0.580892562866211,-0.505898312931397,-0.57645320892334,-1.07402451456104,-0.184921566640035,6.64483482042422
0.588334083557129,-0.505501584415772,-0.576478004455566,-1.07256634653125,-0.18873626390566,6.64478713670839
0.59989595413208,-0.504673318271973,-0.576525688171387,-1.07037432611499,-0.19619065919985,6.64482289949526
0.607666969299316,-0.504198865299561,-0.57645320892334,-1.06899435937915,-0.202187363301412,6.64485913911928
0.615540981292725,-0.503806905155518,-0.576441764831543,-1.06777604043994,-0.20887786546816,6.64485913911928
0.627501964569092,-0.50364716470752,-0.576430320739746,-1.06572993219409,-0.21968108812441,6.64485913911928
0.635469436645508,-0.503659562473633,-0.57646656036377,-1.0638120931438,-0.227309052144186,6.64483482042422
0.64335823059082,-0.503695325260498,-0.57640552520752,-1.06123049676929,-0.235120598469869,6.64487058321108
0.651384830474854,-0.503647641544678,-0.576394081115723,-1.05809433877979,-0.24275523820986,6.64484674135317
0.655387878417969,-0.503647641544678,-0.57640552520752,-1.05641014993701,-0.246471707020895,6.64485913911928
0.659402370452881,-0.503683404331543,-0.576417922973633,-1.05463583887134,-0.250092331563131,6.64485913911928
0.682719230651855,-0.503647641544678,-0.576345443725586,-1.0434902471355,-0.271288220082418,6.64483482042422
0.711447715759277,-0.503610448246338,-0.576356887817383,-1.02789671838794,-0.293330017720358,6.64487106004824
0.714839458465576,-0.503587083225586,-0.576403617858887,-1.02578146875415,-0.295488659535543,6.64487106004824
0.721481800079346,-0.503586606388428,-0.576257705688477,-1.02159150064502,-0.299592320119039,6.64483482042422
0.751269817352295,-0.503430203800537,-0.571910858154297,-0.999800519352295,-0.30804950395693,6.64484674135317
0.757017135620117,-0.503479318027832,-0.569035530090332,-0.995879487400391,-0.308037583027975,6.64485913911928
0.783127784729004,-0.50343211114917,-0.544623374938965,-0.988413648014404,-0.308061424885885,6.64478665987124
0.789034366607666,-0.503527955417969,-0.536616325378418,-0.988484696750977,-0.30807334581484,6.64477521577944
0.797693729400635,-0.503444032078125,-0.523395538330078,-0.988533334141113,-0.30804950395693,6.64473897615542
0.803511142730713,-0.50347979486499,-0.514228820800781,-0.988581017856934,-0.308097664509908,6.64476281801333
0.812294483184814,-0.503563718204834,-0.500241279602051,-0.988754109745361,-0.30807334581484,6.64471513429751
0.823780059814453,-0.503491715793945,-0.481844902038574,-0.989738778477051,-0.308121983204977,6.64467889467348
0.826606273651123,-0.503551797275879,-0.477422714233398,-0.990029172306397,-0.308158699666158,6.64469033876528
0.832268238067627,-0.503539876346924,-0.469021797180176,-0.990734414463379,-0.308196846638815,6.64461642900576
0.837884902954102,-0.503527955417969,-0.461130142211914,-0.99175579965625,-0.308392826710836,6.64445907274355
0.851091861724854,-0.503539876346924,-0.444561004638672,-0.996974782352783,-0.309945885335104,6.6443923155414
0.858063697814941,-0.503467873936035,-0.437575340270996,-1.00165827692065,-0.312701050435201,6.64445192018618
0.862198352813721,-0.50347979486499,-0.434505462646484,-1.00490363061938,-0.31505519548525,6.64445192018618
0.865964889526367,-0.503527955417969,-0.432700157165527,-1.00837071359668,-0.317766014729635,6.64444047609438
0.869351863861084,-0.503491715793945,-0.432360649108887,-1.01203663766895,-0.32130462328066,6.64447576204409
0.872533321380615,-0.503565148716309,-0.432599067687988,-1.01611407220874,-0.324800316487448,6.64451247850527
0.875601768493652,-0.50362856805835,-0.432755470275879,-1.02107890069995,-0.327720944081442,6.64448863664736
0.879786968231201,-0.50373204172168,-0.43278694152832,-1.0289090436748,-0.329800430928366,6.64456206956972
0.88792610168457,-0.503719643955566,-0.43281078338623,-1.04861243188892,-0.329977814351217,6.64465552965273
0.88869571685791,-0.503683404331543,-0.432738304138184,-1.05115969598804,-0.330025021229879,6.64464360872378
0.891640186309814,-0.503719643955566,-0.432774543762207,-1.06147463739429,-0.330049816762106,6.64464360872378
0.89314603805542,-0.503719643955566,-0.43276309967041,-1.06676562250171,-0.330074612294332,6.64465552965273
0.895228385925293,-0.503731564884522,-0.432799339294434,-1.07508833826099,-0.330272022877828,6.64464360872378
0.896849155426025,-0.503719643955566,-0.432799339294434,-1.08167965829883,-0.330658260975973,6.64467937151064
0.898566246032715,-0.503743962650635,-0.432774543762207,-1.08913643777881,-0.331563297902242,6.64464360872378
0.900495052337646,-0.5037797254375,-0.432822227478027,-1.09750731409106,-0.332846943532125,6.64465552965273
0.90487003326416,-0.503743485813477,-0.43278694152832,-1.11646397531543,-0.335975948964254,6.64465552965273
0.906015872955322,-0.503755406742432,-0.432774543762207,-1.12167866647754,-0.336811844502584,6.64461976686587
0.907149314880371,-0.503755406742432,-0.43281078338623,-1.1270821851543,-0.337784592305319,6.6446912924396
0.914087772369385,-0.503804044132568,-0.432738304138184,-1.16018088281665,-0.344189945851461,6.64504987398256
0.916452884674072,-0.503815488224365,-0.43278694152832,-1.17043478906665,-0.346346203480856,6.6454213301288
0.91885232925415,-0.503779248600342,-0.43276309967041,-1.18038447320972,-0.348914925252096,6.64570457140078
0.935623645782471,-0.503755406742432,-0.432726860046387,-1.22646649301563,-0.372219387684957,6.64599782625307
0.941301345825195,-0.503779248600342,-0.432726860046387,-1.23479445398364,-0.380900208150045,6.64610749879946
0.945320606231689,-0.503755406742432,-0.432726860046387,-1.23981078088794,-0.387799564992086,6.64619285265078
0.957721710205078,-0.503755406742432,-0.432738304138184,-1.25289280832324,-0.410981957112448,6.64661103883852
0.968831062316895,-0.503791169529297,-0.432690620422363,-1.26319201410327,-0.432976547871725,6.64755565324892
0.97318172454834,-0.503779248600342,-0.43271541595459,-1.26750548303638,-0.441510979329244,6.64879590669741
0.979606628417969,-0.503767327671387,-0.43271541595459,-1.27412875116382,-0.454344097767965,6.65246278444399
0.98586368560791,-0.503791169529297,-0.43265438079834,-1.28102429330859,-0.466309849415914,6.65747911134829
0.99424409866333,-0.503755406742432,-0.43271541595459,-1.29056246698413,-0.481666866933004,6.66757613817324
0.998565673828125,-0.503755406742432,-0.43266773223877,-1.29612477243457,-0.489505592976705,6.67395383516421
1.00750589370728,-0.503767327671387,-0.432738304138184,-1.31000073373828,-0.505646053944723,6.6873872915851
1.01191282272339,-0.50382740915332,-0.432738304138184,-1.31824381769214,-0.5145209471332,6.69465524355044
1.01865863800049,-0.503755406742432,-0.432679176330566,-1.33255560815845,-0.52836782137026,6.70675450960268
1.03034782409668,-0.503755406742432,-0.43266773223877,-1.36114771783862,-0.554526631032125,6.72797662416567
1.03274202346802,-0.503719643955566,-0.432619094848633,-1.36767085016284,-0.559985939656393,6.73289949098696
1.03751468658447,-0.503731564884522,-0.432583808898926,-1.38088543832813,-0.571146313344137,6.74286061922182
1.04707002639771,-0.503767327671387,-0.432546615600586,-1.40947373331104,-0.593930546437399,6.76543456712832
1.05448579788208,-0.503707723026611,-0.432546615600586,-1.43151457727466,-0.611161057149069,6.7847002188312
1.06459617614746,-0.503707723026611,-0.432450294494629,-1.46119816720996,-0.632846180592672,6.81361848512758
1.0697808265686,-0.503719643955566,-0.432450294494629,-1.47557766855273,-0.643411461506979,6.82925063768496
1.08299160003662,-0.503683404331543,-0.432149887084961,-1.51042159021411,-0.666940991078512,6.86942464510073
1.0884051322937,-0.503647641544678,-0.432126998901367,-1.52405531824146,-0.675830666218893,6.88558417955507
1.09378385543823,-0.503659562473633,-0.432163238525391,-1.53722985208545,-0.684112373982565,6.9016116301166
1.09643077850342,-0.503659562473633,-0.432164192199707,-1.54359753549609,-0.688061539326803,6.90932304063906
1.10649299621582,-0.503695325260498,-0.432114601135254,-1.56803305566821,-0.703626457844869,6.93908340135683
1.10891723632812,-0.503635720615723,-0.432065963745117,-1.57359661678457,-0.707452122365133,6.94589215913881
1.1112699508667,-0.503659562473633,-0.432042121887207,-1.57915367702627,-0.711255852376119,6.95251399675478
1.11590528488159,-0.503671483402588,-0.431958198547363,-1.58963980297231,-0.718735520039694,6.96476108232607
1.12032270431519,-0.503683404331543,-0.431995391845703,-1.59906735042714,-0.726480786000387,6.97548705736269
1.12461185455322,-0.503683404331543,-0.432019233703613,-1.60750689129018,-0.734680477772848,6.98521024385561
1.13656091690063,-0.503659562473633,-0.431947708129883,-1.62792410473012,-0.757757012044088,7.00444347063173
1.14031219482422,-0.503635720615723,-0.43193531036377,-1.6329132519164,-0.765138928090231,7.00798255601992
1.14407587051392,-0.503647641544678,-0.43187427520752,-1.63701977352285,-0.772037808095114,7.01060945192446
1.14782047271729,-0.503635720615723,-0.43187427520752,-1.64062037090444,-0.778382603322164,7.01263028780092
1.15172672271729,-0.503647641544678,-0.431899070739746,-1.64350809673452,-0.784083191548483,7.01398736635317
1.15373373031616,-0.503659562473633,-0.431876182556152,-1.6446958980956,-0.786696736012594,7.01437646547426
1.16581439971924,-0.503635720615723,-0.431816101074219,-1.64919151882314,-0.799477402363912,7.01611310640444
1.16771650314331,-0.503611878757813,-0.431839942932129,-1.64971842388296,-0.800627533589498,7.0162561575519
1.17150020599365,-0.503623799686768,-0.431864738464355,-1.65063347438955,-0.802336517964498,7.0164683500873
1.19439840316772,-0.503623799686768,-0.431839942932129,-1.65104403118276,-0.803294483815328,7.01746827760805
1.19975614547729,-0.503599480991699,-0.431803703308105,-1.65105595211172,-0.803727451954977,7.01881343523134
1.20461702346802,-0.503635720615723,-0.431803703308105,-1.65111651043081,-0.805187050496237,7.02019673982729
1.21110010147095,-0.503707723026611,-0.431864738464355,-1.6514212093749,-0.806198898945944,7.02038652101626
1.21272420883179,-0.503671483402588,-0.431851387023926,-1.65165199855947,-0.80633527437319,7.02050763765444
1.21346712112427,-0.503671483402588,-0.431839942932129,-1.65175928692006,-0.806445423756735,7.02053291002382
1.21759986877441,-0.503659562473633,-0.431887626647949,-1.65256800274038,-0.808127228413717,7.0218189398395
1.21922779083252,-0.503707723026611,-0.431887626647949,-1.65332951168203,-0.809804264699117,7.02304011980166
1.22087812423706,-0.503659562473633,-0.431900024414062,-1.65417303661489,-0.81179649034609,7.02444202104677
1.22392797470093,-0.503635720615723,-0.431876182556152,-1.6562549076476,-0.816453282033102,7.02710467973818
1.22549867630005,-0.503623799686768,-0.431839942932129,-1.65822138408803,-0.819738690053121,7.02808124223818
1.22766494750977,-0.503659562473633,-0.431864738464355,-1.66206993679189,-0.825578514729635,7.02990609804262
1.23121404647827,-0.503647641544678,-0.431839942932129,-1.66996874431753,-0.835812870656149,7.03433448473086
1.23392772674561,-0.503611878757813,-0.431803703308105,-1.67779173473501,-0.843093220387594,7.03905660310854
1.23674154281616,-0.503647641544678,-0.431828498840332,-1.68657888988637,-0.849072281514303,7.04471856752505
1.23835420608521,-0.503611878757813,-0.431803703308105,-1.69115128139638,-0.852020565663473,7.04763251939882
1.23983430862427,-0.503623799686768,-0.431803703308105,-1.69580330471181,-0.854568306599752,7.05019647279848
1.24141073226929,-0.503611878757813,-0.431803703308105,-1.70029129604482,-0.856700245534078,7.05247766176333
1.24306774139404,-0.503635720615723,-0.431803703308105,-1.70487036327505,-0.858686272297994,7.05438310304751
1.24470472335815,-0.503647641544678,-0.431767463684082,-1.70911802868032,-0.860117260609762,7.05591279665102
1.24635553359985,-0.503599480991699,-0.431744575500488,-1.71321882824087,-0.860475365315573,7.0571292082416
1.24933910369873,-0.503623799686768,-0.431756019592285,-1.71981348613881,-0.860473934804098,7.05817491212954
1.25204229354858,-0.503611878757813,-0.431767463684082,-1.7249919376769,-0.860462013875143,7.05820876756777
1.25319194793701,-0.503623799686768,-0.431732177734375,-1.72682442287588,-0.860473934804098,7.05819684663881
1.25420475006104,-0.503575639133789,-0.431816101074219,-1.72807612041616,-0.860523049031393,7.05822068849672
1.25537776947021,-0.503611878757813,-0.431780815124512,-1.72942700008535,-0.860522572194235,7.05824500719179
1.2563910484314,-0.503647641544678,-0.431767463684082,-1.73059715847158,-0.86053449312319,7.05823308626284
1.25667476654053,-0.503671483402588,-0.431828498840332,-1.73128857235097,-0.860510174428121,7.05822068849672
1.2567400932312,-0.503623799686768,-0.431756019592285,-1.73406185726308,-0.86053449312319,7.05822068849672
1.25669193267822,-0.503647641544678,-0.431803703308105,-1.73587002376699,-0.860546414052145,7.05824453035464
1.25672817230225,-0.503659562473633,-0.431803703308105,-1.73734583477163,-0.860473934804098,7.05824453035464
1.25671577453613,-0.503623799686768,-0.431828498840332,-1.73806442836904,-0.860510174428121,7.05820876756777
1.2567400932312,-0.503623799686768,-0.431780815124512,-1.7389251194396,-0.860522095357076,7.05825692812075
1.25668001174927,-0.503599480991699,-0.431780815124512,-1.74054922680044,-0.860510174428121,7.05824453035464
1.25668001174927,-0.503647641544678,-0.431803703308105,-1.74194588283681,-0.860510174428121,7.05823308626284
1.25668001174927,-0.503611878757813,-0.431756019592285,-1.74276795009756,-0.860522095357076,7.05823308626284
1.25669193267822,-0.503635720615723,-0.431732177734375,-1.74317135433339,-0.860498253499166,7.05823308626284
1.25666809082031,-0.503611878757813,-0.431708335876465,-1.74320377926015,-0.860498253499166,7.05819684663881
1.25666809082031,-0.503575639133789,-0.431731224060059,-1.74319138149404,-0.860510174428121,7.05818492570986
1.25670385360718,-0.503575639133789,-0.431695938110352,-1.74313130001211,-0.860546414052145,7.05820876756777
1.25661993026733,-0.503599480991699,-0.431586265563965,-1.74317946056508,-0.860582653676168,7.05819684663881
1.2565598487854,-0.503539876346924,-0.431366920471191,-1.74313130001211,-0.860633198414938,7.05818492570986
1.25624513626099,-0.50347979486499,-0.430283546447754,-1.74305882076406,-0.866475407277242,7.05818492570986
1.25608682632446,-0.503407792454102,-0.429764747619629,-1.74309506038808,-0.869221035634176,7.05816060701479
1.25595617294312,-0.503491715793945,-0.428701400756836,-1.74309506038808,-0.872488800679342,7.05812484422793
1.25567626953125,-0.503395394687988,-0.426801681518555,-1.74309506038808,-0.878119770680563,7.05811292329897
1.25498294830322,-0.503372029667236,-0.408766746520996,-1.74309506038808,-0.912222210560934,7.05804044405092
1.25233697891235,-0.503383950596191,-0.391585350036621,-1.74314322094106,-0.92189866701235,7.05794507661928
1.25081253051758,-0.50343211114917,-0.386981010437012,-1.74315561870717,-0.921988312398092,7.05795699754824
1.24905967712402,-0.503407792454102,-0.38248348236084,-1.74314322094106,-0.921917740498678,7.05792123476137
1.24378347396851,-0.503383950596191,-0.371094703674316,-1.74316753963613,-0.921918217335836,7.0578969160663
1.24131774902344,-0.503395871525147,-0.366438865661621,-1.74320377926015,-0.921953980122701,7.05787307420839
1.2386794090271,-0.503383950596191,-0.361681938171387,-1.74320377926015,-0.921930138264791,7.05782491365542
1.2328577041626,-0.503348187809326,-0.352007865905762,-1.74316753963613,-0.921905819569723,7.05766660371889
1.22964715957642,-0.50343211114917,-0.347180366516113,-1.74317946056508,-0.921905819569723,7.05753499666323
1.22637224197388,-0.503407792454102,-0.34235668182373,-1.74317946056508,-0.921870056782858,7.05747586885561
1.21777486801147,-0.503395871525147,-0.330245018005371,-1.74316753963613,-0.921870056782858,7.05728274980654
1.21228170394897,-0.50343211114917,-0.32318115234375,-1.74316706279897,-0.921857659016744,7.05711490312685
1.206711769104,-0.503444032078125,-0.316046714782715,-1.74317946056508,-0.921881500874655,7.05692226091494
1.20302200317383,-0.503383950596191,-0.311161041259766,-1.74315514187002,-0.921845261250631,7.05676633516421
1.1956787109375,-0.503372029667236,-0.30085563659668,-1.74317946056508,-0.921725098286764,7.05641919771303
1.19042301177979,-0.50343211114917,-0.292824745178223,-1.74317946056508,-0.921736542378561,7.05622893968691
1.18207216262817,-0.503383950596191,-0.278292655944824,-1.74317946056508,-0.921653572713033,7.05601245561709
1.17885828018188,-0.50343211114917,-0.272027015686035,-1.74316753963613,-0.921689812337057,7.05583030382265
1.17412233352661,-0.503419713383057,-0.262304306030273,-1.74315514187002,-0.921629730855123,7.05535442033877
1.1678032875061,-0.503444032078125,-0.248513221740723,-1.74321522335195,-0.921641651784078,7.05350619951357
1.16319465637207,-0.503444032078125,-0.237456321716309,-1.74317946056508,-0.921581570302145,7.05128938356508
1.16022825241089,-0.503444032078125,-0.229765892028809,-1.74321522335195,-0.92161733308901,7.04927760759463
1.15589284896851,-0.50345595300708,-0.217578887939453,-1.74315514187002,-0.921581570302145,7.04552823701967
1.15308237075806,-0.503491715793945,-0.209067344665527,-1.74314322094106,-0.921557251607076,7.04240495363344
1.15166521072388,-0.503419713383057,-0.20474910736084,-1.74316753963613,-0.92156964937319,7.04082328477968
1.14877367019653,-0.50343211114917,-0.196053504943848,-1.74315514187002,-0.92156964937319,7.03749353090395
1.14457559585571,-0.503444032078125,-0.18277645111084,-1.74317946056508,-0.921495739613668,7.03216439882387
1.13891506195068,-0.503444032078125,-0.164423942565918,-1.74314322094106,-0.921389404927389,7.0244782606708
1.13605833053589,-0.50343211114917,-0.15507984161377,-1.74319138149404,-0.92134124437441,7.02020436922182
1.13324975967407,-0.50345595300708,-0.145749092102051,-1.74321522335195,-0.921365086232321,7.01532203355898
1.12513589859009,-0.503491715793945,-0.117737770080566,-1.74317946056508,-0.921269241963522,6.99990779558291
1.12249946594238,-0.503444032078125,-0.108378410339355,-1.74320377926015,-0.921244446431295,6.99466211000551
1.11751461029053,-0.503444032078125,-0.0899133682250977,-1.74316753963613,-0.921149078999655,6.98342162767519
1.11517000198364,-0.503467873936035,-0.0806989669799805,-1.74320377926015,-0.921137634907858,6.97735530534853
1.11287546157837,-0.503444032078125,-0.0717744827270508,-1.74316753963613,-0.921112839375631,6.97151691118349
1.10949754714966,-0.503515557651856,-0.0584144592285156,-1.74319138149404,-0.921002213154928,6.96327954927553
1.09967613220215,-0.50343211114917,-0.0133447647094727,-1.74314322094106,-0.920728508626119,6.93634397188296
1.09807062149048,-0.50345595300708,-0.00391292572021484,-1.74317946056508,-0.920681301747457,6.93167335191836
1.09502410888672,-0.503491715793945,0.0155208746539515,-1.74319138149404,-0.920645538960592,6.92293483415713
1.09355497360229,-0.50347979486499,0.025708023701803,-1.74315514187002,-0.9205849806415,6.91881639162172
1.0908203125,-0.503467873936035,0.0466421286212366,-1.74313130001211,-0.920645538960592,6.91198617616762
1.08871793746948,-0.50347979486499,0.0630882422076624,-1.74317946056508,-0.920573536549703,6.90837127367129
1.08742761611938,-0.503515557651856,0.0743206183062952,-1.74319138149404,-0.920561615620748,6.90660697618593
1.08505725860596,-0.50347979486499,0.0972736517535608,-1.74316753963613,-0.920597855244772,6.9044397513019
1.08393096923828,-0.50345595300708,0.109015289937155,-1.74317946056508,-0.92056113878359,6.9037540594684
1.08345890045166,-0.503467873936035,0.114926163350241,-1.74319138149404,-0.920609776173727,6.9035156408893
1.08295392990112,-0.503467873936035,0.120770279561178,-1.74316706279897,-0.920609776173727,6.90323907533755
1.0814905166626,-0.503527955417969,0.138601128255026,-1.74323906520986,-0.920609776173727,6.90176469484438
1.08079814910889,-0.503515557651856,0.150389496480123,-1.74319138149404,-0.920561615620748,6.9002688566791
1.08013582229614,-0.503467873936035,0.162201706563131,-1.74319138149404,-0.92053729692568,6.8987548987018
1.07939863204956,-0.503467873936035,0.179789368306295,-1.74322762111806,-0.920537773762838,6.8964002768146
1.07916831970215,-0.503515557651856,0.197453323994772,-1.74322762111806,-0.920561615620748,6.89402467409243
1.07920598983765,-0.503444032078125,0.209231201802389,-1.74323954204702,-0.920537773762838,6.89205629030337
1.07918214797974,-0.503419713383057,0.226606194172994,-1.74322762111806,-0.920525852833883,6.88919288316836
1.07918214797974,-0.503444032078125,0.238329712544576,-1.74322762111806,-0.920561615620748,6.88748008409609
1.07917022705078,-0.503407792454102,0.291294876729147,-1.74326338390493,-0.920561615620748,6.88314658800234
1.07916975021362,-0.503419713383057,0.315335098897116,-1.74333633999013,-0.920585934315817,6.88245278993715
1.07918214797974,-0.503419713383057,0.327360932026998,-1.74341024974965,-0.920549694691793,6.88179141679873
1.07918214797974,-0.503395871525147,0.345434013997213,-1.74358000377797,-0.920561615620748,6.87992555299868
1.0792179107666,-0.503407792454102,0.35727578798403,-1.74376215557241,-0.920537773762838,6.87828141847719
1.07919406890869,-0.503407792454102,0.369047943745748,-1.74406733135366,-0.920549694691793,6.8766544500934
1.07920598983765,-0.50343211114917,0.404072586690084,-1.74618353466176,-0.920561615620748,6.8710449377643
1.0792179107666,-0.503407792454102,0.415552918110983,-1.7474585972228,-0.920549694691793,6.86827832857241
1.07919406890869,-0.503348187809326,0.42127496400942,-1.74806990245962,-0.920549694691793,6.86681634584536
1.07922983169556,-0.503383950596191,0.42690354982485,-1.74875750164174,-0.920549694691793,6.86525041261782
1.07919406890869,-0.503407792454102,0.43812066713442,-1.75030817608022,-0.920537773762838,6.86205369630922
1.07919406890869,-0.503372029667236,0.460699860249655,-1.75522484401845,-0.920525852833883,6.85485679308047
1.07922983169556,-0.5033233922771,0.472159210835592,-1.75846209148549,-0.920561615620748,6.8513653914081
1.07924175262451,-0.503300027256348,0.500767532979147,-1.76843037227773,-0.920525852833883,6.84327966371645
1.07925415039062,-0.503335790043213,0.51813775697817,-1.77606215099477,-0.920501534138815,6.839004341756
1.07928991317749,-0.503288106327393,0.535453621541158,-1.7845417461791,-0.920501534138815,6.83468991914858
1.07927799224854,-0.503155545597412,0.558134857808248,-1.79736723522329,-0.920513931904928,6.82941037813296
1.07926607131958,-0.502780751591065,0.6158073584186,-1.83703913311147,-0.920561615620748,6.81599408784975
1.07939863204956,-0.501147584324219,0.666128937398092,-1.87795271495962,-0.92048961320986,6.79937440553774
1.07941007614136,-0.500462369327881,0.67675763765444,-1.88726915935659,-0.920501534138815,6.79430133501162
1.07954263687134,-0.496329621677734,0.717428986226217,-1.92529739956045,-0.920380894337789,6.77069312730898
1.07973718643188,-0.493295983677246,0.736035172139303,-1.94401325801992,-0.920040432606832,6.756231609975
1.0798454284668,-0.491597966556885,0.745064560567037,-1.95303310970449,-0.919770542775289,6.7486575285541
1.08008718490601,-0.488710240726807,0.758065048848287,-1.96600069622182,-0.919314209614889,6.73710233369936
1.08032703399658,-0.486653642063477,0.766422096882955,-1.97390904049062,-0.919041458760397,6.7290771643268
1.08057069778442,-0.484545068149902,0.774662796651022,-1.98135151485586,-0.91884166399111,6.72115308443178
1.08179616928101,-0.47932322443042,0.789887253438131,-1.99540009121084,-0.918737236653463,6.70629674593081
1.08524179458618,-0.470586137180664,0.806399170552389,-2.00921454052114,-0.918652836476461,6.68886739412417
1.0860743522644,-0.468658284550049,0.809369866047994,-2.01153578380727,-0.918640915547506,6.68580896059145
1.0901894569397,-0.460121945743897,0.819746796284811,-2.01921047786855,-0.918604675923483,6.67481834093203
1.09258651733398,-0.455329255466797,0.824067894612448,-2.02201571087026,-0.918605152760641,6.66974050203432
1.09512662887573,-0.450201348667481,0.827740494404928,-2.02459396938466,-0.918605152760641,6.66527301469912
1.10064077377319,-0.438505963688232,0.832548920308248,-2.02682890514516,-0.918605152760641,6.65772754350771
1.10522413253784,-0.428808526401856,0.834070984517233,-2.02674069027089,-0.918617073689596,6.65318519273867
1.11040163040161,-0.417514638309815,0.833504501973287,-2.02677692989492,-0.918629471455709,6.64829570451845
1.11424684524536,-0.409620122318604,0.833296600972311,-2.02681460003042,-0.918641392384664,6.64472514787783
1.11841869354248,-0.401575402622559,0.833370987568991,-2.02680124858999,-0.918629471455709,6.64059383073916
1.12719058990479,-0.384862260227539,0.833273712788717,-2.02690996746206,-0.918629471455709,6.63112813631167
1.13165283203125,-0.376286343937256,0.833309952412741,-2.02688517192983,-0.918665234242575,6.62608081499209
1.13601398468018,-0.367686585789063,0.833309952412741,-2.0269209347167,-0.918629471455709,6.62081700960268
1.14705610275269,-0.346600369816162,0.833189789448873,-2.02699341396474,-0.918629471455709,6.60648566881289
1.15151643753052,-0.338288144474365,0.833189789448873,-2.02702965358877,-0.918629471455709,6.60043174425234
1.15829610824585,-0.326052979832031,0.833141152058737,-2.02710499385976,-0.918628994618551,6.59161311784853
1.16273069381714,-0.318060235386231,0.833130661641256,-2.02725185970449,-0.918641392384664,6.58576900163759
1.1648097038269,-0.314107255344727,0.833118263875143,-2.02739729503774,-0.918628994618551,6.58282167116274
1.17123079299927,-0.302688435917236,0.833106819783346,-2.02796377758169,-0.918641392384664,6.57350761095156
1.18637609481812,-0.277088479404785,0.833119217549459,-2.03107990841054,-0.918653313313619,6.55041438737978
1.19520044326782,-0.263206319218018,0.833106819783346,-2.03443970302724,-0.918653313313619,6.53608590761294
1.19736528396606,-0.259860829716065,0.833130661641256,-2.03538145641469,-0.918629471455709,6.53254539171328
1.20384883880615,-0.250150517826416,0.833119217549459,-2.03813709835195,-0.918665234242575,6.52168351808657
1.21266555786133,-0.237885789280273,0.83316690126528,-2.04182400325918,-0.918641392384664,6.50578147569765
1.21713829040527,-0.232156590824463,0.833155457173483,-2.04400457958364,-0.918665234242575,6.49754029909243
1.22598505020142,-0.221247510319092,0.83316690126528,-2.04824986080312,-0.91867715517153,6.48067123094668
1.24081754684448,-0.204686002140381,0.8332145849811,-2.0550290546813,-0.918653313313619,6.45130187669863
1.26004219055176,-0.187452153568604,0.83332330385317,-2.05829968074941,-0.918641392384664,6.42080670992006
1.30134248733521,-0.162177876835205,0.83332330385317,-2.05829968074941,-0.918713871632711,6.40727168718447
1.33573865890503,-0.149579839115479,0.833393875752584,-2.05840792278432,-0.918785397206442,6.40718681017031
1.34800100326538,-0.146341637974121,0.833370987568991,-2.05852856258535,-0.918785397206442,6.40682965913881
1.35701656341553,-0.144315556888916,0.833455864583151,-2.05850376705312,-0.918785397206442,6.40600234666933
1.38674974441528,-0.139776543979981,0.833616081868307,-2.05885042766714,-0.918736759816305,6.39480096498598
1.39518117904663,-0.139162854557373,0.833597962056295,-2.05887426952505,-0.918700520192282,6.38873511949648
1.4219069480896,-0.137803868656494,0.833622757588522,-2.06033005336904,-0.918495003377096,6.36756068864931
1.42683601379395,-0.137563065891602,0.833586517964498,-2.06094135860586,-0.918421570454733,6.36437350908388
1.44177865982056,-0.136944608097412,0.833575073872701,-2.06375898937368,-0.917507950459616,6.35781127611269
1.44667291641235,-0.136398152714111,0.833575073872701,-2.06585659603261,-0.916773144398825,6.35734874406923
1.44906759262085,-0.136071519260742,0.833550278340475,-2.06709446529531,-0.916097942982809,6.3573640028583
1.45375871658325,-0.135387257938721,0.833575073872701,-2.06981100658559,-0.914101425801412,6.35738832155337
1.46332216262817,-0.133791760807373,0.833622757588522,-2.07607235530996,-0.908815685902731,6.35735208192934
1.46576261520386,-0.133241490726807,0.833573166524069,-2.07779898265981,-0.907303635274069,6.35734016100039
1.47056293487549,-0.132152394657471,0.833647553120748,-2.08165850261831,-0.903792206441061,6.3573640028583
1.47534561157227,-0.130928830509522,0.833634201680319,-2.08580793956899,-0.899550739918844,6.35738832155337
1.50415897369385,-0.119837121372559,0.833597962056295,-2.11662115673208,-0.859504524861471,6.35730439821352
1.51277875900269,-0.116115884189941,0.833549324666158,-2.12829460720205,-0.850069824849264,6.35728007951845
1.53001880645752,-0.109407262211182,0.833526436482565,-2.15395369152212,-0.844781700764791,6.35725576082339
1.53441047668457,-0.108122186069824,0.833624664937155,-2.15963520626211,-0.84480601945986,6.3572681585895
1.55803346633911,-0.103589848881104,0.833730522786276,-2.17916168789052,-0.844709221516744,6.35722047487368
1.56867933273315,-0.103573159580566,0.833621803914205,-2.18001618007802,-0.84446365038027,6.35722047487368
1.57471704483032,-0.103549317722656,0.833645645772116,-2.17996801952505,-0.844086472188131,6.35722047487368
1.58433294296265,-0.103585080509522,0.833634201680319,-2.17995609859609,-0.842825714741842,6.35722047487368
1.59192180633545,-0.103585080509522,0.833609406148092,-2.18000378231191,-0.84156829515566,6.3572567144977
1.59746694564819,-0.103585080509522,0.833622757588522,-2.18001570324087,-0.839887444172994,6.3572567144977
1.61722612380981,-0.103608922367432,0.833586517964498,-2.18001618007802,-0.815723721181051,6.3572567144977
1.62038564682007,-0.103645161991455,0.833586517964498,-2.18001618007802,-0.809986416493551,6.35730439821352
1.62509822845459,-0.103669003849365,0.833550278340475,-2.18005241970205,-0.801347557698385,6.35726863542666
1.6396861076355,-0.103729085331299,0.833430115376608,-2.18035616497182,-0.77751332918276,6.35728055635561
1.64107847213745,-0.103704766636231,0.833430115376608,-2.18047918895864,-0.775906387959616,6.35730439821352
1.64929628372192,-0.103753880863525,0.833415810261862,-2.18329109768056,-0.769626919423239,6.35734016100039
1.65351486206055,-0.103839711552002,0.833128754292623,-2.18534626583242,-0.76792031923403,6.35737640062441
1.65910768508911,-0.103968934421875,0.833046738301412,-2.18960489849233,-0.767342869435446,6.3574016729938
1.66175270080566,-0.10395701349292,0.833071533833639,-2.19277443508291,-0.767295662556783,6.35757428804506
1.66303300857544,-0.103968457584717,0.833071533833639,-2.19435276607656,-0.767271820698873,6.35764629045595
1.66775465011597,-0.103956536655762,0.833094422017233,-2.20144571880483,-0.767259899769918,6.35817462602724
1.66995525360107,-0.103992776279785,0.833035294209616,-2.20522179226064,-0.767247502003805,6.3585470358478
1.67310667037964,-0.104016618137695,0.833046738301412,-2.2111865482726,-0.767076794301168,6.35908300081362
1.67725229263306,-0.10404189050708,0.833010498677389,-2.21892227749013,-0.766709629689352,6.35970288911928
1.67935609817505,-0.1040895742229,0.832987610493795,-2.22266974071645,-0.766248528157369,6.35990411440005
1.68157148361206,-0.104173497562744,0.833046738301412,-2.22625412563466,-0.765689198170797,6.36010629335512
1.68579769134521,-0.104207829838135,0.833010498677389,-2.23286881069326,-0.763482872639791,6.36074954668154
1.68786668777466,-0.104231671696045,0.833010498677389,-2.23566403011464,-0.761327091847555,6.36149293581118
1.68983364105225,-0.104293660526611,0.832999054585592,-2.23802866558217,-0.758758846913473,6.36268073717226
1.69257402420044,-0.104329900150635,0.832987610493795,-2.24103130916738,-0.753985230122701,6.36518603960146
1.69340944290161,-0.104376630192139,0.832987610493795,-2.24193157772207,-0.752180878316061,6.36631852785219
1.6967568397522,-0.104569272404053,0.832794968281881,-2.24412312130117,-0.744417969380514,6.37235480943789
1.6989312171936,-0.104714230900147,0.832697693501608,-2.24514784435415,-0.738488499318258,6.37772733369936
1.70042848587036,-0.104832486515381,0.832623306904928,-2.24524511913442,-0.734896485005514,6.381813351308
1.70305585861206,-0.104903058414795,0.832432572041647,-2.24525656322622,-0.7288444677936,6.39117652574648
1.70446252822876,-0.10491497934375,0.832375351582662,-2.24532808879995,-0.72651702562441,6.39596492448916
1.70507192611694,-0.10496266305957,0.832325760518209,-2.24536575893545,-0.725771252308981,6.39829379716982
1.70633745193481,-0.105000333195068,0.832279030476705,-2.24537624935293,-0.725138966237203,6.40236407915224
1.70835065841675,-0.105022744541504,0.832146469746725,-2.24544825176381,-0.725170914326803,6.40721208253969
1.71327877044678,-0.10519106805835,0.831967178975241,-2.24562897304677,-0.725207630787985,6.41621810594668
1.71438121795654,-0.105240659122803,0.83191949525942,-2.24568857769155,-0.725231472645895,6.41801292101015
1.71963167190552,-0.105754689579346,0.831692520772116,-2.24608721355581,-0.725351635609762,6.42653495470156
1.72001123428345,-0.105814294224121,0.831680123006002,-2.24618496517324,-0.72537595430483,6.42670041719546
1.72154188156128,-0.105884866123535,0.831681076680319,-2.2483769855895,-0.725425545369283,6.42751199403872
1.72288656234741,-0.105872468357422,0.831656281148092,-2.25454392055654,-0.725519959126608,6.4277437368976
1.72284936904907,-0.1059206289104,0.831692520772116,-2.25662483791494,-0.725531880055563,6.42773181596865
1.72284936904907,-0.105872468357422,0.831656281148092,-2.25869526485586,-0.725520435963766,6.42775565782656
1.72281312942505,-0.105848626499512,0.831728760396139,-2.26176037410879,-0.725543800984518,6.42776757875551
1.72278833389282,-0.105848626499512,0.831740204487936,-2.26338781932973,-0.725580040608541,6.42775565782656
1.72277688980103,-0.105872468357422,0.831717316304342,-2.26442494014882,-0.725555721913473,6.42773181596865
1.72277688980103,-0.105800942783691,0.831765000020162,-2.26499714473867,-0.725579563771383,6.42776757875551
1.72269201278687,-0.105800942783691,0.831801239644186,-2.26496090511464,-0.725567642842428,6.42773181596865
1.72266817092896,-0.105788545017578,0.831812683735983,-2.26493658641958,-0.725543800984518,6.42771989503969
1.72263288497925,-0.105764703159668,0.831812683735983,-2.26492466549062,-0.725555721913473,6.4277437368976
1.72263288497925,-0.105776624088623,0.831848923360006,-2.26496090511464,-0.725567642842428,6.4277437368976
1.7225604057312,-0.105764703159668,0.832094971333639,-2.26492466549062,-0.725579563771383,6.42773133913149
1.72250032424927,-0.105728940372803,0.832173172627584,-2.26488890270376,-0.725567642842428,6.42768365541567
1.72245264053345,-0.105640248661377,0.832268540059225,-2.26482882122182,-0.725531880055563,6.42773133913149
1.72240495681763,-0.10551197946582,0.832316223775045,-2.26486506084585,-0.725579563771383,6.4276593367206
1.72241640090942,-0.105440930729248,0.832526032124655,-2.26479305843496,-0.725567642842428,6.42767125764956
1.72242879867554,-0.105356530552246,0.832691971455709,-2.26472057918691,-0.725543800984518,6.42769557634463
1.72240495681763,-0.105308369999268,0.832785431538717,-2.26470865825796,-0.725603405629293,6.42763597169985
1.72240495681763,-0.105201081638672,0.832916084920065,-2.26452889064931,-0.725543800984518,6.42770749727358
1.72238111495972,-0.105165318851807,0.832965675984518,-2.26448120693349,-0.725579563771383,6.42768365541567
1.7223687171936,-0.105141000156738,0.833048645650045,-2.26442160228872,-0.725579563771383,6.42767125764956
1.72235727310181,-0.105093793278076,0.833107773457662,-2.26443400005483,-0.725579563771383,6.42768365541567
1.72234487533569,-0.105081395511963,0.833107773457662,-2.26439823726797,-0.725603882466451,6.42768365541567
1.72241640090942,-0.105093793278076,0.833095375691549,-2.26443400005483,-0.725579563771383,6.42768365541567
1.72234487533569,-0.105045632725098,0.833143059407369,-2.26438679317617,-0.725615803395407,6.4276593367206
1.72238111495972,-0.105057553654053,0.833131615315573,-2.26435055355214,-0.725615803395407,6.4276593367206
1.72240495681763,-0.105057553654053,0.833143059407369,-2.2643624744811,-0.725591961537496,6.4276593367206
1.72238111495972,-0.105082349186279,0.833142105733053,-2.2643510303893,-0.725603882466451,6.4276593367206
1.7223687171936,-0.105022267704346,0.833155457173483,-2.26431526760244,-0.725567642842428,6.4276478926288
1.72233247756958,-0.105046109562256,0.833178345357076,-2.26436295131826,-0.725615803395407,6.42768365541567
1.7223687171936,-0.105058030491211,0.833130661641256,-2.26432718853139,-0.725603882466451,6.42763597169985
1.72238111495972,-0.105034188633301,0.833142105733053,-2.26431526760244,-0.725591961537496,6.4276478926288
1.72239351272583,-0.105046109562256,0.83316690126528,-2.26431526760244,-0.725579563771383,6.42767125764956
1.72235727310181,-0.105034188633301,0.833142105733053,-2.26436295131826,-0.725567642842428,6.4276478926288
1.72238111495972,-0.105058030491211,0.833178345357076,-2.26432718853139,-0.725579563771383,6.42768365541567
1.72240495681763,-0.105034188633301,0.833119217549459,-2.26433910946035,-0.725603405629293,6.4276478926288
1.72241640090942,-0.105082349186279,0.833155457173483,-2.26432718853139,-0.725603405629293,6.42763597169985
1.72239351272583,-0.105069951420166,0.833094422017233,-2.26436295131826,-0.725579563771383,6.42761212984194
1.72239351272583,-0.105058030491211,0.833142105733053,-2.26436295131826,-0.725567642842428,6.42759973207583
1.72240495681763,-0.105058030491211,0.833130661641256,-2.26432718853139,-0.725579563771383,6.42761212984194
1.7223687171936,-0.105022267704346,0.833130661641256,-2.26433910946035,-0.725567642842428,6.42763597169985
1.72238111495972,-0.105022267704346,0.833142105733053,-2.26432718853139,-0.725579563771383,6.4276478926288
1.72240495681763,-0.105069951420166,0.833142105733053,-2.26437487224721,-0.725567642842428,6.42767125764956
1.7223687171936,-0.104998425846436,0.833155457173483,-2.26430286983632,-0.725591961537496,6.42763597169985
1.7223687171936,-0.105046109562256,0.833178345357076,-2.26431526760244,-0.725579563771383,6.4276478926288
1.72239351272583,-0.105022267704346,0.833119217549459,-2.26429094890737,-0.725579563771383,6.42763597169985
1.72239351272583,-0.105069951420166,0.833178345357076,-2.26431526760244,-0.725555721913473,6.42762357393374
1.72242879867554,-0.105022267704346,0.833155457173483,-2.26429142574453,-0.725543800984518,6.4276478926288
1.72239351272583,-0.105069951420166,0.83319074312319,-2.26430334667348,-0.725567642842428,6.42769557634463
1.72241640090942,-0.105022267704346,0.833155457173483,-2.26430334667348,-0.725579563771383,6.42768365541567
1.72240495681763,-0.105022267704346,0.83316690126528,-2.26430334667348,-0.725579563771383,6.4276478926288
1.72235727310181,-0.105046109562256,0.83316690126528,-2.26430334667348,-0.725579563771383,6.42765981355776
1.7223687171936,-0.105034188633301,0.833130661641256,-2.26429142574453,-0.725579563771383,6.42765981355776
1.72238111495972,-0.105034188633301,0.833130661641256,-2.26431526760244,-0.725567642842428,6.42767125764956
1.72241640090942,-0.105022267704346,0.83316690126528,-2.26430334667348,-0.725567642842428,6.42765981355776
1.72241640090942,-0.105034188633301,0.833130661641256,-2.26430334667348,-0.725555721913473,6.4276478926288
1.72238111495972,-0.105034188633301,0.833094422017233,-2.26431526760244,-0.725543800984518,6.42761212984194
1.72239351272583,-0.105034188633301,0.833130661641256,-2.2643510303893,-0.72554332414736,6.42761212984194
1.72241640090942,-0.105034188633301,0.833106819783346,-2.26430334667348,-0.725567642842428,6.42762357393374
1.7223687171936,-0.105010346775391,0.833130661641256,-2.2643510303893,-0.725555721913473,6.42768365541567
1.7223687171936,-0.105069951420166,0.833130661641256,-2.2643510303893,-0.725567642842428,6.42761212984194
1.72241640090942,-0.105058030491211,0.833106819783346,-2.26432718853139,-0.725555721913473,6.42765981355776
1.72239351272583,-0.105058030491211,0.833130661641256,-2.2643510303893,-0.725507561360494,6.42765981355776
1.72242879867554,-0.105058030491211,0.833094422017233,-2.26432718853139,-0.72551948228945,6.42763597169985
1.72241640090942,-0.105069951420166,0.833094422017233,-2.2643510303893,-0.725531403218405,6.42762357393374
1.72244119644165,-0.105082349186279,0.833119217549459,-2.26438679317617,-0.725531403218405,6.42762357393374
1.72241640090942,-0.105034188633301,0.833082977925436,-2.26433910946035,-0.72551948228945,6.42763597169985
1.72239351272583,-0.10510619104419,0.833094422017233,-2.2643510303893,-0.725567642842428,6.42763597169985
1.72241640090942,-0.105094270115234,0.833119217549459,-2.26436295131826,-0.725531880055563,6.42763597169985
1.72241640090942,-0.105046109562256,0.833106819783346,-2.2643510303893,-0.725507561360494,6.42763597169985
1.72238111495972,-0.105069951420166,0.833094422017233,-2.2643510303893,-0.72551948228945,6.42765981355776
1.72238111495972,-0.105082349186279,0.833082977925436,-2.26436295131826,-0.725531880055563,6.42759973207583
1.7223687171936,-0.105046109562256,0.833071533833639,-2.2643510303893,-0.725495640431539,6.42761212984194
1.72239351272583,-0.105046109562256,0.833094422017233,-2.2643510303893,-0.72551948228945,6.42763597169985
1.7223687171936,-0.105082349186279,0.833094422017233,-2.2643510303893,-0.725495640431539,6.42762357393374
1.72240495681763,-0.105069951420166,0.833082977925436,-2.26438679317617,-0.725483719502584,6.42759973207583
1.72241640090942,-0.105082349186279,0.833106819783346,-2.26432718853139,-0.725507561360494,6.42762357393374
1.72240495681763,-0.105118111973145,0.833119217549459,-2.26438679317617,-0.725507561360494,6.42763597169985
1.72238111495972,-0.105046109562256,0.833094422017233,-2.26436295131826,-0.725483719502584,6.42763597169985
1.72239351272583,-0.105046109562256,0.833106819783346,-2.26437487224721,-0.725531880055563,6.42759973207583
1.72241640090942,-0.105058030491211,0.833106819783346,-2.26437487224721,-0.725519959126608,6.4276478926288
1.72239351272583,-0.10510619104419,0.83316690126528,-2.26436295131826,-0.725543800984518,6.42761212984194
1.72241640090942,-0.105058030491211,0.833119217549459,-2.26432718853139,-0.725519959126608,6.4276478926288
1.72239351272583,-0.105094270115234,0.833130661641256,-2.26433910946035,-0.725496117268698,6.42763597169985
1.72239351272583,-0.105094270115234,0.833130661641256,-2.26437487224721,-0.725555721913473,6.42763597169985
1.72241640090942,-0.105069951420166,0.833119217549459,-2.2643510303893,-0.725531880055563,6.42765981355776
1.7223687171936,-0.105082349186279,0.833106819783346,-2.26432718853139,-0.725543800984518,6.4276478926288
1.72241640090942,-0.105094270115234,0.833130661641256,-2.2643510303893,-0.725567642842428,6.42762357393374
1.72242879867554,-0.105046109562256,0.833094422017233,-2.26436295131826,-0.725555721913473,6.4276478926288
1.72240495681763,-0.105058030491211,0.833130661641256,-2.2643510303893,-0.725519959126608,6.42762357393374
1.72242879867554,-0.105046109562256,0.833130661641256,-2.26433910946035,-0.725543800984518,6.4276478926288
1.72239351272583,-0.105069951420166,0.833130661641256,-2.26433910946035,-0.725555721913473,6.42762357393374
1.72239351272583,-0.105058030491211,0.833130661641256,-2.2643510303893,-0.725543800984518,6.42765981355776
1.72240495681763,-0.10510619104419,0.833094422017233,-2.26437487224721,-0.725555721913473,6.42767125764956
1.72240495681763,-0.105069951420166,0.833119217549459,-2.26433910946035,-0.725543800984518,6.42762357393374
1.72240495681763,-0.10510619104419,0.833119217549459,-2.26436295131826,-0.725531880055563,6.42761212984194
1.72241640090942,-0.105069951420166,0.833130661641256,-2.2643510303893,-0.72551948228945,6.42761212984194
1.72241640090942,-0.105034188633301,0.833106819783346,-2.26432718853139,-0.725555721913473,6.42762357393374
1.72239351272583,-0.105058030491211,0.833142105733053,-2.26436295131826,-0.72551948228945,6.42763597169985
1.72241640090942,-0.105034188633301,0.833130661641256,-2.26432718853139,-0.725543800984518,6.42765981355776
1.72240495681763,-0.10510619104419,0.833094422017233,-2.26436295131826,-0.72551948228945,6.42767125764956
1.72241640090942,-0.105069951420166,0.833094422017233,-2.2643510303893,-0.72551948228945,6.4276478926288
1.72238111495972,-0.105082349186279,0.833106819783346,-2.26433910946035,-0.725543800984518,6.42763597169985
1.72241640090942,-0.105058030491211,0.833094422017233,-2.26431526760244,-0.725507561360494,6.42763597169985
1.72241640090942,-0.105034188633301,0.833106819783346,-2.26432718853139,-0.72551948228945,6.4276478926288
1.72238111495972,-0.105082349186279,0.833130661641256,-2.2643510303893,-0.725531880055563,6.42763597169985
1.72240495681763,-0.105046109562256,0.83316690126528,-2.2643510303893,-0.725531880055563,6.42765981355776
1.72240495681763,-0.105046109562256,0.833155457173483,-2.26429142574453,-0.725555721913473,6.42761212984194
1.72241640090942,-0.105046109562256,0.833142105733053,-2.26432718853139,-0.725567642842428,6.4276478926288
1.72240495681763,-0.105022267704346,0.833178345357076,-2.26432718853139,-0.725555721913473,6.42762357393374
1.72241640090942,-0.105069951420166,0.833142105733053,-2.26437487224721,-0.725555721913473,6.42767125764956
1.72238111495972,-0.105046109562256,0.833142105733053,-2.26433910946035,-0.725543800984518,6.4276478926288
1.7223687171936,-0.105058030491211,0.833119217549459,-2.2643510303893,-0.72551948228945,6.4276478926288
1.72240495681763,-0.105046109562256,0.833130661641256,-2.2643510303893,-0.725543800984518,6.4276478926288
1.72240495681763,-0.105022267704346,0.833130661641256,-2.26432718853139,-0.725531880055563,6.42761212984194
1.72240495681763,-0.105034188633301,0.833130661641256,-2.26436295131826,-0.725543800984518,6.4276478926288
1.72240495681763,-0.105069951420166,0.833142105733053,-2.26436295131826,-0.725531880055563,6.42762357393374
1.72239351272583,-0.105022267704346,0.833130661641256,-2.26432718853139,-0.72551948228945,6.42762357393374
1.72240495681763,-0.105082349186279,0.833119217549459,-2.26432718853139,-0.725531880055563,6.42765981355776
1.72239351272583,-0.105034188633301,0.833178345357076,-2.26433910946035,-0.725543800984518,6.42762357393374
1.72241640090942,-0.105069951420166,0.833119217549459,-2.26430334667348,-0.725531880055563,6.4276478926288
1.72239351272583,-0.105058030491211,0.833142105733053,-2.26433910946035,-0.725531880055563,6.42763597169985
1.72239351272583,-0.105022267704346,0.833094422017233,-2.2643510303893,-0.72551948228945,6.42765981355776
1.72239351272583,-0.10510619104419,0.833106819783346,-2.26432718853139,-0.725531880055563,6.42759973207583
1.72238111495972,-0.105046109562256,0.833106819783346,-2.26431526760244,-0.725555721913473,6.42765981355776
1.72241640090942,-0.105082349186279,0.833119217549459,-2.26432718853139,-0.725543800984518,6.42765981355776
1.72239351272583,-0.105034188633301,0.833155457173483,-2.2643510303893,-0.725567642842428,6.42761212984194
1.72240495681763,-0.105082349186279,0.833155457173483,-2.26432718853139,-0.725531880055563,6.42763597169985
1.72238111495972,-0.105058030491211,0.833106819783346,-2.26433910946035,-0.72551948228945,6.4276478926288
1.72238111495972,-0.105034188633301,0.833119217549459,-2.26432718853139,-0.725531880055563,6.42765981355776
1.72238111495972,-0.105046109562256,0.833142105733053,-2.26437487224721,-0.725543800984518,6.42759973207583
1.72235727310181,-0.105046109562256,0.833130661641256,-2.26439919094228,-0.725531880055563,6.42763597169985
1.72240495681763,-0.105010346775391,0.833142105733053,-2.2643510303893,-0.72551948228945,6.4276478926288
1.72241640090942,-0.105046109562256,0.833130661641256,-2.26438679317617,-0.725531880055563,6.42762357393374
1.72241640090942,-0.105058030491211,0.833119217549459,-2.2643510303893,-0.725531880055563,6.42761212984194
1.7223687171936,-0.105046109562256,0.833130661641256,-2.26433910946035,-0.72551948228945,6.42762357393374
1.72240495681763,-0.105022267704346,0.833130661641256,-2.26437487224721,-0.725507561360494,6.42761212984194
1.72240495681763,-0.105069951420166,0.833130661641256,-2.2643510303893,-0.725555721913473,6.42761212984194
1.7223687171936,-0.105034188633301,0.833155457173483,-2.26436295131826,-0.725531880055563,6.4276478926288
1.72242879867554,-0.105034188633301,0.833178345357076,-2.2643510303893,-0.725567642842428,6.4276478926288
1.72241640090942,-0.105022267704346,0.833082977925436,-2.26437487224721,-0.725567642842428,6.4276478926288
1.72238111495972,-0.105022267704346,0.833130661641256,-2.2643510303893,-0.725543800984518,6.42762357393374
1.7223687171936,-0.105034188633301,0.833119217549459,-2.26432718853139,-0.725531880055563,6.4276478926288
1.72240495681763,-0.105058030491211,0.833155457173483,-2.26433910946035,-0.725531880055563,6.42763597169985
1.72241640090942,-0.105069951420166,0.833119217549459,-2.26437487224721,-0.725531880055563,6.42762357393374
1.72241640090942,-0.105046109562256,0.83316690126528,-2.26437487224721,-0.725543800984518,6.42762357393374
1.72238111495972,-0.105034188633301,0.833155457173483,-2.26433910946035,-0.725543800984518,6.4276478926288
1.72235727310181,-0.105034188633301,0.833142105733053,-2.26433910946035,-0.725555721913473,6.42763597169985
1.72238111495972,-0.105058030491211,0.833106819783346,-2.2643510303893,-0.725567642842428,6.42762357393374
1.72235727310181,-0.105046109562256,0.833155457173483,-2.2643510303893,-0.725543800984518,6.42763597169985
1.72239351272583,-0.105034188633301,0.833142105733053,-2.26436295131826,-0.725555721913473,6.42763597169985
1.7223687171936,-0.105034188633301,0.833142105733053,-2.2643510303893,-0.725543800984518,6.42765981355776
1.72235727310181,-0.105069951420166,0.833130661641256,-2.26433910946035,-0.725531880055563,6.42763597169985
1.72239351272583,-0.105034188633301,0.833130661641256,-2.26436295131826,-0.725579563771383,6.4276478926288
1.72241640090942,-0.105046109562256,0.833155457173483,-2.2643510303893,-0.725567642842428,6.42768365541567
1.72238111495972,-0.105046109562256,0.833119217549459,-2.26437487224721,-0.725531880055563,6.4276478926288
1.7223687171936,-0.105034188633301,0.833119217549459,-2.26432718853139,-0.725555721913473,6.4276478926288
1.72241640090942,-0.105069951420166,0.833130661641256,-2.2643510303893,-0.725531880055563,6.42761212984194
1.72239351272583,-0.105046109562256,0.833142105733053,-2.26430334667348,-0.725555721913473,6.42761212984194
1.72240495681763,-0.105082349186279,0.833130661641256,-2.26433910946035,-0.725543800984518,6.42762357393374
1.72241640090942,-0.105034188633301,0.833119217549459,-2.26433910946035,-0.725555721913473,6.42759973207583
1.7223687171936,-0.105046109562256,0.833130661641256,-2.2643510303893,-0.725543800984518,6.42762357393374
1.72240495681763,-0.105046109562256,0.833130661641256,-2.26432718853139,-0.72551948228945,6.4276478926288
1.72240495681763,-0.105058030491211,0.833130661641256,-2.26433910946035,-0.72551948228945,6.42761212984194
1.72241640090942,-0.105034188633301,0.833119217549459,-2.26433910946035,-0.725531880055563,6.4276478926288
1.72239351272583,-0.105094270115234,0.833119217549459,-2.26432718853139,-0.725531880055563,6.42763597169985
1.72238111495972,-0.105034188633301,0.833130661641256,-2.26436295131826,-0.725531880055563,6.42763597169985
1.72240495681763,-0.105058030491211,0.833130661641256,-2.26433910946035,-0.725507561360494,6.42767125764956
1.7223687171936,-0.105069951420166,0.833130661641256,-2.2643510303893,-0.725531880055563,6.42761212984194
1.72240495681763,-0.105058030491211,0.833142105733053,-2.26437487224721,-0.725483719502584,6.42763597169985
1.72240495681763,-0.105058030491211,0.833130661641256,-2.26432718853139,-0.725543800984518,6.4276478926288
1.72241640090942,-0.105046109562256,0.833155457173483,-2.26436295131826,-0.725531880055563,6.42763597169985
1.72239351272583,-0.105082349186279,0.833130661641256,-2.26436295131826,-0.725507561360494,6.4276478926288
1.72240495681763,-0.105034188633301,0.833130661641256,-2.2643510303893,-0.725555721913473,6.42761212984194
1.72241640090942,-0.105022267704346,0.833106819783346,-2.26432718853139,-0.725531880055563,6.42762357393374
