AdrianPrados/GaussianPathwiseLfD/ExpJointAdam/Water/AguaDerecha_2.csv
joint_0,joint_1,joint_2,joint_3,joint_4,joint_5
0.0319690704345703,-0.663038567905762,-0.261654853820801,-3.41665615657949,4.71103096008301,-2.25098926225771
0.0319690704345703,-0.663026646976807,-0.261643409729004,-3.41663231472158,4.71101951599121,-2.25096494356264
0.0319929122924805,-0.663086251621582,-0.261618614196777,-3.41665615657949,4.71103096008301,-2.25098926225771
0.0320172309875488,-0.663062409763672,-0.261595726013184,-3.4166799984374,4.71095943450928,-2.25101310411562
0.0319571495056152,-0.663062409763672,-0.261631965637207,-3.4166685543456,4.71098327636719,-2.25100070634951
0.0319452285766602,-0.663026646976807,-0.261643409729004,-3.41663231472158,4.7110071182251,-2.25100070634951
0.0319809913635254,-0.663074330692627,-0.261618614196777,-3.41665615657949,4.71103096008301,-2.25101310411562
0.0320048332214355,-0.663026646976807,-0.261618614196777,-3.41664423565053,4.7110071182251,-2.25096494356264
0.0320048332214355,-0.663062409763672,-0.261654853820801,-3.4166685543456,4.71101951599121,-2.2509768644916
0.0319571495056152,-0.663050488834717,-0.261631965637207,-3.41665615657949,4.7110071182251,-2.25096494356264
0.0320286750793457,-0.662990407352783,-0.261643409729004,-3.41663231472158,4.71103096008301,-2.25096494356264
0.0320286750793457,-0.663026646976807,-0.261643409729004,-3.41669239620351,4.71103096008301,-2.25095302263369
0.0319571495056152,-0.663026646976807,-0.261631965637207,-3.41664423565053,4.71099519729614,-2.2509768644916
0.0319690704345703,-0.663014726047852,-0.261618614196777,-3.41663231472158,4.71097135543823,-2.25098926225771
0.0319809913635254,-0.663074330692627,-0.261618614196777,-3.4166685543456,4.71103096008301,-2.25096494356264
0.0320286750793457,-0.663062409763672,-0.261643409729004,-3.4166799984374,4.71098327636719,-2.2509768644916
0.0319929122924805,-0.663074330692627,-0.261654853820801,-3.41665615657949,4.7110071182251,-2.25096494356264
0.0319209098815918,-0.663026646976807,-0.26166820526123,-3.41665615657949,4.71098327636719,-2.25101310411562
0.0319690704345703,-0.663074330692627,-0.261631965637207,-3.41665615657949,4.71099519729614,-2.2509768644916
0.0319929122924805,-0.663026646976807,-0.261631965637207,-3.41664423565053,4.71099519729614,-2.25102502504458
0.0319452285766602,-0.663026646976807,-0.261654853820801,-3.41665615657949,4.71098327636719,-2.25100070634951
0.0319929122924805,-0.663038567905762,-0.261631965637207,-3.4166685543456,4.71101951599121,-2.25100070634951
0.0319690704345703,-0.663026646976807,-0.261643409729004,-3.41664423565053,4.71098327636719,-2.25100070634951
0.0319690704345703,-0.663038567905762,-0.261631965637207,-3.4166685543456,4.71099519729614,-2.25098926225771
0.0319929122924805,-0.663014726047852,-0.261631965637207,-3.4166799984374,4.71098327636719,-2.25096494356264
0.0319452285766602,-0.663002328281738,-0.261618614196777,-3.4166799984374,4.71099519729614,-2.25100070634951
0.0319571495056152,-0.663050488834717,-0.261643409729004,-3.4166799984374,4.71099519729614,-2.25102502504458
0.0319809913635254,-0.663050488834717,-0.261654853820801,-3.41665615657949,4.71101951599121,-2.25098926225771
0.0319809913635254,-0.663026646976807,-0.26166820526123,-3.41665615657949,4.71101951599121,-2.25096494356264
0.0319929122924805,-0.663038567905762,-0.261618614196777,-3.41664423565053,4.71101951599121,-2.25098926225771
0.0319571495056152,-0.663050488834717,-0.261643409729004,-3.4166799984374,4.71104335784912,-2.25100070634951
0.0319690704345703,-0.663026646976807,-0.261631965637207,-3.41665615657949,4.71097135543823,-2.25103694597353
0.0319809913635254,-0.663062409763672,-0.261631965637207,-3.4166799984374,4.71097135543823,-2.25096494356264
0.0319690704345703,-0.663062409763672,-0.26166820526123,-3.41664423565053,4.71101951599121,-2.25098926225771
0.0319809913635254,-0.663026646976807,-0.261643409729004,-3.41669239620351,4.71099519729614,-2.25102502504458
0.0319929122924805,-0.663038567905762,-0.26166820526123,-3.4166685543456,4.71098327636719,-2.25096494356264
0.0319690704345703,-0.663014726047852,-0.261631965637207,-3.4166799984374,4.71099519729614,-2.2509768644916
0.0319929122924805,-0.663062409763672,-0.26166820526123,-3.4166685543456,4.71099519729614,-2.2509768644916
0.0319690704345703,-0.663026646976807,-0.261654853820801,-3.41669239620351,4.71103096008301,-2.25101310411562
0.0319452285766602,-0.663074330692627,-0.261654853820801,-3.41669239620351,4.71101951599121,-2.25101310411562
0.0319690704345703,-0.663026646976807,-0.261618614196777,-3.41663231472158,4.71101951599121,-2.2509768644916
0.0319571495056152,-0.663026646976807,-0.261631965637207,-3.41663231472158,4.71098327636719,-2.25098926225771
0.0319809913635254,-0.663050488834717,-0.26166820526123,-3.41663231472158,4.71101951599121,-2.25098926225771
0.0319333076477051,-0.663062409763672,-0.261654853820801,-3.41664423565053,4.71098327636719,-2.25096494356264
0.0320172309875488,-0.663026646976807,-0.261643409729004,-3.4166799984374,4.71101951599121,-2.2509768644916
0.0319929122924805,-0.663038567905762,-0.261643409729004,-3.41669239620351,4.71101951599121,-2.25102502504458
0.0319690704345703,-0.663014726047852,-0.261654853820801,-3.41663231472158,4.71098327636719,-2.25100070634951
0.0319809913635254,-0.663026646976807,-0.261679649353027,-3.4166685543456,4.71099519729614,-2.25098926225771
0.0319809913635254,-0.663026646976807,-0.261654853820801,-3.4166799984374,4.71101951599121,-2.25098926225771
0.0319690704345703,-0.663002328281738,-0.261618614196777,-3.41662039379262,4.7110071182251,-2.25096494356264
0.0319452285766602,-0.663074330692627,-0.261618614196777,-3.41664423565053,4.71097135543823,-2.25100070634951
0.0318722724914551,-0.662978486423828,-0.261547088623047,-3.41658463100576,4.71098327636719,-2.25098926225771
0.031836986541748,-0.662978486423828,-0.261548042297363,-3.41660847286367,4.71098327636719,-2.25100070634951
0.0318613052368164,-0.662978486423828,-0.261570930480957,-3.41659655193471,4.71097135543823,-2.25102502504458
0.0318007469177246,-0.662966565494873,-0.261523246765137,-3.41656078914785,4.71095943450928,-2.25098926225771
0.0316781997680664,-0.662930802708008,-0.261499404907227,-3.41654839138173,4.71092319488525,-2.25101310411562
0.0314240455627441,-0.66293032587085,-0.261425971984863,-3.41653647045278,4.71093559265137,-2.25098926225771
0.0311026573181152,-0.662819699650147,-0.261290550231934,-3.41650070766591,4.71089935302734,-2.25098926225771
0.0310802459716797,-0.662735299473145,-0.261255264282227,-3.4164883098998,4.71093559265137,-2.25098926225771
0.0310335159301758,-0.662674741154053,-0.261110305786133,-3.416476865808,4.71092319488525,-2.25096494356264
0.0309610366821289,-0.662519769077637,-0.26093864440918,-3.4164883098998,4.71092319488525,-2.25102502504458
0.0305976867675781,-0.662222222690918,-0.259612083435059,-3.41642822841787,4.7109112739563,-2.25104886690249
0.0304408073425293,-0.662247018223145,-0.259123802185059,-3.41647638897085,4.71089935302734,-2.2509768644916
0.0303196907043457,-0.6622589391521,-0.25855541229248,-3.41642870525503,4.71092319488525,-2.25101310411562
0.029853343963623,-0.662235574131348,-0.257254600524902,-3.41640438655996,4.71086311340332,-2.25102502504458
0.0202441215515137,-0.662259415989258,-0.244952201843262,-3.41639294246816,4.71080255508423,-2.25095302263369
0.0176472663879395,-0.662283257847168,-0.241509437561035,-3.41638054470205,4.71077108383179,-2.25104886690249
0.0161838531494141,-0.662271336918213,-0.239677429199219,-3.41644062618398,4.71055269241333,-2.25100070634951
0.0132288932800293,-0.662307576542236,-0.235678672790527,-3.41642870525503,4.71020555496216,-2.25101310411562
0.000773429870605469,-0.662259415989258,-0.220487594604492,-3.41639294246816,4.70885801315308,-2.2509768644916
-0.0104325453387659,-0.662259415989258,-0.209090232849121,-3.416392465631,4.70581912994385,-2.25098926225771
-0.0178464094745081,-0.662259415989258,-0.202055931091309,-3.41640438655996,4.70265102386475,-2.25095302263369
-0.0251701513873499,-0.662271336918213,-0.194506645202637,-3.41636862377309,4.69931411743164,-2.25100070634951
-0.0454400221454065,-0.662319497471191,-0.172629356384277,-3.41628326992177,4.68933248519897,-2.25092870393862
-0.0531533400165003,-0.662307576542236,-0.163399696350098,-3.41619839290761,4.68657207489014,-2.25094062486757
-0.0581029097186487,-0.662307576542236,-0.156950950622559,-3.41608967403554,4.6847186088562,-2.25094062486757
-0.0832408110248011,-0.662331418400147,-0.121360778808594,-3.41543354610586,4.67763376235962,-2.25065118471255
-0.088482681904928,-0.662379102115967,-0.113680839538574,-3.4149071178832,4.67561340332031,-2.25062829652895
-0.0992258230792444,-0.662355260258057,-0.0978498458862305,-3.41182865718984,4.66971158981323,-2.25049239793886
-0.114859406148092,-0.662343339329102,-0.0746469497680664,-3.40175118068838,4.65576314926147,-2.24903089204897
-0.117278877888815,-0.662331418400147,-0.0707435607910156,-3.39928307155752,4.65314483642578,-2.24822837511172
-0.119693581257955,-0.662367181187012,-0.0669164657592773,-3.39664473156118,4.65056943893433,-2.24701053300966
-0.12950832048525,-0.662367181187012,-0.0523691177368164,-3.38372435192251,4.63965034484863,-2.23979407945742
-0.134480778370992,-0.66239149988208,-0.0455179214477539,-3.37623753170156,4.63351440429688,-2.2345326582538
-0.14463979402651,-0.662343339329102,-0.0324850082397461,-3.3599435291686,4.62117624282837,-2.22189695039858
-0.147229973469869,-0.662331418400147,-0.0295333862304688,-3.35551323513173,4.61825561523438,-2.21839648882021
-0.155106846486227,-0.662343339329102,-0.0216054916381836,-3.34155859569692,4.60986232757568,-2.20701486269106
-0.160658661519186,-0.662367181187012,-0.0169782638549805,-3.33161654094839,4.60404968261719,-2.19876748720278
-0.163441960011617,-0.662343339329102,-0.0148954391479492,-3.32648243526601,4.60099506378174,-2.19459945360293
-0.207057301198141,-0.662355260258057,-0.00112819671630859,-3.25542273143911,4.5739574432373,-2.14203101793398
-0.213716808949606,-0.662319497471191,-0.00117683410644531,-3.24544396022939,4.5721697807312,-2.13674146333803
-0.22039252916445,-0.662355260258057,-0.00119972229003906,-3.23588862041616,4.57090282440186,-2.13224965730776
-0.257287327443258,-0.662343339329102,-0.00118732452392578,-3.18217768291616,4.56856775283813,-2.11273891130556
-0.260703865681783,-0.66239149988208,-0.00118732452392578,-3.17702545742177,4.56826019287109,-2.11086017290224
-0.271327320729391,-0.662343339329102,-0.00121116638183594,-3.16067089656972,4.56794023513794,-2.10447913805117
-0.310815159474508,-0.662319497471191,-0.00121116638183594,-3.09042753795766,4.56786966323853,-2.06803208986391
-0.31788951555361,-0.662355260258057,-0.00123500823974609,-3.07635750393056,4.56785774230957,-2.05904323259463
-0.361493412648336,-0.662343339329102,-0.00122356414794922,-2.99275936702871,4.56788158416748,-2.00127822557558
-0.368645493184225,-0.662355260258057,-0.00119876861572266,-2.97969641307973,4.56785774230957,-1.99245769182314
-0.390256230031149,-0.662331418400147,-0.00117588043212891,-2.94163574794912,4.56788158416748,-1.96920997301211
-0.423014942799703,-0.662319497471191,-0.00124645233154297,-2.89007010082387,4.56786966323853,-1.94090253511538
-0.461814228688375,-0.662343339329102,-0.00121116638183594,-2.8361603222289,4.56777286529541,-1.89362317720522
-0.468785111104147,-0.662319497471191,-0.00124645233154297,-2.82747044185781,4.56780958175659,-1.88245469728579
-0.475576225911276,-0.662355260258057,-0.00124645233154297,-2.81905998806142,4.56776189804077,-1.87049991289248
-0.482096974049703,-0.662367181187012,-0.00122356414794922,-2.81109728435659,4.56777381896973,-1.85777074495424
-0.516468826924459,-0.66239149988208,-0.00124645233154297,-2.77494778255605,4.56759452819824,-1.78297168413271
-0.525582138692037,-0.662331418400147,-0.00124645233154297,-2.76686730007314,4.56760597229004,-1.76253539720644
-0.564351383839742,-0.662343339329102,-0.00122356414794922,-2.7394544086852,4.56709861755371,-1.67770320573916
-0.573680226002828,-0.662355260258057,-0.00125980377197266,-2.73358549694204,4.56678628921509,-1.65819913545717
-0.598978344594137,-0.662319497471191,-0.00119876861572266,-2.71664490322256,4.56507205963135,-1.60670692125429
-0.608213726674215,-0.662367181187012,-0.00124645233154297,-2.70943560222768,4.564697265625,-1.58792049089541
-0.61763030687441,-0.662343339329102,-0.00119876861572266,-2.70176949123525,4.56460380554199,-1.56978875795473
-0.658493343983785,-0.662379102115967,-0.00119876861572266,-2.66383900264882,4.56452226638794,-1.50352079073061
-0.667421166096823,-0.662343339329102,-0.00124645233154297,-2.65390505413198,4.56454610824585,-1.49014121690859
-0.673420731221334,-0.662331418400147,-0.00127124786376953,-2.64676441768789,4.56454610824585,-1.48128396669497
-0.693769280110494,-0.662355260258057,-0.00123500823974609,-2.62058605770254,4.56454610824585,-1.44809133211245
-0.699349228535787,-0.662355260258057,-0.00123500823974609,-2.61313833812856,4.56454610824585,-1.43799335161318
-0.707656208668844,-0.662355260258057,-0.00127124786376953,-2.60208572963857,4.56453418731689,-1.42214376131167
-0.718640152608053,-0.662367181187012,-0.00125980377197266,-2.58796085933828,4.56453418731689,-1.39971524873842
-0.724103275929586,-0.662379102115967,-0.00127124786376953,-2.58120359996938,4.56447410583496,-1.3880389372455
-0.726744953786032,-0.662379102115967,-0.00130748748779297,-2.57801498989248,4.56448554992676,-1.38221532503237
-0.729387108479635,-0.662379102115967,-0.00129604339599609,-2.57492699245595,4.5644736289978,-1.37613898912539
-0.734776798878805,-0.662379102115967,-0.00130748748779297,-2.56904472927236,4.56446170806885,-1.36375552812685
-0.740301911030905,-0.662343339329102,-0.00127124786376953,-2.56361593822622,4.56442499160767,-1.35096484819521
-0.839978520070211,-0.662403420811035,-0.00159454345703125,-2.54354586223745,4.5019326210022,-1.15707523027529
-0.843260590230123,-0.662451104526856,-0.00158214569091797,-2.54354586223745,4.49669742584229,-1.15204269090761
-0.869574371968405,-0.662487820988037,-0.00172710418701172,-2.54354776958608,4.4427318572998,-1.11416370073427
-0.877272907887594,-0.662548856144287,-0.00181293487548828,-2.54358353237295,4.42334175109863,-1.10475999513735
-0.882039848958151,-0.662596539860107,-0.00188350677490234,-2.54353584865713,4.41005277633667,-1.09931737581362
-0.886383358632223,-0.662620381718018,-0.00194549560546875,-2.54357161144399,4.39694309234619,-1.09465057054629
-0.892410103474752,-0.662643269901611,-0.00209903717041016,-2.54353584865713,4.37757110595703,-1.08903772035708
-0.914331261311666,-0.662836388950684,-0.00213336944580078,-2.54353537181997,4.32265329360962,-1.08144647279848
-0.940311257039205,-0.665284947758057,-0.00226497650146484,-2.54199995617055,4.31641006469727,-1.05974322954287
-0.95096189180483,-0.668551759128906,-0.00237560272216797,-2.53982319454336,4.31639766693115,-1.0436752478229
-0.957192246113912,-0.671310262089111,-0.00237274169921875,-2.53841461757802,4.31648206710815,-1.03285915056338
-0.961328331624166,-0.673454121952393,-0.00227737426757812,-2.53742613414907,4.31651735305786,-1.02546817461123
-0.973220173512594,-0.681807832126953,-0.00228977203369141,-2.53262486080312,4.31660032272339,-1.00567609468569
-0.978622738515035,-0.687365369205811,-0.00231266021728516,-2.52804388622426,4.31663608551025,-0.99735671678652
-0.980364147816793,-0.689402417545654,-0.00228977203369141,-2.52609028438711,4.31665992736816,-0.994778935109274
-0.985459629689352,-0.695685223942139,-0.00232601165771484,-2.51905073742055,4.31665992736816,-0.988502804433004
-0.99819261232485,-0.71069701135669,-0.00228977203369141,-2.49756397823476,4.31677198410034,-0.980765167866842
-1.00369054475893,-0.717917756443359,-0.00227737426757812,-2.48573937038564,4.31715774536133,-0.980059448872701
-1.00729400316347,-0.722933606510498,-0.00225353240966797,-2.47708143810415,4.31738710403442,-0.980051342641012
-1.02095920244326,-0.743254498844482,-0.00222873687744141,-2.44028868297719,4.32178211212158,-0.979979340230123
-1.02601653734316,-0.751547650699951,-0.00225353240966797,-2.42676176647329,4.32619571685791,-0.979967419301168
-1.04192382494082,-0.775915459995606,-0.00220584869384766,-2.3932162723937,4.3505802154541,-0.979786698018209
-1.051894966756,-0.788974122410156,-0.00224208831787109,-2.37983049968862,4.37208795547485,-0.979716126118795
-1.05925876299013,-0.795782403354981,-0.00226497650146484,-2.37424578289174,4.3874249458313,-0.979704682026998
-1.06993896165957,-0.803941563968994,-0.00222873687744141,-2.37000050167226,4.41011238098145,-0.979716602955953
-1.08683139482607,-0.815424756412842,-0.00220584869384766,-2.36839451412343,4.4487156867981,-0.979716602955953
-1.09309894243349,-0.818749741916992,-0.00224208831787109,-2.36837067226552,4.46167993545532,-0.979716602955953
-1.09954768816103,-0.821750954990723,-0.00226497650146484,-2.36839451412343,4.47441577911377,-0.979716602955953
-1.14823180833925,-0.837812260990479,-0.00219345092773438,-2.36845459560537,4.54047107696533,-0.979716602955953
-1.15538245836367,-0.839790181522705,-0.00224208831787109,-2.36847891430044,4.54568481445312,-0.979752365742819
-1.16571265855898,-0.842992143040039,-0.00221729278564453,-2.36846699337148,4.55122423171997,-0.979788605366842
-1.1931508223163,-0.852969006901123,-0.00231361389160156,-2.36852707485341,4.55431318283081,-0.979728523884908
-1.2126296202289,-0.860719994907715,-0.00256633758544922,-2.36861099819326,4.55570793151855,-0.979740444813864
-1.22232371965517,-0.865115002994873,-0.00256538391113281,-2.3685990772643,4.56109285354614,-0.979716602955953
-1.22723991075625,-0.867869214420654,-0.00254154205322266,-2.36856283764028,4.56658220291138,-0.979716602955953
-1.23014718690981,-0.869828061466553,-0.00252914428710938,-2.36856283764028,4.57142114639282,-0.979728523884908
-1.24825221696963,-0.879640893345215,-0.00255298614501953,-2.36856283764028,4.60965728759766,-0.979740444813864
-1.25031596819033,-0.880381898289063,-0.00252914428710938,-2.36858715633535,4.61368274688721,-0.979728523884908
-1.25711757341494,-0.882475690250732,-0.00256443023681641,-2.36852707485341,4.6254415512085,-0.979740444813864
-1.28564769426455,-0.886629895572998,-0.00347614288330078,-2.3685990772643,4.6541576385498,-0.979716602955953
-1.29304963747133,-0.887562112217285,-0.00347614288330078,-2.36865915874624,4.65669870376587,-0.979728523884908
-1.30542499223818,-0.889429883365967,-0.00371551513671875,-2.36881556133413,4.65855884552002,-0.979716602955953
-1.31641370454897,-0.891918973331787,-0.00466442108154297,-2.36899532894277,4.66250801086426,-0.979692761098043
-1.31762916246523,-0.892360524540283,-0.00496768951416016,-2.36903156856679,4.66368198394775,-0.979728523884908
-1.32003146806826,-0.893163518314697,-0.00578022003173828,-2.36905588726186,4.66613578796387,-0.979692284260885
-1.32968837419619,-0.89945204675708,-0.00992488861083984,-2.3690554104247,4.68140506744385,-0.979560200368063
-1.33160287538637,-0.901200608616211,-0.0102691650390625,-2.36901917080068,4.68395280838013,-0.979559723530905
-1.34332210222353,-0.910874680881836,-0.0102920532226562,-2.36904348949575,4.68920373916626,-0.979524914418356
-1.35261518159975,-0.917323426609375,-0.0103521347045898,-2.36910357097768,4.69019508361816,-0.979549233113424
-1.35682422319521,-0.920412377720215,-0.0103044509887695,-2.36904348949575,4.69032573699951,-0.979537312184469
-1.36180001894106,-0.924749688511231,-0.0103521347045898,-2.36901917080068,4.69082403182983,-0.97946530977358
-1.36543637910952,-0.928049401645996,-0.0102920532226562,-2.3690554104247,4.69172668457031,-0.979500595723287
-1.36906034151186,-0.93159373224292,-0.0102920532226562,-2.36901917080068,4.69324016571045,-0.979392353688375
-1.37171250978579,-0.933958367710449,-0.0103044509887695,-2.36904348949575,4.69422912597656,-0.97934323946108
-1.37568599382509,-0.937691048984863,-0.0102682113647461,-2.36899532894277,4.695556640625,-0.979284588490621
-1.37974101701845,-0.941320256595947,-0.0103273391723633,-2.36907925228261,4.69752168655396,-0.979213539754049
-1.38780862489809,-0.947897748356201,-0.010279655456543,-2.36901917080068,4.70107460021973,-0.979165856038229
-1.39186126390566,-0.950559930210449,-0.0103158950805664,-2.36903156856679,4.70279788970947,-0.979142491017477
-1.39455825487246,-0.952227429752686,-0.0103044509887695,-2.3690554104247,4.70442056655884,-0.979118172322408
-1.39862472215761,-0.954528169041016,-0.0103158950805664,-2.36906733135366,4.70686769485474,-0.979142491017477
-1.40711003938784,-0.959616975193359,-0.0102663040161133,-2.36901917080068,4.71439027786255,-0.979130570088522
-1.40912896791567,-0.960977391605713,-0.0103292465209961,-2.36906733135366,4.717444896698,-0.979106251393453
-1.4110692183124,-0.96234209955249,-0.0102682113647461,-2.36903156856679,4.72098255157471,-0.979118649159567
-1.41881925264467,-0.968663052921631,-0.0103530883789062,-2.3690554104247,4.74887037277222,-0.979130093251364
-1.42010146776308,-0.969280080204346,-0.0101938247680664,-2.36900724987172,4.75279712677002,-0.979057614003317
-1.42219144502749,-0.969925717716553,-0.010319709777832,-2.36901917080068,4.75829839706421,-0.979020420704977
-1.43359786668886,-0.970208482151367,-0.0103158950805664,-2.36899532894277,4.76338005065918,-0.977286163960592
-1.43664724031557,-0.970197514896729,-0.0102920532226562,-2.36903156856679,4.763427734375,-0.9758246580707
-1.45049029985537,-0.970621899967529,-0.010645866394043,-2.36927523235464,4.76448059082031,-0.960702244435446
-1.45175868669619,-0.970750646000244,-0.0113286972045898,-2.36939205745839,4.76711273193359,-0.957013909016744
-1.45175487199892,-0.970726327305176,-0.011988639831543,-2.36940397838735,4.76818466186523,-0.955782238637106
-1.45176679292788,-0.970762090092041,-0.0128078460693359,-2.36942829708242,4.76990222930908,-0.952472988759176
-1.45174342790713,-0.970762090092041,-0.0131826400756836,-2.36944021801137,4.77035903930664,-0.95093280473818
-1.45179111162295,-0.970860795383789,-0.0132169723510742,-2.36944021801137,4.77065563201904,-0.950792614613668
-1.45179111162295,-0.970907525425293,-0.0132513046264648,-2.36946405986928,4.77087259292603,-0.950756851826803
-1.45176726976504,-0.97096665323291,-0.0132284164428711,-2.36943974117422,4.77239179611206,-0.950792614613668
-1.45177871385683,-0.970942811375,-0.0132646560668945,-2.36948790172719,4.77335166931152,-0.950684849415914
-1.45177871385683,-0.970930890446045,-0.0132761001586914,-2.36943974117422,4.77347993850708,-0.95072061220278
-1.45179111162295,-0.970942811375,-0.013239860534668,-2.36943974117422,4.77367877960205,-0.950696770344869
-1.45185119310488,-0.971027211552002,-0.013239860534668,-2.36946358303213,4.77459859848022,-0.950649086629049
-1.45176726976504,-0.971077279453613,-0.0132761001586914,-2.36945166210317,4.77544116973877,-0.950661007558004
-1.45184022585024,-0.973248319034912,-0.0133352279663086,-2.36947598079824,4.7764630317688,-0.950672928486959
-1.45186359087099,-0.973364667301514,-0.0133352279663086,-2.36947598079824,4.77643918991089,-0.950661007558004
-1.45189935365786,-0.973374204044678,-0.0133237838745117,-2.36947598079824,4.7764630317688,-0.950625244771139
-1.45194703737368,-0.973434285526611,-0.0133352279663086,-2.3695117435851,4.77647495269775,-0.950673405324117
-1.45187503496279,-0.973409966831543,-0.0132875442504883,-2.36947598079824,4.77645111083984,-0.950649086629049
-1.45187503496279,-0.973374204044678,-0.0132989883422852,-2.36946358303213,4.7764630317688,-0.950673405324117
-1.45187503496279,-0.973374204044678,-0.0132646560668945,-2.36949982265615,4.77648687362671,-0.950709168110983
-1.45177871385683,-0.973362283115723,-0.0132513046264648,-2.36948790172719,4.77643918991089,-0.950733009968893
-1.45081550279726,-0.973228768711426,-0.0130233764648438,-2.36949982265615,4.77657175064087,-0.950757328663961
-1.45028907457461,-0.973217324619629,-0.0129880905151367,-2.36952366451406,4.77664375305176,-0.951118771229879
-1.44882423082461,-0.973156289463379,-0.0129156112670898,-2.36953606228017,4.77692985534668,-0.951187912617819
-1.44691259065737,-0.973058537845947,-0.0128192901611328,-2.3695117435851,4.77694177627563,-0.95116359392275
-1.44609624544253,-0.973008469944336,-0.0128059387207031,-2.36952366451406,4.77690553665161,-0.951175991688864
-1.43387538591494,-0.971865968113281,-0.0110082626342773,-2.36946358303213,4.7768816947937,-0.95116359392275
-1.43172389665713,-0.971746281986572,-0.0105257034301758,-2.36947598079824,4.77694129943848,-0.951175514851705
-1.42672235170473,-0.971518353824951,-0.00704860687255859,-2.36947598079824,4.77690553665161,-0.95128566423525
-1.42673427263369,-0.971459702854492,-0.00672054290771484,-2.36943974117422,4.77684593200684,-0.951456848775045
-1.42671043077578,-0.971495942478516,-0.00653934478759766,-2.36949982265615,4.77686977386475,-0.951528374348776
-1.4267581144916,-0.971496419315674,-0.00596141815185547,-2.36946358303213,4.7768816947937,-0.951755825673239
-1.42658740678896,-0.971411065464356,-0.00406360626220703,-2.36947598079824,4.77689361572266,-0.952098194752828
-1.42646867433657,-0.971374349003174,-0.00381755828857422,-2.36946358303213,4.77689361572266,-0.952110115681783
-1.4263337294208,-0.971189813022949,-0.00368976593017578,-2.36945166210317,4.77689361572266,-0.952182118092672
-1.42533904710879,-0.970439271335938,-0.00371456146240234,-2.36948790172719,4.77689361572266,-0.952313248311178
-1.42418462434878,-0.969716386204102,-0.00375080108642578,-2.36948790172719,4.77686977386475,-0.952360932026998
-1.42103988329043,-0.967857198124268,-0.00350475311279297,-2.36945166210317,4.77690553665161,-0.952372376118795
-1.4186580816852,-0.966574029331543,-0.00348758697509766,-2.36952366451406,4.77689361572266,-0.95238429704775
-1.41734534898867,-0.965926007633545,-0.00338649749755859,-2.36947598079824,4.77691745758057,-0.952371899281637
-1.40951854387392,-0.962119416599609,-0.00218677520751953,-2.36945166210317,4.77684545516968,-0.952455822621481
-1.39094001451601,-0.9493363660625,-0.001678466796875,-2.36949982265615,4.77683353424072,-0.952492539082662
-1.38343555132021,-0.942987279301025,-0.00170230865478516,-2.36953606228017,4.77683353424072,-0.952710930501119
-1.37155753770937,-0.933073357944824,-0.00170230865478516,-2.36949982265615,4.7767858505249,-0.953094784413473
-1.35956222215761,-0.922813729648926,-0.00173854827880859,-2.36953606228017,4.77677345275879,-0.954500023518698
-1.35756761232485,-0.921053723697998,-0.00171375274658203,-2.36952366451406,4.77677345275879,-0.954807583485739
-1.35346490541567,-0.917408303623535,-0.00171375274658203,-2.36949982265615,4.77674961090088,-0.955210034047262
-1.32650500932802,-0.895515756016113,-0.00173854827880859,-2.36954798320913,4.77651071548462,-0.955206696187155
-1.30834705034365,-0.880448655491211,-0.00174999237060547,-2.36952366451406,4.77629327774048,-0.955230538045065
-1.29259521165957,-0.866704301243164,-0.00170135498046875,-2.36952366451406,4.77612733840942,-0.955254856740133
-1.28098470369448,-0.856536702518799,-0.00173854827880859,-2.36954798320913,4.7760157585144,-0.955231014882223
-1.27361184755434,-0.849812344913818,-0.00172710418701172,-2.36952366451406,4.77576541900635,-0.955254856740133
-1.26627904573549,-0.84262831628833,-0.00171375274658203,-2.36952366451406,4.77561092376709,-0.955278698598043
-1.2587893644916,-0.83506520212207,-0.00172519683837891,-2.36948790172719,4.77551698684692,-0.955314938222067
-1.25096828142275,-0.827440099125244,-0.00166606903076172,-2.36952366451406,4.77539539337158,-0.955326859151022
-1.24556094804873,-0.822117165928223,-0.00169086456298828,-2.36954798320913,4.77536010742188,-0.955338780079977
-1.23752004304995,-0.813723878269531,-0.00170230865478516,-2.36953606228017,4.7752537727356,-0.955410782490866
-1.23212987581362,-0.807879762058594,-0.00169086456298828,-2.3695117435851,4.77523040771484,-0.955399338399069
-1.22405559221377,-0.798836545353272,-0.00165367126464844,-2.36952366451406,4.77512168884277,-0.955545250569479
-1.19380551973452,-0.763443307285645,-0.00166606903076172,-2.36954798320913,4.77493190765381,-0.958523098622457
-1.17356425920595,-0.736207799320557,-0.00171375274658203,-2.36959614376211,4.77474069595337,-0.979796234761373
-1.16487294832339,-0.722737149601318,-0.00177478790283203,-2.3695723019042,4.77472877502441,-0.99877912202944
-1.1474817434894,-0.690159634952881,-0.00177478790283203,-2.36957182506704,4.77472877502441,-1.06399947801699
-1.13840562502016,-0.65115578592334,-0.00176239013671875,-2.36954798320913,4.77472877502441,-1.14896804491152
-1.1384657065021,-0.643055753116943,-0.00177478790283203,-2.36955990413808,4.77472877502441,-1.16412240663637
-1.13844138780703,-0.637850598697998,-0.00173854827880859,-2.36958374599599,4.7747049331665,-1.1731746832477
-1.1385009924518,-0.632590608005859,-0.00178623199462891,-2.36958374599599,4.77472877502441,-1.18130237260927
-1.13865691820254,-0.604731397037842,-0.00176239013671875,-2.36954798320913,4.7737889289856,-1.21500951448549
-1.13865691820254,-0.598831490879395,-0.00183391571044922,-2.36960806469106,4.77286243438721,-1.22169429460634
-1.13880187669863,-0.561309651737549,-0.00178623199462891,-2.36959614376211,4.75264406204224,-1.27327377000918
-1.13886338869204,-0.554797009830811,-0.00182247161865234,-2.36954798320913,4.74640560150146,-1.2834304014789
-1.13905650774111,-0.545152024631836,-0.00177478790283203,-2.36958374599599,4.73588228225708,-1.29873115221132
-1.13967448869814,-0.512723760013916,-0.00179767608642578,-2.36955990413808,4.68682336807251,-1.34351760545839
-1.13972264925112,-0.502988175754883,-0.00182247161865234,-2.36961998562002,4.66946268081665,-1.35195285478701
-1.13977033296694,-0.496507958774902,-0.00177383422851562,-2.36957182506704,4.65715789794922,-1.35603791872133
-1.1398060957538,-0.483923272495606,-0.00169849395751953,-2.36952366451406,4.63209629058838,-1.36093980470766
-1.13990146318545,-0.462420777683594,-0.00154209136962891,-2.36952366451406,4.58956480026245,-1.36207992235293
-1.13992578188051,-0.453939275150635,-0.000926017761230469,-2.36949934581899,4.57255220413208,-1.36215383211245
-1.14039737382998,-0.430340604191162,0.024935547505514,-2.3694273434081,4.51626777648926,-1.36581117311587
-1.14391595522036,-0.430757359867432,0.0850980917560022,-2.36941589931631,4.4966287612915,-1.39663154283632
-1.14753133455385,-0.430841283207275,0.118905846272604,-2.36943974117422,4.49595642089844,-1.42451030412783
-1.15154964128603,-0.430888966923096,0.152945343648092,-2.36947598079824,4.49593210220337,-1.45875865617861
-1.16153222719301,-0.430985288029053,0.219487015401022,-2.36947598079824,4.4958963394165,-1.53141194978823
-1.16260987917055,-0.430985288029053,0.225789848958151,-2.36947598079824,4.4958963394165,-1.53852111497988
-1.16614228883852,-0.431045369510986,0.244194809590475,-2.36952414135122,4.49584817886353,-1.5601170698749
-1.18214732805361,-0.431187943821289,0.298931900654928,-2.36975254635,4.49569034576416,-1.63159495988955
-1.18604070345034,-0.431276635532715,0.308334175740377,-2.36983933071279,4.49558258056641,-1.64601594606508
-1.18991023698916,-0.431407288914063,0.317259613667623,-2.36986078838491,4.49552345275879,-1.66055995622744
-1.19552070299257,-0.431537465458252,0.329525772725241,-2.36988510707998,4.49534225463867,-1.68260366121401
-1.21010762849917,-0.43165476739917,0.358198944722311,-2.36992039302968,4.49508237838745,-1.74188739458193
-1.21408111253847,-0.431619481449463,0.364766899739401,-2.36990847210073,4.49509477615356,-1.75630075136294
-1.22489005724062,-0.43165476739917,0.380701843892233,-2.36995663265371,4.49507093429565,-1.78952247301211
-1.24109012285341,-0.431642846470215,0.401751343403951,-2.36995663265371,4.4950590133667,-1.82496673265566
-1.24624377885927,-0.431702927952148,0.40760308900942,-2.36993231395864,4.4950590133667,-1.8322380224811
-1.26532155672182,-0.431752519016602,0.428643051777975,-2.36995663265371,4.49499702453613,-1.84639865556826
-1.28829127946963,-0.431944207554199,0.454272095357076,-2.36994423488759,4.49420022964478,-1.84762746492495
-1.29381591478457,-0.432041959171631,0.461178604756491,-2.36989655117177,4.49314546585083,-1.84762746492495
-1.31625205675234,-0.434844331150391,0.498384300862448,-2.36993231395864,4.47454357147217,-1.84779721895327
-1.32045394579043,-0.436401681309082,0.50843316713442,-2.36989655117177,4.46635723114014,-1.84790784517397
-1.33941585222353,-0.453324155216553,0.583798233662741,-2.36988415340566,4.38771915435791,-1.86404258409609
-1.34296399751772,-0.460969285374023,0.609780136738912,-2.36983551601552,4.35864353179932,-1.87446958223452
-1.34678775468935,-0.473199681644775,0.645035568867819,-2.36982407192373,4.32251739501953,-1.88615876833071
-1.35459643999209,-0.49905617654834,0.711365524922506,-2.36984791378164,4.26589870452881,-1.89834529558291
-1.35632545152773,-0.505495862369873,0.72635537782778,-2.36980023006582,4.255784034729,-1.89956218401064
-1.36452418962588,-0.530378178959229,0.783984963093893,-2.36982407192373,4.22916412353516,-1.90011245409121
-1.36708289781679,-0.53633530557666,0.797953430806295,-2.36982407192373,4.22523212432861,-1.90024930635561
-1.37138158479799,-0.544579820041992,0.81789476076235,-2.36982407192373,4.22175407409668,-1.90107518831362
-1.37619525591005,-0.552018479709961,0.836859528218405,-2.3698483906188,4.22056102752686,-1.90324336687197
-1.37943679491152,-0.556727723484375,0.84924298921694,-2.36982407192373,4.22024297714233,-1.90563708940615
-1.38270217577089,-0.561215714817383,0.86118203798403,-2.36988415340566,4.22017621994019,-1.90966779390444
-1.38742763200869,-0.567232922916748,0.878646675740377,-2.36986031154775,4.21997165679932,-1.91845590273012
-1.38900405565371,-0.569061116581299,0.884281937276022,-2.3698483906188,4.21986103057861,-1.92234498659243
-1.39224940935244,-0.572137669926025,0.895017449055807,-2.36986031154775,4.21975517272949,-1.93175012270083
-1.41752130190005,-0.583645181064941,0.96682054201235,-2.36988415340566,4.21960401535034,-2.06864673296084
-1.41979915300478,-0.583978490238525,0.973659340535299,-2.36988415340566,4.2196044921875,-2.08658820787539
-1.42825538316836,-0.583963708286621,0.998465363179342,-2.36988415340566,4.21966409683228,-2.14708072343935
-1.43276340166201,-0.583987550144531,1.01355630556215,-2.36986031154775,4.2196159362793,-2.17170268694033
-1.4343641440021,-0.584011392002441,1.01966554323305,-2.36989607433462,4.21959209442139,-2.17842418352236
-1.43896943727602,-0.584378556614258,1.062148873006,-2.36986031154775,4.21957969665527,-2.1892150084125
-1.43900520006289,-0.584643678074219,1.06965715089907,-2.3698483906188,4.21958017349243,-2.18919116655459
-1.43901712099184,-0.587606267338135,1.09545022646059,-2.36988415340566,4.21945762634277,-2.1892150084125
-1.43942529359926,-0.597226933842041,1.13298684755434,-2.36986031154775,4.21718692779541,-2.1892994085895
-1.44074851671328,-0.602895097141602,1.15049153963198,-2.36983646968984,4.21394014358521,-2.18933612505068
-1.45280296007265,-0.633651570682861,1.21746141115297,-2.36987223247671,4.18265914916992,-2.19050532976259
-1.45577794710268,-0.640968636875488,1.23000985780825,-2.36983646968984,4.17376232147217,-2.19148952165713
-1.45905810991396,-0.648886041050293,1.24263173738589,-2.36982407192373,4.1641960144043,-2.19315702119936
-1.47403031984438,-0.696002797489502,1.31190759340395,-2.36988415340566,4.11783838272095,-2.22103912035097
-1.47597200075258,-0.704062299137451,1.32368356386294,-2.36987223247671,4.1126651763916,-2.22848779359926
-1.47775346437563,-0.711852387791016,1.3349121252643,-2.36981215099477,4.10874652862549,-2.23601848283877
-1.48262530962099,-0.732104138737061,1.36580545106997,-2.36986031154775,4.10192680358887,-2.25624591508974
-1.48883420625796,-0.74658282220874,1.39216787019839,-2.36981215099477,4.10087490081787,-2.26725227037539
-1.50834399858584,-0.767712907200195,1.43695909181704,-2.36983646968984,4.09958171844482,-2.28170520464052
-1.51117927232851,-0.770417527561523,1.44179803529848,-2.36983646968984,4.09791994094849,-2.2853298822986
-1.51245385805239,-0.771791772251465,1.44400960603823,-2.36983646968984,4.09694290161133,-2.28750688234438
-1.52105647722353,-0.782486276035645,1.45568734804262,-2.36978830913686,4.08607387542725,-2.3125744501697
-1.52699071565737,-0.789789037113525,1.4579532782184,-2.36982407192373,4.07532024383545,-2.34326965013613
-1.53016788164248,-0.793525533085205,1.45744401613344,-2.3698483906188,4.06741142272949,-2.3659670988666
-1.53680450121035,-0.807233647709229,1.45734960237612,-2.36981215099477,4.04717636108398,-2.45073014894594
-1.53697568575014,-0.809368924503662,1.45733529726137,-2.36981215099477,4.04594230651855,-2.46157151857485
-1.53691465059389,-0.811237172489502,1.45737344423403,-2.36974968532705,4.04556369781494,-2.4695499579059
-1.53692657152285,-0.812141732578613,1.45740777650942,-2.36971058468007,4.04554080963135,-2.47212297121157
-1.53691465059389,-0.813946561222412,1.4573715368854,-2.36958326915883,4.04551696777344,-2.47536737123598
-1.53691417375673,-0.814834908848145,1.45810014406313,-2.36673082927846,4.04540729522705,-2.47489625612368
-1.53691417375673,-0.814810590153076,1.45892793336977,-2.3645297489562,4.04537200927734,-2.4749324957477
-1.53695041338076,-0.814834908848145,1.45939904848208,-2.36382116893911,4.045334815979,-2.47489625612368
-1.53695041338076,-0.81487067163501,1.46394426027407,-2.35772051433706,4.04319286346436,-2.4749324957477
-1.53690272966494,-0.814834908848145,1.46554261842837,-2.35583033184194,4.0413990020752,-2.4749324957477
-1.53691417375673,-0.81487067163501,1.46735650697817,-2.35368694881582,4.03928565979004,-2.47496778169741
-1.53687841096987,-0.814906434421875,1.48248559633364,-2.34053577999257,4.0286169052124,-2.4749439398395
-1.53692657152285,-0.814906434421875,1.48493844667544,-2.33945002178335,4.02823495864868,-2.47492009798159
-1.53691417375673,-0.81489451349292,1.49290258089174,-2.33813728908681,4.02791738510132,-2.47496778169741
-1.53690272966494,-0.814906434421875,1.49590474763979,-2.33813776592397,4.02779579162598,-2.47496778169741
-1.5369384924518,-0.81487067163501,1.49896508852114,-2.33810200313711,4.0276985168457,-2.47498017946352
-1.53690272966494,-0.814918832187988,1.50363332429995,-2.33812584499502,4.02732276916504,-2.4749553839313
-1.53696233430971,-0.814918832187988,1.50683671632876,-2.33811392406606,4.02688789367676,-2.47496778169741
-1.53695041338076,-0.814906434421875,1.52507669130434,-2.33811392406606,4.02524471282959,-2.47499162355532
-1.53690272966494,-0.814918832187988,1.52866441408266,-2.33810200313711,4.02489280700684,-2.4749439398395
-1.53691417375673,-0.814918832187988,1.53304177919497,-2.33814968685293,4.0227689743042,-2.47496778169741
-1.53687841096987,-0.814968423252441,1.53400117555727,-2.33814968685293,4.01110553741455,-2.47504026094546
-1.53689033189882,-0.81506426752124,1.53401261964907,-2.33812584499502,4.00913095474243,-2.47501641908755
-1.5369384924518,-0.815099553470947,1.53400117555727,-2.33812584499502,4.00279235839844,-2.47504026094546
-1.53692657152285,-0.815134362583496,1.53400117555727,-2.33810200313711,3.98808193206787,-2.47524434724917
-1.53697425523867,-0.815086202030518,1.53396493593325,-2.33811392406606,3.98685097694397,-2.47520810762514
-1.53696233430971,-0.815098599796631,1.53400117555727,-2.33816208461904,3.98088216781616,-2.47529203096499
-1.53697425523867,-0.815134362583496,1.53397638002505,-2.33812584499502,3.97088718414307,-2.47536451021303
-1.53691417375673,-0.815122441654541,1.53396493593325,-2.33814968685293,3.96339964866638,-2.47558194795717
-1.53697425523867,-0.815134362583496,1.53391725221743,-2.33816208461904,3.96257305145264,-2.47562867799868
-1.53697425523867,-0.815134362583496,1.53392869630922,-2.33811392406606,3.96229124069214,-2.4756763617145
-1.53695041338076,-0.815146283512451,1.53395349184145,-2.33813776592397,3.96220707893372,-2.47580796877016
-1.53698665300478,-0.815146283512451,1.53400117555727,-2.33813776592397,3.96219396591187,-2.47585565248598
-1.53701049486269,-0.815110520725586,1.53394109407534,-2.33812584499502,3.96136283874512,-2.47591668764223
-1.53701049486269,-0.815158204441406,1.53394109407534,-2.33813776592397,3.95648956298828,-2.47606069246401
-1.53695041338076,-0.815098599796631,1.53390580812563,-2.33808960537099,3.95563268661499,-2.47607309023012
-1.53696233430971,-0.815122441654541,1.53390580812563,-2.33813776592397,3.93552613258362,-2.47649270692934
-1.53697425523867,-0.815122441654541,1.53395349184145,-2.33813776592397,3.93316578865051,-2.47650415102114
-1.53698665300478,-0.815122441654541,1.5338924566852,-2.33814968685293,3.92601323127747,-2.47662240663637
-1.53701049486269,-0.815170125370361,1.53394109407534,-2.33812584499502,3.92451810836792,-2.47662240663637
-1.53699809709658,-0.815134362583496,1.53392869630922,-2.33812584499502,3.92339444160461,-2.4766586462604
-1.53701049486269,-0.815146283512451,1.53395349184145,-2.33812584499502,3.9223153591156,-2.47663385072817
-1.53698665300478,-0.815146283512451,1.53391725221743,-2.33814968685293,3.92205119132996,-2.47662240663637
-1.53705817857851,-0.815110520725586,1.53394109407534,-2.33811392406606,3.92194795608521,-2.47662240663637
-1.53701049486269,-0.815110520725586,1.53390580812563,-2.33812584499502,3.92194795608521,-2.47661096254458
-1.5370343367206,-0.815098599796631,1.53390580812563,-2.33811392406606,3.92196011543274,-2.47661096254458
-1.53708202043642,-0.815146283512451,1.53391725221743,-2.33813776592397,3.92193627357483,-2.47663385072817
-1.5370343367206,-0.815098599796631,1.53391725221743,-2.33810200313711,3.92192411422729,-2.47662240663637
-1.53698665300478,-0.815086202030518,1.53392869630922,-2.33811392406606,3.92196011543274,-2.4766586462604
-1.53693801561464,-0.815013722782471,1.53390580812563,-2.33811392406606,3.92231154441833,-2.47656232515444
-1.53668624559511,-0.814666585331299,1.53397733369936,-2.33806576351308,3.93087244033813,-2.47645265260805
-1.53661281267275,-0.814678506260254,1.53395349184145,-2.33805336574697,3.93414711952209,-2.4762695471393
-1.53656560579409,-0.814678983097412,1.53395349184145,-2.33804192165517,3.94113397598267,-2.47618943849672
-1.53626662889589,-0.814690904026367,1.53392869630922,-2.33807768444204,3.97529792785645,-2.47569448152651
-1.5362551848041,-0.81465561807666,1.53390580812563,-2.33806576351308,3.990558385849,-2.47545510927309
-1.53619558015932,-0.814607457523682,1.5331772009479,-2.33819880108022,4.05336046218872,-2.47491723695864
-1.53619558015932,-0.81465561807666,1.53277951875796,-2.3383108578124,4.06591320037842,-2.47475988069643
-1.53623134294619,-0.814643697147705,1.5326250235187,-2.33839478115224,4.06969356536865,-2.47465211549868
-1.53614741960634,-0.814643697147705,1.5309799353229,-2.34001316646718,4.09384202957153,-2.47055799165835
-1.53611117998232,-0.814607457523682,1.53052407899965,-2.34108271221303,4.09597301483154,-2.46690065065493
-1.53608447710146,-0.814631299381592,1.53013784090151,-2.34201778988027,4.09704399108887,-2.46374017397036
-1.53224307695498,-0.814631299381592,1.52783567110171,-2.3439055881896,4.10747337341309,-2.4381893316852
-1.53058702150454,-0.814643697147705,1.5278118292438,-2.34404625515127,4.1103196144104,-2.43289739290346
-1.520720307027,-0.81465561807666,1.52776414552797,-2.34418692211294,4.12893676757812,-2.40894586244692
-1.51698762575258,-0.814619378452637,1.52776414552797,-2.34418692211294,4.13837242126465,-2.40177041689028
-1.51438361803164,-0.814631299381592,1.52773934999575,-2.34418692211294,4.14532232284546,-2.39705545106997
-1.4969165960895,-0.814607457523682,1.52770311037172,-2.3448707065978,4.1992244720459,-2.37223655382265
-1.49409228960146,-0.814619378452637,1.52771550813784,-2.34538139919423,4.20960330963135,-2.36778766313662
-1.49125415483584,-0.814619378452637,1.5276783148395,-2.34602226833486,4.22010898590088,-2.36293059984316
-1.4749177137958,-0.814583615665772,1.52382165590395,-2.3554965458312,4.28379917144775,-2.33445173898806
-1.47197038332094,-0.814619378452637,1.52131539980044,-2.35740818599843,4.29366159439087,-2.32943231264223
-1.46905213991274,-0.814583615665772,1.51808339754214,-2.35920586208486,4.30293083190918,-2.32466489473452
-1.45291740099062,-0.814559773807861,1.4817569891559,-2.36316933254384,4.34603500366211,-2.30209261575808
-1.44999915758242,-0.814571217899658,1.47192651430239,-2.36322893718862,4.35314559936523,-2.2979100386249
-1.44707328477968,-0.814499692325928,1.46131784120669,-2.36321701625966,4.35999727249146,-2.29409128824343
-1.44558650652041,-0.814486817722656,1.45589906374087,-2.36321701625966,4.36327505111694,-2.29227549234499
-1.4277928511249,-0.814439134006836,1.38327676454653,-2.36316933254384,4.40511417388916,-2.27194577852358
-1.42500669160952,-0.814379052524902,1.37063295045962,-2.3630968532958,4.41346311569214,-2.26737815538515
-1.41596442857851,-0.814259366398193,1.32737046877016,-2.3630968532958,4.44517517089844,-2.24889308611025
-1.41237193742861,-0.81424696863208,1.3091028372394,-2.36307301143789,4.45939970016479,-2.23895818391909
-1.40907031694521,-0.814127759342529,1.29105836549868,-2.36303677181386,4.47337245941162,-2.22785598436464
-1.40450698534121,-0.814128236179688,1.26168901125063,-2.36303677181386,4.49730253219604,-2.20789939561953
-1.39878398576845,-0.814152078037598,1.21563798586001,-2.363001009027,4.53678321838379,-2.17091399828066
-1.3978536764728,-0.814116315250732,1.20437413850893,-2.36298908809804,4.54698276519775,-2.16067248979677
-1.39545232454409,-0.814128236179688,1.14768964449038,-2.36303677181386,4.59639120101929,-2.10250026384463
-1.39552432695498,-0.814128236179688,1.11932641664614,-2.36297669033193,4.62026500701904,-2.06938678423037
-1.3955720106708,-0.814128236179688,1.11365586916079,-2.36302485088491,4.62485885620117,-2.06242782274355
-1.39553577104677,-0.814116315250732,1.08029252687563,-2.36296476940297,4.6508150100708,-2.0177357832538
-1.39555961290468,-0.814116315250732,1.06415254274477,-2.36298908809804,4.66309785842896,-1.99367839494814
-1.39561969438662,-0.814104394321777,1.05364877382387,-2.36297669033193,4.6714334487915,-1.9769061247455
-1.39560777345766,-0.814116315250732,1.04339486757387,-2.36292900661611,4.679283618927,-1.95971519151797
-1.39558345476259,-0.814128236179688,1.02845555940737,-2.363001009027,4.69054889678955,-1.93381625810732
-1.39561969438662,-0.814080075626709,1.004851166402,-2.36298908809804,4.7088098526001,-1.89057809511294
-1.39558345476259,-0.814068154697754,0.974238220845358,-2.36296476940297,4.73287725448608,-1.83259803453554
-1.39557153383364,-0.814091996555664,0.939631287251608,-2.36298908809804,4.76375484466553,-1.76873094240297
-1.39564353624453,-0.814128236179688,0.913952652608053,-2.36301292995595,4.79390621185303,-1.72599250475039
-1.3955720106708,-0.814128236179688,0.908245865498678,-2.36301292995595,4.80157613754272,-1.71673185030092
-1.39564353624453,-0.814116315250732,0.893027130757467,-2.36307348827505,4.82413244247437,-1.69161922136416
-1.39558345476259,-0.814104394321777,0.886342827473776,-2.36310925106191,4.83509969711304,-1.6794903914081
-1.39564353624453,-0.814116315250732,0.88224965730776,-2.36314549068593,4.8420991897583,-1.67128926912417
-1.39569217363466,-0.814128236179688,0.878420654927389,-2.36318220714712,4.84871244430542,-1.66303235689272
-1.39565593401064,-0.814104394321777,0.871220413838522,-2.363254209558,4.85971641540527,-1.64606649080385
-1.39640266100039,-0.814128236179688,0.855898682271139,-2.36499752620839,4.8695821762085,-1.59832936922182
-1.39648181596865,-0.814116315250732,0.848683182393209,-2.37236322979116,4.86979961395264,-1.5627911726581
-1.39651757875551,-0.814116315250732,0.841168228779928,-2.39376606563711,4.87015914916992,-1.50676137605776
-1.39654142061342,-0.814140157108643,0.839512650166647,-2.4012032947936,4.8701696395874,-1.49177486101259
-1.39655334154238,-0.814116315250732,0.838047806416647,-2.40960278133535,4.8701810836792,-1.47649175325503
-1.39655334154238,-0.814128236179688,0.834869209920065,-2.44013084987783,4.87019300460815,-1.429664913808
-1.39651757875551,-0.814140157108643,0.833348099385397,-2.47061028103017,4.87019300460815,-1.39142400423159
-1.39661342302431,-0.814128236179688,0.833059136067526,-2.49108423809194,4.87021684646606,-1.369512859975
-1.39662868181338,-0.814104394321777,0.833084885274069,-2.50568594555044,4.87019300460815,-1.35543662706484
-1.39755851427187,-0.814175919895508,0.833048645650045,-2.58367075542592,4.87014484405518,-1.29369193712343
-1.39798289934267,-0.814188317661621,0.832989517842428,-2.60024323085927,4.87013292312622,-1.28321582475771
-1.40036756197085,-0.814188317661621,0.832953278218405,-2.64085306743764,4.87010908126831,-1.26062423387636
-1.40425903001894,-0.81426032007251,0.832770172749655,-2.68757214168691,4.87012100219727,-1.24089461961855
-1.40678483644594,-0.814247922306397,0.83268911043276,-2.70880713085317,4.87008380889893,-1.23394376436342
-1.41062862077822,-0.814296082859375,0.832591835652487,-2.73384823421621,4.87010908126831,-1.22694188753237
-1.41983729997744,-0.814319924717285,0.831049744282858,-2.7707101307311,4.87012100219727,-1.21914226213564
-1.42107946077456,-0.81435568750415,0.83042031923403,-2.77404512981557,4.87014484405518,-1.21863776842226
-1.42634135881533,-0.814344243412354,0.826849762593405,-2.7847367725768,4.87013292312622,-1.21632177034487
-1.44326335588564,-0.81430800378833,0.794440094624655,-2.79161944011831,4.87013292312622,-1.21528369585146
-1.44559175172915,-0.81428416193042,0.785833183919088,-2.79150786022329,4.87009716033936,-1.21524697939028
-1.46050149599184,-0.81430800378833,0.729414765034811,-2.79048170665883,4.87009716033936,-1.21284801164736
-1.46386319795717,-0.81430800378833,0.720459763203756,-2.79024376491689,4.87009716033936,-1.21181708971132
-1.46748668352236,-0.814296082859375,0.711919609700338,-2.79003204921865,4.87008476257324,-1.20968324342837
-1.48746186891665,-0.814343766575195,0.674044434224264,-2.79003538707876,4.87004899978638,-1.18588620821108
-1.49389869371523,-0.814296082859375,0.664064232503073,-2.79007162670278,4.87002515792847,-1.17283851305117
-1.50688249269594,-0.814319924717285,0.646149460469381,-2.79009594539785,4.87004899978638,-1.14137298265566
-1.52342921892275,-0.814296082859375,0.62338906923403,-2.79021563152456,4.87001323699951,-1.0940616766559
-1.52701932588686,-0.81430800378833,0.618571106587545,-2.79019226650381,4.86997699737549,-1.08502132097353
-1.53707868257631,-0.814343766575195,0.604413811360494,-2.7905060253539,4.86995267868042,-1.06526500383486
-1.54183084169497,-0.81430800378833,0.597311798726217,-2.79061283687734,4.86984300613403,-1.05901700655092
-1.54483634630312,-0.81428416193042,0.592449967061178,-2.79063572506093,4.86979579925537,-1.05598956743349
-1.55087262788881,-0.814296082859375,0.582720581685201,-2.79063572506093,4.86982107162476,-1.05399448076357
-1.5540865103351,-0.81428416193042,0.578140083943502,-2.79072155574941,4.86977338790894,-1.05395919481386
-1.55748588243593,-0.814296082859375,0.573765579854147,-2.79079403499746,4.86978530883789,-1.05394679704775
-1.56097585359682,-0.814296082859375,0.56948167482485,-2.79086556057119,4.86984539031982,-1.05394679704775
-1.56640321413149,-0.814319924717285,0.562973801289694,-2.79094853023672,4.8698091506958,-1.0538857618915
-1.57000762621035,-0.81433184564624,0.558435265217916,-2.79098381618642,4.86978530883789,-1.05383760133852
-1.57683068910708,-0.814343766575195,0.54908258119692,-2.79099573711538,4.869797706604,-1.05345327058901
-1.60127193132509,-0.814296082859375,0.518997971211569,-2.79098333934926,4.869797706604,-1.0330265204059
-1.61762792268862,-0.814319924717285,0.497127358113424,-2.79088749508047,4.86983346939087,-1.01463014284243
-1.62040597597231,-0.814343766575195,0.493580643330709,-2.79086365322256,4.86982154846191,-1.01337653795351
-1.62308055559267,-0.81435568750415,0.489803139363424,-2.79086365322256,4.8698091506958,-1.01304179826845
-1.62573510805239,-0.814343766575195,0.485945526753561,-2.79087509731435,4.86983346939087,-1.01301891008486
-1.63854581514467,-0.814403848057129,0.462054077778951,-2.79013504604482,4.86988162994385,-1.01303130785097
-1.64048225084414,-0.814391927128174,0.457478348408834,-2.78977169613027,4.86982154846191,-1.01301891008486
-1.65179473558535,-0.814439610843994,0.435104195271627,-2.78536190609121,4.86991739273071,-1.01276380220522
-1.65397245088686,-0.814451531772949,0.430994812642233,-2.78374399761342,4.8698935508728,-1.01261645952334
-1.65952808061709,-0.814488248234131,0.418353859578268,-2.77651991466665,4.86997985839844,-1.00892669359316
-1.66443378130068,-0.814439610843994,0.40052301088442,-2.76147427181386,4.87014770507812,-0.994101826344625
-1.66509324709047,-0.814427689915039,0.395832840596334,-2.75690712551259,4.87010908126831,-0.989753548298971
-1.66568214098086,-0.814487771396973,0.391132179890768,-2.75227512935781,4.87014484405518,-0.985193077717916
-1.66939288774599,-0.814451531772949,0.368367020283834,-2.73066105465078,4.87013292312622,-0.961860958729879
-1.66994697252382,-0.814403848057129,0.365897957478658,-2.72861733059072,4.87015724182129,-0.960073296223776
-1.67127353349795,-0.814487771396973,0.360886398945944,-2.72465099910879,4.87015724182129,-0.957083050404684
-1.68579608598818,-0.814476327305176,0.327677551900045,-2.70332970241689,4.87019348144531,-0.951498333607809
-1.69015056291689,-0.814427689915039,0.318799797688619,-2.69824757198476,4.87019300460815,-0.951474491749899
-1.70131427446474,-0.814403848057129,0.284170929585592,-2.67027868847036,4.8702654838562,-0.951450649891989
-1.70217734972109,-0.814403848057129,0.279007736836569,-2.66407742122793,4.870276927948,-0.951438252125875
-1.70355445543398,-0.814464883213379,0.264192406331198,-2.64179100612783,4.87033653259277,-0.951266590748922
-1.70404512086977,-0.814499692325928,0.246113602315084,-2.60641922573232,4.87032508850098,-0.949436489735739
-1.70479327837099,-0.814475850468018,0.238920990620748,-2.59156288723134,4.87040996551514,-0.94591457048525
-1.70639354387392,-0.814500169163086,0.226496521626608,-2.56592430690908,4.87054109573364,-0.937038723622457
-1.70864516893496,-0.814475850468018,0.207157913838522,-2.53197970012807,4.87062454223633,-0.923630539570944
-1.70920879045595,-0.814511613254883,0.201678101216451,-2.52297939876699,4.87069654464722,-0.920518223439352
-1.70996410051455,-0.814463929539063,0.196230713521139,-2.51465048412465,4.87073230743408,-0.917330090199606
-1.71517163911928,-0.814475850468018,0.168930832539694,-2.47870268444204,4.87072038650513,-0.904605213795797
-1.71738893190493,-0.814391927128174,0.16141111055483,-2.46978535274648,4.87068367004395,-0.901833836232321
-1.73037511507143,-0.814512090092041,0.133122269307272,-2.44042219738149,4.87070846557617,-0.89872390428652
-1.74286109605898,-0.814523534183838,0.117381874714987,-2.43404116253042,4.87086486816406,-0.898468319569723
-1.74475795427431,-0.814574078922607,0.116057221089498,-2.43399300197744,4.87085247039795,-0.898226086293356
-1.74756747881045,-0.81460793436084,0.114292923604147,-2.43400539974355,4.87090301513672,-0.897519413624899
-1.7534912268268,-0.814690904026367,0.113480393086569,-2.43385662655019,4.87106847763062,-0.890446011220114
-1.75419837633242,-0.81467945993457,0.113456551228658,-2.43366016964101,4.87113189697266,-0.887609306965963
-1.75459891954531,-0.814714745884277,0.113480393086569,-2.43318237880849,4.87126350402832,-0.884335343037741
-1.75461894670595,-0.814726666813232,0.113480393086569,-2.42575230220937,4.87192010879517,-0.865509812031881
-1.75464278856386,-0.814750985508301,0.113444153462545,-2.42426695446157,4.87199211120605,-0.864598099385397
-1.75466663042177,-0.814726666813232,0.113432709370748,-2.42253889660024,4.87197923660278,-0.864621941243307
-1.75466663042177,-0.814702824955322,0.113420311604635,-2.42155756572866,4.87196731567383,-0.864550415669576
-1.75464278856386,-0.814739064579346,0.113444153462545,-2.42017616848134,4.87195491790771,-0.864574257527487
-1.75465470949282,-0.814739064579346,0.113407913838522,-2.41197313884878,4.87191915512085,-0.864586178456442
-1.75467855135073,-0.814739064579346,0.113385025654928,-2.40984215358877,4.87196731567383,-0.864562336598532
-1.75460654893984,-0.814750985508301,0.113346878682272,-2.39989199260854,4.8719310760498,-0.864562336598532
-1.75461894670595,-0.814739064579346,0.113310639058248,-2.39992775539541,4.8719310760498,-0.864562336598532
-1.75467855135073,-0.814739064579346,0.113214317952291,-2.39991583446645,4.8719310760498,-0.864514652882711
-1.75469094911684,-0.814786748295166,0.113192383443014,-2.39988007167959,4.87196731567383,-0.864586178456442
-1.75467855135073,-0.814739064579346,0.11316949525942,-2.39991583446645,4.87195491790771,-0.864550415669576
-1.75467855135073,-0.814762906437256,0.113180939351217,-2.39991631130361,4.87191915512085,-0.864562336598532
-1.75461894670595,-0.814750985508301,0.113204781209127,-2.3999883137145,4.87194299697876,-0.864598099385397
-1.75455886522402,-0.814702824955322,0.113217178975241,-2.39998879055166,4.87188291549683,-0.864586178456442
-1.75457078615297,-0.81467945993457,0.113264862691061,-2.40018143276357,4.87189483642578,-0.864562336598532
-1.75454694429506,-0.814667539005615,0.113253418599264,-2.40022911647939,4.87191867828369,-0.864574257527487
-1.75453502336611,-0.814690904026367,0.113264862691061,-2.40028061489248,4.87185907363892,-0.864586178456442
-1.75449878374209,-0.814631299381592,0.113288704548971,-2.40079989055776,4.87181091308594,-0.864562336598532
-1.75457078615297,-0.814631299381592,0.113276306782858,-2.40110458950185,4.87181091308594,-0.864633862172262
-1.7545226256,-0.814607457523682,0.113264862691061,-2.40150322536611,4.87177467346191,-0.864646259938375
-1.75451070467104,-0.81465561807666,0.113287750874655,-2.4056674442687,4.87172698974609,-0.864598099385397
-1.75454694429506,-0.814643697147705,0.113264862691061,-2.40852655986928,4.87172698974609,-0.864610020314352
-1.75451070467104,-0.814667539005615,0.113240067158834,-2.41221441845083,4.87169122695923,-0.864598099385397
-1.75451070467104,-0.814643697147705,0.113180939351217,-2.42573895076894,4.87164306640625,-0.864598099385397
-1.75446302095522,-0.814607457523682,0.113203827534811,-2.43070711712026,4.87164354324341,-0.864610020314352
-1.7545226256,-0.814595536594727,0.113217178975241,-2.44202103237295,4.87161922454834,-0.864610020314352
-1.75449878374209,-0.814631299381592,0.113217178975241,-2.44341864208364,4.87163162231445,-0.864598099385397
-1.75447494188418,-0.814607457523682,0.113217178975241,-2.44376959423208,4.87164354324341,-0.864621941243307
-1.75446302095522,-0.814619378452637,0.113240067158834,-2.44412388424062,4.87160778045654,-0.864645783101217
-1.75453502336611,-0.814595536594727,0.113240067158834,-2.4440876446166,4.87160778045654,-0.864610020314352
-1.75447494188418,-0.814583615665772,0.113277260457174,-2.44411148647451,4.87165546417236,-0.864621941243307
-1.75446302095522,-0.814583615665772,0.113278214131491,-2.44408716777944,4.87161922454834,-0.864633862172262
-1.75446302095522,-0.814607457523682,0.113303009663717,-2.44407524685048,4.87166738510132,-0.864598099385397
-1.75451070467104,-0.814534978275635,0.113396469746725,-2.44409956554555,4.87166738510132,-0.864621941243307
-1.75446302095522,-0.814571694736816,0.113408867512838,-2.44409956554555,4.87166738510132,-0.864657704030172
-1.75443870226015,-0.814439134006836,0.114186112080709,-2.44405140499257,4.87169170379639,-0.864670101796285
-1.75445062318911,-0.814391450291016,0.114778343831198,-2.44402756313466,4.87166738510132,-0.864598099385397
-1.75443870226015,-0.814379052524902,0.114858452473776,-2.44405140499257,4.87165546417236,-0.864610020314352
-1.75443870226015,-0.814343766575195,0.114822212849752,-2.44407524685048,4.87169170379639,-0.864645783101217
-1.75437909761538,-0.81435568750415,0.114822212849752,-2.44405140499257,4.87169170379639,-0.864645783101217
-1.75445110002627,-0.814368085270264,0.114809815083639,-2.44408716777944,4.87167930603027,-0.864645783101217
-1.7544267813312,-0.81433184564624,0.114834610615866,-2.44408716777944,4.87167930603027,-0.864717785512106
-1.7544267813312,-0.814368085270264,0.114834610615866,-2.44405140499257,4.87166738510132,-0.864657704030172
-1.7544267813312,-0.814343766575195,0.114846054707662,-2.44406332592153,4.87166738510132,-0.864657704030172
-1.75440293947329,-0.81435568750415,0.114846054707662,-2.44408716777944,4.87166738510132,-0.864621941243307
-1.75437909761538,-0.814368085270264,0.114846054707662,-2.44408716777944,4.87167930603027,-0.864670101796285
-1.75436717668642,-0.814343766575195,0.114846054707662,-2.44406332592153,4.87164354324341,-0.864681545888082
-1.75440293947329,-0.81430800378833,0.114834610615866,-2.44407524685048,4.87169170379639,-0.864681545888082
-1.75440293947329,-0.814368085270264,0.114822212849752,-2.44408716777944,4.87163162231445,-0.864645783101217
-1.75437909761538,-0.814380006199219,0.114834610615866,-2.44406332592153,4.87161922454834,-0.864681545888082
-1.75440293947329,-0.81435568750415,0.114798370991842,-2.44409956554555,4.87165546417236,-0.864645783101217
-1.75439101854433,-0.81430800378833,0.114834610615866,-2.44405140499257,4.87163162231445,-0.864670101796285
-1.75436717668642,-0.814343766575195,0.114834610615866,-2.44408716777944,4.87166738510132,-0.864645783101217
-1.75440293947329,-0.814403848057129,0.114822212849752,-2.44403948406362,4.87164354324341,-0.864645783101217
-1.75437909761538,-0.814380006199219,0.114846054707662,-2.44405140499257,4.87170314788818,-0.864670101796285
-1.75441486040224,-0.81435568750415,0.114822212849752,-2.44407524685048,4.87167930603027,-0.864645783101217
-1.75443870226015,-0.814380006199219,0.114798370991842,-2.44407524685048,4.87164354324341,-0.864598099385397
-1.7544267813312,-0.814391927128174,0.114822212849752,-2.44409956554555,4.87166738510132,-0.864657704030172
-1.75440293947329,-0.814415768986084,0.114773575459616,-2.44406332592153,4.87166738510132,-0.864681545888082
-1.7544267813312,-0.814391927128174,0.114773575459616,-2.44407524685048,4.87167930603027,-0.864670101796285
-1.75440293947329,-0.814391927128174,0.114822212849752,-2.44408716777944,4.87164354324341,-0.864633862172262
-1.75441486040224,-0.814403848057129,0.114798370991842,-2.44407524685048,4.87166738510132,-0.864681545888082
-1.7544267813312,-0.814391927128174,0.114786926900045,-2.44405140499257,4.87163162231445,-0.864693943654196
-1.75443870226015,-0.814403848057129,0.114798370991842,-2.44407524685048,4.87166738510132,-0.864670101796285
-1.75448686281313,-0.814427689915039,0.114809815083639,-2.44403948406362,4.87165546417236,-0.864657704030172
-1.7544267813312,-0.814380006199219,0.114798370991842,-2.44403948406362,4.87161922454834,-0.864633862172262
-1.75445110002627,-0.814391927128174,0.114798370991842,-2.44407524685048,4.87167930603027,-0.864621941243307
-1.75443870226015,-0.814380006199219,0.114809815083639,-2.44406332592153,4.87163162231445,-0.864633862172262
-1.75443870226015,-0.814380006199219,0.114809815083639,-2.44403948406362,4.87165546417236,-0.864621941243307
-1.75447494188418,-0.81435568750415,0.114809815083639,-2.44406332592153,4.87164354324341,-0.864633862172262
-1.75447494188418,-0.814380006199219,0.114822212849752,-2.44403948406362,4.87167930603027,-0.864645783101217
-1.75439101854433,-0.814380006199219,0.114809815083639,-2.44406332592153,4.87166738510132,-0.864621941243307
-1.75443870226015,-0.814380006199219,0.114822212849752,-2.44406332592153,4.87166738510132,-0.864621941243307
-1.75443870226015,-0.814391927128174,0.114834610615866,-2.44408716777944,4.87165546417236,-0.864633862172262
-1.75447494188418,-0.814391927128174,0.114822212849752,-2.44407524685048,4.87167930603027,-0.864621941243307
-1.75441486040224,-0.814380006199219,0.114822212849752,-2.44405140499257,4.87167930603027,-0.864598099385397
-1.75443870226015,-0.814343766575195,0.114846054707662,-2.44407524685048,4.87167930603027,-0.864633862172262
-1.75446302095522,-0.814380006199219,0.114809815083639,-2.44407524685048,4.87167930603027,-0.864621941243307
-1.7544267813312,-0.814368085270264,0.114846054707662,-2.44408716777944,4.87166738510132,-0.864621941243307
-1.75445110002627,-0.814343766575195,0.114809815083639,-2.44405140499257,4.87167930603027,-0.864633862172262
-1.75445110002627,-0.814368085270264,0.114822212849752,-2.44407524685048,4.87166738510132,-0.864633862172262
-1.75445110002627,-0.814343766575195,0.114809815083639,-2.44403948406362,4.87165546417236,-0.864657704030172
-1.75446302095522,-0.814368085270264,0.114846054707662,-2.44403948406362,4.87166738510132,-0.864621941243307
-1.75443870226015,-0.814368085270264,0.114809815083639,-2.44408716777944,4.87164354324341,-0.864681545888082
-1.75445110002627,-0.814391927128174,0.114834610615866,-2.44407524685048,4.87164354324341,-0.864610020314352
-1.75449878374209,-0.814380006199219,0.114834610615866,-2.44403948406362,4.87163162231445,-0.864633862172262
-1.75441486040224,-0.814380006199219,0.114809815083639,-2.44403948406362,4.87166738510132,-0.864633862172262
-1.75446302095522,-0.814368085270264,0.114822212849752,-2.44406332592153,4.87167930603027,-0.864633862172262
-1.7544267813312,-0.814380006199219,0.114870850239889,-2.44407524685048,4.87167930603027,-0.864645783101217
-1.75449878374209,-0.814343766575195,0.114857498799459,-2.44407524685048,4.87169170379639,-0.864621941243307
-1.75443870226015,-0.81435568750415,0.114846054707662,-2.44403948406362,4.87169170379639,-0.864657704030172
-1.75451070467104,-0.814319924717285,0.114809815083639,-2.44402756313466,4.87166738510132,-0.864621941243307
-1.75447494188418,-0.81435568750415,0.114809815083639,-2.44405140499257,4.8717155456543,-0.864657704030172
-1.75446302095522,-0.814343766575195,0.114834610615866,-2.44402756313466,4.87167930603027,-0.864610020314352
-1.75448686281313,-0.814391927128174,0.114882294331686,-2.44405140499257,4.87169170379639,-0.864610020314352
-1.75443870226015,-0.814319924717285,0.114870850239889,-2.44402756313466,4.87165546417236,-0.864633862172262
-1.75447494188418,-0.814368085270264,0.114870850239889,-2.44403948406362,4.87166738510132,-0.864621941243307
-1.75443870226015,-0.814319924717285,0.114870850239889,-2.44405140499257,4.87166738510132,-0.864670101796285
-1.75445110002627,-0.81435568750415,0.114809815083639,-2.44405140499257,4.87166738510132,-0.864610020314352
-1.75447494188418,-0.81433184564624,0.114834610615866,-2.44405140499257,4.87166738510132,-0.864633862172262
-1.75449878374209,-0.81435568750415,0.114870850239889,-2.44408716777944,4.87166738510132,-0.864610020314352
-1.7544267813312,-0.814380006199219,0.114786926900045,-2.44402756313466,4.87169170379639,-0.864621941243307
-1.7544267813312,-0.814343766575195,0.114834610615866,-2.44401516536855,4.87167930603027,-0.864645783101217
-1.75441486040224,-0.814343766575195,0.114846054707662,-2.44403948406362,4.87170314788818,-0.864610020314352
-1.75443870226015,-0.814319924717285,0.114834610615866,-2.44401516536855,4.87169170379639,-0.864645783101217
-1.75443870226015,-0.814343766575195,0.114857498799459,-2.44403948406362,4.87165546417236,-0.864645783101217
-1.7544267813312,-0.814343766575195,0.114834610615866,-2.44403948406362,4.87165546417236,-0.864670101796285
-1.75437909761538,-0.81435568750415,0.114857498799459,-2.44405140499257,4.87167930603027,-0.864681545888082
-1.75441486040224,-0.81433184564624,0.114809815083639,-2.44402756313466,4.87166738510132,-0.864621941243307
-1.75441486040224,-0.81435568750415,0.114822212849752,-2.44403948406362,4.87164354324341,-0.864633862172262
-1.7544267813312,-0.814343766575195,0.114809815083639,-2.44407524685048,4.87165546417236,-0.864598099385397
-1.75443870226015,-0.814343766575195,0.114846054707662,-2.44405140499257,4.87169170379639,-0.864657704030172
-1.75441486040224,-0.814319924717285,0.114809815083639,-2.44408716777944,4.87169170379639,-0.864621941243307
-1.75441486040224,-0.814319924717285,0.114846054707662,-2.44403948406362,4.87169170379639,-0.864621941243307
-1.75446302095522,-0.81435568750415,0.114846054707662,-2.44405140499257,4.87165546417236,-0.864645783101217
-1.75441486040224,-0.81435568750415,0.114822212849752,-2.44402756313466,4.87165546417236,-0.864633862172262
-1.7544267813312,-0.81433184564624,0.114822212849752,-2.44402756313466,4.87167930603027,-0.864621941243307
