AdrianPrados/GaussianPathwiseLfD/ExpJointAdam/Grasping_3.csv
joint_0,joint_1,joint_2,joint_3,joint_4,joint_5
2.62143850326538,-1.33044512689624,0.330641571675436,-2.01377501110219,0.47917366027832,-0.904316250477926
2.62145042419434,-1.33042128503833,0.33066445985903,-2.01376309017324,0.479161739349365,-0.904340092335836
2.62141442298889,-1.33039744318042,0.330616776143209,-2.01376309017324,0.47917366027832,-0.904304329548971
2.62139058113098,-1.3304570478252,0.330628220235006,-2.01382317165517,0.479137897491455,-0.904316250477926
2.62141442298889,-1.33040888727222,0.330616776143209,-2.01378693203115,0.479185581207275,-0.904280010853903
2.62143850326538,-1.33043320596729,0.330616776143209,-2.01378693203115,0.479185581207275,-0.904304329548971
2.62142658233643,-1.33044512689624,0.330605332051412,-2.01378693203115,0.479149341583252,-0.904280010853903
2.62143850326538,-1.33043320596729,0.330605332051412,-2.01378693203115,0.479149341583252,-0.904292408620016
2.62143850326538,-1.33043320596729,0.330628220235006,-2.01381077388906,0.479185581207275,-0.904316250477926
2.62148666381836,-1.33042128503833,0.330605332051412,-2.01382317165517,0.479161739349365,-0.904304329548971
2.62143850326538,-1.33044512689624,0.330605332051412,-2.01378693203115,0.479161739349365,-0.904304329548971
2.62146258354187,-1.33048136652026,0.330628220235006,-2.01377501110219,0.479161739349365,-0.904328171406881
2.62147450447083,-1.33044512689624,0.330641571675436,-2.01377501110219,0.479185581207275,-0.904304329548971
2.62145042419434,-1.33042128503833,0.330616776143209,-2.01381077388906,0.479137897491455,-0.904328171406881
2.62145042419434,-1.3304570478252,0.330605332051412,-2.01376309017324,0.479161739349365,-0.904292408620016
2.62142658233643,-1.33043320596729,0.330628220235006,-2.01381077388906,0.479137897491455,-0.904304329548971
2.62143850326538,-1.33044512689624,0.330556694661276,-2.01381077388906,0.47917366027832,-0.904304329548971
2.62142658233643,-1.33043320596729,0.330591980610983,-2.01378693203115,0.47917366027832,-0.904304329548971
2.62145042419434,-1.33042128503833,0.330580536519186,-2.01382317165517,0.47917366027832,-0.904268566762106
2.62147450447083,-1.33043320596729,0.330616776143209,-2.0137988529601,0.47919750213623,-0.904304329548971
2.62145042419434,-1.33044512689624,0.330605332051412,-2.01378693203115,0.479149341583252,-0.904316250477926
2.62145042419434,-1.33044512689624,0.330605332051412,-2.01376309017324,0.47917366027832,-0.904304329548971
2.62143850326538,-1.3304570478252,0.330605332051412,-2.01381077388906,0.479161739349365,-0.904316250477926
2.62151050567627,-1.3304570478252,0.330616776143209,-2.01381077388906,0.479161739349365,-0.904304329548971
2.62143850326538,-1.33043320596729,0.330605332051412,-2.01378693203115,0.47917366027832,-0.904280010853903
2.62142658233643,-1.33043320596729,0.33066445985903,-2.01376309017324,0.479185581207275,-0.904316250477926
2.62142658233643,-1.33043320596729,0.330605332051412,-2.01378693203115,0.47917366027832,-0.904328171406881
2.62148666381836,-1.33043320596729,0.330605332051412,-2.0137988529601,0.479185581207275,-0.904304329548971
2.62142658233643,-1.33042128503833,0.330616776143209,-2.0137988529601,0.479125499725342,-0.904304329548971
2.62142658233643,-1.33043320596729,0.330605332051412,-2.01378693203115,0.47917366027832,-0.904280010853903
2.62147450447083,-1.33042128503833,0.330616776143209,-2.01383509258413,0.479185581207275,-0.904292408620016
2.62145042419434,-1.33042128503833,0.330591980610983,-2.0137988529601,0.479149341583252,-0.904292408620016
2.62145042419434,-1.33046896875415,0.330591980610983,-2.01378693203115,0.47917366027832,-0.904292408620016
2.62145042419434,-1.33043320596729,0.330628220235006,-2.01378693203115,0.479137897491455,-0.904280010853903
2.62141442298889,-1.33044512689624,0.330628220235006,-2.01383509258413,0.479161739349365,-0.904304329548971
2.62143850326538,-1.33042128503833,0.330616776143209,-2.01381077388906,0.47917366027832,-0.904316250477926
2.62145042419434,-1.33044512689624,0.330628220235006,-2.01381077388906,0.479137897491455,-0.904280010853903
2.62145042419434,-1.33043320596729,0.330616776143209,-2.01377501110219,0.479125499725342,-0.904328171406881
2.62145042419434,-1.33046896875415,0.330605332051412,-2.01378693203115,0.479161739349365,-0.904292408620016
2.62142658233643,-1.33046896875415,0.330605332051412,-2.01378693203115,0.479185581207275,-0.904292408620016
2.62145042419434,-1.33048136652026,0.330591980610983,-2.01382317165517,0.479149341583252,-0.904304329548971
2.62146258354187,-1.33042128503833,0.330591980610983,-2.0137988529601,0.479149341583252,-0.904304329548971
2.62147450447083,-1.33043320596729,0.330616776143209,-2.01376309017324,0.479137897491455,-0.904304329548971
2.62145042419434,-1.33039744318042,0.330591980610983,-2.01383509258413,0.47917366027832,-0.904328171406881
2.62143850326538,-1.33044512689624,0.330605332051412,-2.01378693203115,0.479161739349365,-0.904304329548971
2.62147450447083,-1.33042128503833,0.330628220235006,-2.01378693203115,0.47917366027832,-0.904328171406881
2.62145042419434,-1.3304570478252,0.330628220235006,-2.01377501110219,0.47919750213623,-0.904304329548971
2.62145042419434,-1.33042128503833,0.330605332051412,-2.0137988529601,0.479113101959229,-0.904304329548971
2.62143850326538,-1.33044512689624,0.330605332051412,-2.0137988529601,0.479185581207275,-0.904292408620016
2.62142658233643,-1.33040888727222,0.330605332051412,-2.01378693203115,0.479161739349365,-0.904292408620016
2.62146258354187,-1.3304570478252,0.330605332051412,-2.01376309017324,0.479161739349365,-0.904304329548971
2.62145042419434,-1.33044512689624,0.330591980610983,-2.01378693203115,0.479149341583252,-0.904316250477926
2.62145042419434,-1.33044512689624,0.330591980610983,-2.01382317165517,0.479185581207275,-0.904292408620016
2.62141442298889,-1.3304570478252,0.330628220235006,-2.01377501110219,0.479161739349365,-0.904268566762106
2.62147450447083,-1.33046896875415,0.330591980610983,-2.01382317165517,0.47917366027832,-0.904304329548971
2.62151050567627,-1.33043320596729,0.330580536519186,-2.0137988529601,0.47917366027832,-0.904316250477926
2.62146258354187,-1.33049281061206,0.330591980610983,-2.01382317165517,0.479185581207275,-0.904268566762106
2.62145042419434,-1.3304570478252,0.330605332051412,-2.01378693203115,0.479149341583252,-0.904292408620016
2.62147450447083,-1.33049281061206,0.330591980610983,-2.0137988529601,0.479185581207275,-0.904304329548971
2.62145042419434,-1.33043320596729,0.330628220235006,-2.01376309017324,0.479137897491455,-0.904292408620016
2.62151050567627,-1.33048136652026,0.330580536519186,-2.01378693203115,0.479137897491455,-0.904280010853903
2.62145042419434,-1.33048136652026,0.330591980610983,-2.01381077388906,0.479149341583252,-0.904280010853903
2.62143850326538,-1.33040888727222,0.330591980610983,-2.01381077388906,0.479185581207275,-0.904292408620016
2.62147450447083,-1.33043320596729,0.330591980610983,-2.01378693203115,0.479185581207275,-0.904292408620016
2.62142658233643,-1.33046896875415,0.330591980610983,-2.0137988529601,0.47917366027832,-0.904268566762106
2.62145042419434,-1.3304570478252,0.330591980610983,-2.0137988529601,0.479161739349365,-0.904304329548971
2.62149858474731,-1.3304570478252,0.330605332051412,-2.0137988529601,0.479161739349365,-0.904292408620016
2.62143850326538,-1.33043320596729,0.330628220235006,-2.01381077388906,0.479149341583252,-0.904280010853903
2.62142658233643,-1.33043320596729,0.330569092427389,-2.01378693203115,0.47917366027832,-0.904304329548971
2.62148666381836,-1.33048136652026,0.330605332051412,-2.0137988529601,0.47919750213623,-0.904280010853903
2.62142658233643,-1.33044512689624,0.330591980610983,-2.01378693203115,0.479161739349365,-0.904316250477926
2.62147450447083,-1.33046896875415,0.330580536519186,-2.01376309017324,0.47917366027832,-0.904328171406881
2.62145042419434,-1.3304570478252,0.330605332051412,-2.0137988529601,0.47919750213623,-0.904280010853903
2.62145042419434,-1.33044512689624,0.330628220235006,-2.01378693203115,0.479185581207275,-0.904316250477926
2.62142658233643,-1.33044512689624,0.330605332051412,-2.01378693203115,0.47917366027832,-0.904304329548971
2.62148666381836,-1.33043320596729,0.330591980610983,-2.01378693203115,0.479149341583252,-0.904304329548971
2.62142658233643,-1.3304570478252,0.330580536519186,-2.01377501110219,0.47917366027832,-0.904292408620016
2.62142658233643,-1.33046896875415,0.330605332051412,-2.01381077388906,0.47917366027832,-0.904304329548971
2.62145042419434,-1.33046896875415,0.330580536519186,-2.01382317165517,0.479161739349365,-0.904316250477926
2.62146258354187,-1.33046944559131,0.330569092427389,-2.01381077388906,0.479149341583252,-0.904280010853903
2.62140250205994,-1.33051760614429,0.330569092427389,-2.01384701351308,0.47917366027832,-0.904268566762106
2.62145042419434,-1.33050616205249,0.330521408711569,-2.0137988529601,0.479149341583252,-0.904280010853903
2.62145042419434,-1.33055479944263,0.330521408711569,-2.01383509258413,0.479185581207275,-0.904292408620016
2.62146258354187,-1.33065112054858,0.330544296895162,-2.01383509258413,0.479149341583252,-0.904316250477926
2.62142658233643,-1.33073599756274,0.330460373555319,-2.01385893444204,0.47917366027832,-0.904292408620016
2.62145042419434,-1.3308323186687,0.330483261738912,-2.01383509258413,0.47917366027832,-0.904268566762106
2.62143850326538,-1.33091624200854,0.330433670674459,-2.01383509258413,0.479185581207275,-0.904304329548971
2.62147450447083,-1.33103640497241,0.330290619526998,-2.01384701351308,0.479137897491455,-0.904304329548971
2.62147450447083,-1.33109648645435,0.330206696187155,-2.01385893444204,0.479185581207275,-0.904352013264791
2.62146258354187,-1.33123953760181,0.330182854329244,-2.01383509258413,0.479137897491455,-0.904304329548971
2.62142658233643,-1.33132203043018,0.330050293599264,-2.01388325313711,0.47917366027832,-0.904292408620016
2.62147450447083,-1.33138163507495,0.330038849507467,-2.01388325313711,0.479149341583252,-0.904292408620016
2.62141442298889,-1.331369714146,0.329954926167623,-2.01391901592397,0.479149341583252,-0.904292408620016
2.62147450447083,-1.33141835153613,0.329907242451803,-2.01390709499502,0.479137897491455,-0.904280010853903
2.62141442298889,-1.33149035394702,0.32987100282778,-2.01391901592397,0.479137897491455,-0.904268566762106
2.62146258354187,-1.33158715189014,0.329798523579733,-2.01391901592397,0.479137897491455,-0.904280010853903
2.62147450447083,-1.33164771020923,0.329665009175436,-2.01390709499502,0.479125499725342,-0.904280010853903
2.62145042419434,-1.33179314554248,0.329592529927389,-2.01395525554799,0.47917366027832,-0.904292408620016
2.62142658233643,-1.33202441156421,0.329497162495748,-2.01391901592397,0.479161739349365,-0.904304329548971
2.62141442298889,-1.33241827905688,0.329428497944967,-2.01393093685293,0.479161739349365,-0.904268566762106
2.62137794494629,-1.3331106466106,0.329512421284811,-2.01393093685293,0.479137897491455,-0.904304329548971
2.6214382648468,-1.33403094232593,0.329392258320944,-2.01395525554799,0.47917366027832,-0.904256168995992
2.62141442298889,-1.33497841775928,0.329151932393209,-2.01395525554799,0.479161262512207,-0.904292408620016
2.62134218215942,-1.3362558645061,0.328966919575826,-2.01394333461904,0.479101181030273,-0.904244248067037
2.62142634391785,-1.33764822900806,0.328548256550924,-2.01394333461904,0.479137420654297,-0.904268566762106
2.62139058113098,-1.33934910715137,0.327939812337057,-2.01394333461904,0.479149341583252,-0.904292408620016
2.62141418457031,-1.34111721933398,0.32712442079653,-2.01395525554799,0.479149341583252,-0.904280010853903
2.62139058113098,-1.34320958078418,0.326431099568502,-2.01395525554799,0.479125499725342,-0.904256168995992
2.62137842178345,-1.34548600137744,0.325915161763326,-2.01399101833486,0.47917366027832,-0.904268566762106
2.62139058113098,-1.34796078622852,0.325547043477194,-2.01396717647695,0.479137897491455,-0.904244248067037
2.62139058113098,-1.34921915948901,0.325255219136373,-2.01394285778188,0.479113101959229,-0.904244248067037
2.62139058113098,-1.352947549229,0.323805634175436,-2.01394285778188,0.479125499725342,-0.904232327138082
2.62136650085449,-1.35673888147388,0.321915451680319,-2.01390709499502,0.479065418243408,-0.904268089924948
2.62131857872009,-1.35933525980029,0.320537392293112,-2.01394285778188,0.479065418243408,-0.904244248067037
2.62136650085449,-1.36188586175952,0.319081131611959,-2.0139790974059,0.479113101959229,-0.904256168995992
2.62139058113098,-1.36451752603564,0.317623917256491,-2.01391901592397,0.479065418243408,-0.904196564351217
2.62136650085449,-1.36836655557666,0.314962212239401,-2.01394285778188,0.479101181030273,-0.904232327138082
2.62135457992554,-1.37104113519702,0.313158814107076,-2.0138946972289,0.479065418243408,-0.904184643422262
2.62133049964905,-1.3737633985332,0.311300102864401,-2.01394285778188,0.479077339172363,-0.904110256825582
2.62133049964905,-1.37649424493823,0.309321228657858,-2.01390709499502,0.479041576385498,-0.903877083455221
2.62131857872009,-1.3790877622417,0.307098213826315,-2.01396717647695,0.479041576385498,-0.903678719197408
2.62136650085449,-1.38171179712329,0.304744545613424,-2.01390709499502,0.479053020477295,-0.903621975575582
2.62130641937256,-1.38431532800708,0.302190605794088,-2.01390709499502,0.478981018066406,-0.903646294270651
2.62135457992554,-1.38698943079028,0.299577538167135,-2.01391901592397,0.478967666625977,-0.90357476869692
2.62131857872009,-1.38967926919971,0.296838585530416,-2.01388325313711,0.478858470916748,-0.903610531483785
2.62127041816711,-1.3949979108623,0.29079515138735,-2.01393093685293,0.478157520294189,-0.903491322194235
2.62130641937256,-1.39768870294604,0.287483994160787,-2.01393093685293,0.477162837982178,-0.903502766286032
2.62130641937256,-1.40038712442432,0.283968750630514,-2.01393093685293,0.475452423095703,-0.90346604982485
2.62133049964905,-1.40317709863696,0.28018838564028,-2.01393093685293,0.473129749298096,-0.903382603322164
2.62133049964905,-1.40595372140918,0.276152435933248,-2.01393093685293,0.470320701599121,-0.903334919606344
2.62131857872009,-1.40862162530933,0.271796051655905,-2.0138946972289,0.466813564300537,-0.903262917195455
2.62130641937256,-1.41121085107837,0.267237488423483,-2.01388325313711,0.462399482727051,-0.903215233479635
2.62131857872009,-1.41377337396655,0.262543503438131,-2.01388325313711,0.457263946533203,-0.903190914784567
2.62130641937256,-1.41620953500781,0.257508103047506,-2.01385893444204,0.451344013214111,-0.903119389210836
2.62128257751465,-1.41857607782397,0.252105538045065,-2.01384701351308,0.44513463973999,-0.903083149586813
2.62127041816711,-1.41968996942554,0.249237839375631,-2.01387085537099,0.442020893096924,-0.903023068104879
2.62127041816711,-1.42172987878833,0.243256394063131,-2.01385893444204,0.43541955947876,-0.902974907551901
2.62127041816711,-1.42353518426929,0.236934487019674,-2.01383509258413,0.428383350372314,-0.902843777333395
2.62127041816711,-1.4253409665874,0.230519119893209,-2.0137988529601,0.42119026184082,-0.902748409901754
2.62125849723816,-1.42692406595264,0.223694626485006,-2.01384701351308,0.414214134216309,-0.902748886738912
2.62127041816711,-1.42821867883716,0.216324631367819,-2.01382269481801,0.407315254211426,-0.90267783800234
2.6212465763092,-1.42881234109912,0.212562386189596,-2.0137988529601,0.404013633728027,-0.902642552052633
2.62131857872009,-1.43042452753101,0.200983826314108,-2.01384701351308,0.394091129302979,-0.902606789265768
2.62115979194641,-1.4318221372417,0.188715759907858,-2.01374973873281,0.385720729827881,-0.902570549641744
2.6212842464447,-1.43244059503589,0.180025879536764,-2.0137988529601,0.381136417388916,-0.902533356343405
2.62122249603271,-1.43286450326953,0.166089836751119,-2.01376309017324,0.376002311706543,-0.902376000081198
2.62121057510376,-1.43289215982471,0.156206909810201,-2.01378693203115,0.373689651489258,-0.902156654988424
2.62122249603271,-1.43294747293506,0.145868126546041,-2.01371492962026,0.371730804443359,-0.901746098195211
2.62123441696167,-1.43309195459399,0.135750595723287,-2.01371492962026,0.370151042938232,-0.901069943104879
2.62122249603271,-1.43331129968677,0.130680863057272,-2.01371492962026,0.369559288024902,-0.900384728108541
2.62118625640869,-1.43407948434863,0.1153190771686,-2.01370205501699,0.368678569793701,-0.896857563649313
2.62119841575623,-1.43441851556812,0.110297028218405,-2.0137144527831,0.368646144866943,-0.895340744649069
2.62115049362183,-1.43555338800464,0.0844667593585413,-2.01366676906728,0.368694305419922,-0.884140316640035
2.62116241455078,-1.43630202234302,0.0639331976519983,-2.01350702861928,0.368619918823242,-0.870367828999655
2.62119817733765,-1.43673165262256,0.0538528601275843,-2.01339926342153,0.368561744689941,-0.862113777791158
2.6211621761322,-1.4371498388103,0.044140640889303,-2.01340260128164,0.368526458740234,-0.852908436452047
2.6211142539978,-1.43739207208667,0.0343616644488733,-2.01336636165761,0.368525981903076,-0.842777077351705
2.62109041213989,-1.43735487878833,0.0196779409991663,-2.01336683849477,0.368451595306396,-0.826362435017721
2.62112641334534,-1.43739016473804,0.0103824774371546,-2.01336683849477,0.368405818939209,-0.814913574849264
2.62115049362183,-1.43735487878833,0.00570375124086553,-2.01336683849477,0.368418216705322,-0.809037510548727
2.62106490135193,-1.43728287637744,-0.00865459442138672,-2.01337875942373,0.368110656738281,-0.791223351155416
2.62105417251587,-1.43739111841235,-0.0224981307983398,-2.01337875942373,0.367701053619385,-0.773549381886617
2.62100625038147,-1.43724711359058,-0.0320539474487305,-2.01331867794179,0.367135524749756,-0.762382332478658
2.62101793289185,-1.43733103693042,-0.0416011810302734,-2.01337875942373,0.365987777709961,-0.751955811177389
2.62097024917603,-1.43738062799487,-0.0511436462402344,-2.01343884090566,0.364561080932617,-0.742427174245016
2.62095808982849,-1.43728287637744,-0.0609521865844727,-2.01337875942373,0.362889766693115,-0.733916107808248
2.62091016769409,-1.43740303934131,-0.0813121795654297,-2.01339068035268,0.358528614044189,-0.719980065022604
2.62087416648865,-1.43740303934131,-0.0863828659057617,-2.01337875942373,0.357503414154053,-0.717176739369528
2.62083578109741,-1.43731863916431,-0.0969343185424805,-2.01333107570791,0.355532169342041,-0.712480370198385
2.62075066566467,-1.43733103693042,-0.106085777282715,-2.01336683849477,0.353798866271973,-0.709215466176168
2.62062191963196,-1.43737872064624,-0.121462821960449,-2.01333107570791,0.350643634796143,-0.705053631459371
2.62055802345276,-1.43731863916431,-0.126716613769531,-2.0133425197997,0.349398136138916,-0.703845802937643
2.61972594261169,-1.43745167673145,-0.151500701904297,-2.01333107570791,0.342755317687988,-0.698344055806295
2.61877632141113,-1.43743832529102,-0.162205696105957,-2.01335491756582,0.339540958404541,-0.695179764424459
2.61732864379883,-1.43741448343311,-0.177510261535645,-2.01328243831777,0.334445476531982,-0.689576450978414
2.61606860160828,-1.43742640436206,-0.187705039978027,-2.01327099422597,0.331079959869385,-0.685361210499899
2.61475849151611,-1.43736679971729,-0.197817802429199,-2.0132581196227,0.327483177185059,-0.680590931569235
2.61335444450378,-1.43749936044727,-0.206372261047363,-2.01327051738881,0.324942588806152,-0.676237885151998
2.61248350143433,-1.43742735803638,-0.211200714111328,-2.0132466755309,0.323673248291016,-0.67349082628359
2.61063385009766,-1.43737824380908,-0.220902442932129,-2.01323284725332,0.321667194366455,-0.667589489613668
2.60860896110535,-1.43742640436206,-0.230206489562988,-2.01323427776479,0.319862842559814,-0.660959068928854
2.6074492931366,-1.43741496027026,-0.234731674194336,-2.01321043590688,0.319325923919678,-0.657463375722067
2.60522699356079,-1.43737824380908,-0.243718147277832,-2.01317467312002,0.31855297088623,-0.650199238454
2.60411643981934,-1.43735440195117,-0.248225212097168,-2.01317467312002,0.318065166473389,-0.646497551594869
2.60191607475281,-1.43739016473804,-0.255986213684082,-2.01321043590688,0.31725549697876,-0.640075985585348
2.60062599182129,-1.43741448343311,-0.260432243347168,-2.01323475460195,0.316827774047852,-0.636356178914205
2.59924602508545,-1.43741448343311,-0.264838218688965,-2.01317467312002,0.316587448120117,-0.632540051137106
2.59625840187073,-1.43743832529102,-0.273344993591309,-2.01322283367299,0.316418647766113,-0.624839607869283
2.59106349945068,-1.43741448343311,-0.28636646270752,-2.01317467312002,0.316347599029541,-0.613395516072408
2.58763027191162,-1.43741448343311,-0.294015884399414,-2.01319851497793,0.31639575958252,-0.606851402913229
2.58329486846924,-1.43743832529102,-0.302552223205566,-2.01321043590688,0.31641960144043,-0.599355045949117
2.57587647438049,-1.43737872064624,-0.315950393676758,-2.01322283367299,0.316383838653564,-0.588810269032614
2.57031559944153,-1.43741448343311,-0.324929237365723,-2.01323475460195,0.31639575958252,-0.582692448292867
2.56525373458862,-1.43743832529102,-0.332766532897949,-2.01322283367299,0.31639575958252,-0.578042332326071
2.55913090705872,-1.43739016473804,-0.342009544372559,-2.01318659404897,0.316383838653564,-0.573463265095846
2.55274438858032,-1.43742640436206,-0.351447105407715,-2.01321091274404,0.316455364227295,-0.569330040608541
2.54606008529663,-1.43748648584399,-0.360990524291992,-2.01323475460195,0.316443920135498,-0.565705601369039
2.54269361495972,-1.43741496027026,-0.365771293640137,-2.01321091274404,0.316444396972656,-0.564230744038717
2.53583765029907,-1.43737824380908,-0.375700950622559,-2.01322283367299,0.316431999206543,-0.561916176472799
2.52573823928833,-1.43742688119922,-0.389569282531738,-2.01319851497793,0.316468238830566,-0.559365574513571
2.51806688308716,-1.43751128137622,-0.39991569519043,-2.01321091274404,0.316553115844727,-0.558439079915182
2.51035070419312,-1.43743832529102,-0.410552024841309,-2.01317467312002,0.316516399383545,-0.558120552693502
2.49855470657349,-1.4375856679729,-0.426539421081543,-2.01321091274404,0.316726684570312,-0.558099095021383
2.48776483535767,-1.43749840677295,-0.441874504089355,-2.01317467312002,0.31685209274292,-0.558087650929586
2.48000955581665,-1.43759520471606,-0.453064918518066,-2.01321091274404,0.316949844360352,-0.558087650929586
2.47244310379028,-1.43771822870288,-0.464041709899902,-2.01313843349599,0.317110061645508,-0.55806285539736
2.46477174758911,-1.4377020162395,-0.475260734558105,-2.01312651256704,0.317215442657471,-0.558074776326315
2.45806550979614,-1.43777592599902,-0.484898567199707,-2.01313843349599,0.317434787750244,-0.558026615773336
2.45044183731079,-1.43791277826343,-0.495687484741211,-2.01312651256704,0.317762851715088,-0.55794078508486
2.44311475753784,-1.4379895490459,-0.506497383117676,-2.01299204448842,0.318058013916016,-0.557719532643453
2.43596410751343,-1.43831856668506,-0.516970634460449,-2.01295723537588,0.318371295928955,-0.55739146867861
2.42891359329224,-1.43908341348682,-0.526647567749023,-2.01279701809072,0.318669319152832,-0.556907955800192
2.42265176773071,-1.44005711496387,-0.534816741943359,-2.0126272640624,0.318909645080566,-0.556398216878073
2.41568613052368,-1.4413812917522,-0.543891906738281,-2.01238598446035,0.319263458251953,-0.555258576069967
2.40887975692749,-1.44310172021899,-0.552178382873535,-2.01208271602773,0.320009708404541,-0.552675549183981
2.40193223953247,-1.4450434011272,-0.560318946838379,-2.01160969356679,0.321385860443115,-0.548744026814596
2.39141511917114,-1.44876320779834,-0.57184886932373,-2.01035084346914,0.323782444000244,-0.539904896412985
2.38536691665649,-1.45144541681323,-0.57807731628418,-2.00906624416494,0.325592517852783,-0.533142391835348
2.37847566604614,-1.45487721384082,-0.58460521697998,-2.00728335003042,0.328166484832764,-0.524004761372701
2.3715033531189,-1.4588316243938,-0.590798377990723,-2.00518622020864,0.331329345703125,-0.514046970997946
2.36106729507446,-1.46560652673755,-0.599096298217773,-2.00227846721792,0.336464405059814,-0.497420612965719
2.35499429702759,-1.47011788309131,-0.603232383728027,-2.00043215374135,0.339734554290771,-0.487042729054586
2.34828424453735,-1.475741223698,-0.607302665710449,-1.99848713497304,0.343733310699463,-0.474544827138082
2.33839654922485,-1.48507197320972,-0.612175941467285,-1.99690260509633,0.35015344619751,-0.455302540455953
2.33170366287231,-1.49192793787036,-0.614678382873535,-1.99651493648672,0.354928016662598,-0.44290525117983
2.32585382461548,-1.49831517160449,-0.616464614868164,-1.99628891567373,0.359638214111328,-0.432562176381246
2.322594165802,-1.50215371072803,-0.617199897766113,-1.99622215847158,0.362576961517334,-0.426980797444479
2.31623888015747,-1.50990231454883,-0.618432998657227,-1.99619974712514,0.369020462036133,-0.416487518941061
2.30691862106323,-1.5221689504436,-0.619147300720215,-1.99623598674917,0.37927770614624,-0.402951542531149
2.30067873001099,-1.53094799936328,-0.619059562683105,-1.99618782619619,0.386425971984863,-0.395932976399557
2.29750967025757,-1.53526289880786,-0.619132041931152,-1.99621214489126,0.390029430389404,-0.393099610005514
2.29129838943481,-1.54410107553516,-0.619108200073242,-1.9962002239623,0.397880077362061,-0.38922626176943
2.2850136756897,-1.55285723627124,-0.619095802307129,-1.99621214489126,0.405821323394775,-0.386695210133688
2.27846097946167,-1.56183512628589,-0.619132041931152,-1.9962002239623,0.413417339324951,-0.385585133229391
2.27161455154419,-1.57098021129751,-0.619120597839355,-1.99621214489126,0.420750617980957,-0.385449711476461
2.26466798782349,-1.58015503505849,-0.619095802307129,-1.99622406582021,0.428471565246582,-0.385413471852438
2.2543797492981,-1.59390749553823,-0.619107246398926,-1.99622406582021,0.43983793258667,-0.385437790547506
2.24737977981567,-1.60311283687734,-0.61919116973877,-1.99626030544423,0.446756362915039,-0.385401550923483
2.2405571937561,-1.61224903682851,-0.619143486022949,-1.9962002239623,0.453444480895996,-0.385413471852438
2.23356008529663,-1.62134375194692,-0.619143486022949,-1.99622406582021,0.45997428894043,-0.385401550923483
2.22311162948608,-1.6349040470519,-0.619179725646973,-1.99627222637319,0.468562602996826,-0.385425392781393
2.21967744827271,-1.6393157444396,-0.619143486022949,-1.99622406582021,0.470999717712402,-0.385425392781393
2.20945119857788,-1.65255655864858,-0.619120597839355,-1.99623598674917,0.477267742156982,-0.385425392781393
2.2060980796814,-1.6570626697936,-0.619143486022949,-1.99626030544423,0.478873729705811,-0.385389629994528
2.19653654098511,-1.6701995335021,-0.619168281555176,-1.99622406582021,0.483350276947021,-0.385425392781393
2.19072771072388,-1.67875685314321,-0.619155883789062,-1.99624790767812,0.485992908477783,-0.385413471852438
2.18796873092651,-1.68306603054189,-0.619143486022949,-1.99622406582021,0.487309455871582,-0.385425392781393
2.18528413772583,-1.68728890041494,-0.619143486022949,-1.99626030544423,0.488611698150635,-0.385413471852438
2.17767477035522,-1.70004953960561,-0.619143486022949,-1.99628414730214,0.492147922515869,-0.385437313710348
2.1731104850769,-1.70835175136709,-0.619132041931152,-1.99624790767812,0.494659900665283,-0.385413471852438
2.16881132125854,-1.71663822750234,-0.619095802307129,-1.99625982860708,0.497009754180908,-0.385389629994528
2.16324281692505,-1.72898926357412,-0.619120597839355,-1.99625982860708,0.500057697296143,-0.385401550923483
2.16001558303833,-1.73706020931386,-0.619084358215332,-1.99623598674917,0.5025634765625,-0.385425392781393
2.15705442428589,-1.74513640026235,-0.619107246398926,-1.99621214489126,0.505362987518311,-0.385377709065573
2.15045976638794,-1.76529326061391,-0.619143486022949,-1.99616303066396,0.512844085693359,-0.385413471852438
2.14682531356812,-1.77710976223134,-0.619059562683105,-1.99609102825307,0.518468856811523,-0.385341469441549
2.14429330825806,-1.78482737163686,-0.619095802307129,-1.996066709558,0.522237777709961,-0.385352913533346
2.14300012588501,-1.7886692486205,-0.619120597839355,-1.99605478862905,0.524173736572266,-0.385304752980367
2.13901376724243,-1.79964174846792,-0.619095802307129,-1.99584593395376,0.529049873352051,-0.385256115590231
2.13463449478149,-1.8101765118041,-0.619072914123535,-1.99525799373769,0.531995296478271,-0.385024372731344
2.13303422927856,-1.81358828167104,-0.619084358215332,-1.99493136028432,0.53253698348999,-0.384890858327047
2.13142251968384,-1.81685509304189,-0.619155883789062,-1.99460663417959,0.532846927642822,-0.384719673787252
2.12809038162231,-1.82313027004384,-0.619095802307129,-1.99384274105214,0.532952785491943,-0.384225193654196
2.12443113327026,-1.82891668895864,-0.619155883789062,-1.99275173763418,0.53298807144165,-0.383598152791158
2.12244462966919,-1.83169998745107,-0.619095802307129,-1.99196400264882,0.533012390136719,-0.383224312459127
2.11581659317017,-1.83956207851552,-0.619132041931152,-1.98952831844472,0.533000469207764,-0.380899254475729
2.11342191696167,-1.84203018764638,-0.619143486022949,-1.98852743724965,0.53296422958374,-0.379746262227194
2.10829782485962,-1.84667029003286,-0.619143486022949,-1.98647465328359,0.533000469207764,-0.37718898454775
2.10566377639771,-1.84883608440542,-0.619132041931152,-1.98550333599233,0.533000469207764,-0.375768486653463
2.10036611557007,-1.85290922741079,-0.619168281555176,-1.98374952892446,0.53296422958374,-0.372335259114401
2.09506845474243,-1.85656990627431,-0.619155883789062,-1.98225130657339,0.532976150512695,-0.368929688130514
2.09244012832642,-1.85830845455312,-0.619155883789062,-1.98140730480337,0.532952308654785,-0.367167774830953
2.08977556228638,-1.86011471370839,-0.619179725646973,-1.98061670879506,0.53294038772583,-0.365354839955465
2.08700037002563,-1.86181034664297,-0.61919116973877,-1.97978701213979,0.53296422958374,-0.363524262105123
2.0816445350647,-1.86535467723989,-0.61919116973877,-1.97819580654287,0.533024311065674,-0.360004727040426
2.0764365196228,-1.86908640483999,-0.619168281555176,-1.97677483181142,0.53294038772583,-0.356289211903707
2.07159376144409,-1.87287201503896,-0.61919116973877,-1.97570862392568,0.532976150512695,-0.352373425160543
2.06940317153931,-1.87478460888051,-0.619204521179199,-1.97510304073476,0.533012390136719,-0.350198094044821
2.06329774856567,-1.88067593197011,-0.61919116973877,-1.97346081356191,0.53298807144165,-0.343130413685934
2.05824613571167,-1.88690199474477,-0.619204521179199,-1.9722105465331,0.533012390136719,-0.335051838551657
2.05530786514282,-1.89132942775869,-0.61919116973877,-1.97127022365713,0.53298807144165,-0.329196278248922
2.05255365371704,-1.89611258129262,-0.619204521179199,-1.97035421947622,0.532866477966309,-0.322560612355367
2.04976511001587,-1.90126766780996,-0.619204521179199,-1.96935762981557,0.532843589782715,-0.314460102711813
2.04685068130493,-1.90669502834463,-0.619179725646973,-1.96777166942739,0.53283166885376,-0.304939572011129
2.04201745986938,-1.91514076809072,-0.619204521179199,-1.96448387722158,0.53283166885376,-0.287644211445944
2.03845357894897,-1.92092766384267,-0.619215965270996,-1.96199192623281,0.532820224761963,-0.27358848253359
2.03457117080688,-1.92673887828969,-0.619227409362793,-1.95909895519399,0.53280782699585,-0.258038822804586
2.03238534927368,-1.92969622234487,-0.619179725646973,-1.95744194606923,0.532819271087646,-0.249590698872701
2.0301079750061,-1.93274464229726,-0.619179725646973,-1.9557367763915,0.532771587371826,-0.24076491991152
2.02508401870728,-1.93889298061513,-0.61925220489502,-1.95233120540761,0.532711505889893,-0.222130123768942
2.01946973800659,-1.9451281032958,-0.619227409362793,-1.94879450420522,0.532711505889893,-0.202584568654196
2.01340532302856,-1.95137657741689,-0.619215965270996,-1.94530167202138,0.532711982727051,-0.18290883699526
2.0071177482605,-1.95749392131948,-0.619227409362793,-1.94213070491933,0.532663822174072,-0.163466278706686
1.99743700027466,-1.9666182003417,-0.61919116973877,-1.93800844768667,0.532675743103027,-0.135454003010885
1.99063730239868,-1.97268738369131,-0.619215965270996,-1.93564476589345,0.532651901245117,-0.118322197590963
1.98035287857056,-1.98164000133657,-0.619227409362793,-1.93348087886953,0.532688140869141,-0.0958750883685511
1.97374582290649,-1.98752226452016,-0.619263648986816,-1.93274225811147,0.532688140869141,-0.083503548298971
1.96426248550415,-1.9966041050353,-0.61919116973877,-1.93225826839589,0.532688140869141,-0.0699775854693812
1.95531129837036,-2.00616087536001,-0.619215965270996,-1.93205608944082,0.532688140869141,-0.0627830664264124
1.95000028610229,-2.01287855724477,-0.619215965270996,-1.93197264293813,0.532723903656006,-0.0614970366107386
1.94539880752563,-2.01968969921255,-0.619204521179199,-1.93186249355459,0.532676219940186,-0.0619834105121058
1.94333219528198,-2.02319206813955,-0.619132041931152,-1.93178572277212,0.532688140869141,-0.0622809568988245
1.93755102157593,-2.03410067180776,-0.619143486022949,-1.93061174968862,0.532652378082275,-0.0627558867083948
1.93403291702271,-2.04180874447011,-0.619168281555176,-1.92903008083486,0.532688140869141,-0.0627415815936487
1.93236207962036,-2.04567780117177,-0.619155883789062,-1.92809404949331,0.532723903656006,-0.0627654234515589
1.92904615402222,-2.05363955120229,-0.619143486022949,-1.9256025753417,0.532700061798096,-0.0627778212176722
1.92424345016479,-2.06597628215932,-0.619143486022949,-1.92054524044179,0.532711982727051,-0.0627535025226038
1.92096090316772,-2.07446112255239,-0.619119644165039,-1.91612829784536,0.532700061798096,-0.0627415815936487
1.91776037216187,-2.08284296611928,-0.619095802307129,-1.91071238140249,0.532736301422119,-0.0627654234515589
1.91261529922485,-2.09563269237661,-0.619083404541016,-1.90084900478506,0.532760143280029,-0.0627654234515589
1.91088628768921,-2.0999657116332,-0.619071960449219,-1.89715113262319,0.532736301422119,-0.0627296606646937
1.90716791152954,-2.10866322139882,-0.619084358215332,-1.88900293926381,0.532748222351074,-0.0627058188067835
1.90113878250122,-2.12155928234243,-0.619059562683105,-1.87529148677968,0.532748222351074,-0.0627177397357386
1.89898347854614,-2.12585224727773,-0.619034767150879,-1.87045826534414,0.532772541046143,-0.0627415815936487
1.89441061019897,-2.13451065639638,-0.619095802307129,-1.86025490383291,0.532736301422119,-0.0627654234515589
1.89212274551392,-2.13874497036123,-0.619059562683105,-1.8550549946227,0.532760143280029,-0.0627296606646937
1.88519239425659,-2.15121283153676,-0.619036674499512,-1.83821644405507,0.532723903656006,-0.0627535025226038
1.87834787368774,-2.16332974056386,-0.619048118591309,-1.82081474880361,0.532760143280029,-0.0627778212176722
1.87610960006714,-2.16718163112783,-0.619036674499512,-1.81483950237417,0.532784461975098,-0.0627535025226038
1.87174081802368,-2.17460789302968,-0.619095802307129,-1.80292620281362,0.532772541046143,-0.0627897421466272
1.86729001998901,-2.18172754863881,-0.619036674499512,-1.79096617321157,0.532772541046143,-0.0627778212176722
1.86298990249634,-2.18854012111806,-0.619059562683105,-1.77872814754629,0.532747745513916,-0.0627778212176722
1.85873937606812,-2.19505085567617,-0.619095802307129,-1.766734262506,0.532736301422119,-0.0628379026996058
1.85478162765503,-2.20115866283559,-0.619095802307129,-1.75538410762929,0.532723903656006,-0.0628741423236292
1.85292291641235,-2.20413269619131,-0.619072914123535,-1.74986900905752,0.532711982727051,-0.0628746191607874
1.84944009780884,-2.20972933391714,-0.619048118591309,-1.73949684719228,0.532700061798096,-0.0629475752459925
1.84636640548706,-2.21517099956655,-0.619095802307129,-1.73024286846303,0.532688140869141,-0.0630930105792444
1.84486150741577,-2.21775068859243,-0.619095802307129,-1.72589745144033,0.532688140869141,-0.0632017294513147
1.84206819534302,-2.22291721920156,-0.619084358215332,-1.71782936672353,0.532663822174072,-0.0634315649615687
1.8392596244812,-2.22784437755727,-0.619072914123535,-1.71081652263784,0.532651424407959,-0.0637543837176722
1.83640336990356,-2.2325192890563,-0.619107246398926,-1.70505203823232,0.532687664031982,-0.064026180897848
1.83499670028687,-2.23476805309438,-0.619084358215332,-1.70277466396474,0.532639503479004,-0.0641086737262171
1.83352899551392,-2.23691906551504,-0.619084358215332,-1.70078005413198,0.532626628875732,-0.0641430060016077
1.82916593551636,-2.2430468998351,-0.619095802307129,-1.69631304363393,0.532488346099854,-0.0643599669085901
1.82631063461304,-2.24684156994008,-0.619084358215332,-1.69451965908193,0.532071590423584,-0.0646289030658167
1.82335042953491,-2.25036587337636,-0.619143486022949,-1.69382156948232,0.531264305114746,-0.0652406851397913
1.82019758224487,-2.25357975582265,-0.619143486022949,-1.69383921245717,0.530077457427979,-0.0665476957904261
1.8168797492981,-2.25644983867788,-0.619095802307129,-1.69389929393911,0.528326988220215,-0.0688007513629358
1.81326150894165,-2.25892891506338,-0.619132041931152,-1.69385161022329,0.526069164276123,-0.0713613669024866
1.8113579750061,-2.26004471401357,-0.619132041931152,-1.6938754520812,0.524735450744629,-0.0725796858416956
1.80497694015503,-2.26288857082509,-0.619143486022949,-1.69388737301015,0.519885063171387,-0.076759163533346
1.80029630661011,-2.26448359111928,-0.619118690490723,-1.69385113338613,0.515884876251221,-0.0793054739581507
1.79786348342896,-2.26503290752553,-0.619154930114746,-1.69388737301015,0.513646125793457,-0.0807316938983362
1.79292440414429,-2.26603092769765,-0.619095802307129,-1.69386353115224,0.509191989898682,-0.0841181913958948
1.7903618812561,-2.26636376003408,-0.619046211242676,-1.69386353115224,0.506919384002686,-0.0858576933490198
1.78531980514526,-2.26671852687978,-0.619132995605469,-1.6938754520812,0.502360820770264,-0.0896161238299769
1.77809476852417,-2.26663174251699,-0.619034767150879,-1.69381537059926,0.496645450592041,-0.0960329214679163
1.77135229110718,-2.26665653804922,-0.619072914123535,-1.6938754520812,0.492761611938477,-0.102677647267477
1.76749277114868,-2.26665653804922,-0.619059562683105,-1.69381537059926,0.492167949676514,-0.107130352650778
1.76420545578003,-2.26670422176504,-0.619108200073242,-1.69383921245717,0.492208003997803,-0.111194435750143
1.76037931442261,-2.2667285404601,-0.619108200073242,-1.69386353115224,0.492170810699463,-0.117029015217916
1.75938558578491,-2.26670422176504,-0.619120597839355,-1.69385161022329,0.492195129394531,-0.118949715291158
1.75723600387573,-2.26682819942617,-0.619107246398926,-1.69386353115224,0.492218971252441,-0.12432843843569
1.75640916824341,-2.26697125057363,-0.619095802307129,-1.69386353115224,0.492183208465576,-0.12767726579775
1.75578355789185,-2.26709236721181,-0.619095802307129,-1.69383968929433,0.492242813110352,-0.130337540303366
1.75515508651733,-2.26742424587392,-0.619132041931152,-1.69380344967031,0.492207050323486,-0.132297817860739
1.75451517105103,-2.26793589214467,-0.619036674499512,-1.69380344967031,0.492170333862305,-0.133106533681051
1.7539381980896,-2.26902308086538,-0.619048118591309,-1.69380201915883,0.49215841293335,-0.133097950612203
1.75258302688599,-2.27107967952871,-0.619095802307129,-1.6937910519042,0.492158889770508,-0.13309890428652
1.75140333175659,-2.27271713832998,-0.619035720825195,-1.69361700634145,0.492110252380371,-0.1330512205707
1.75002431869507,-2.27461685756826,-0.619036674499512,-1.69349970440053,0.492123126983643,-0.133086983357565
1.74842882156372,-2.27664007763051,-0.619072914123535,-1.69321503261709,0.492172241210938,-0.1330512205707
1.74651098251343,-2.27887262920522,-0.619072914123535,-1.69256367305898,0.492218971252441,-0.13307506242861
1.74440717697144,-2.28130592922353,-0.619059562683105,-1.69133391002797,0.492230892181396,-0.133039299641744
1.74100255966187,-2.28528275112295,-0.619036674499512,-1.68916048626089,0.492268085479736,-0.133086983357565
1.73751974105835,-2.28967966655874,-0.619084358215332,-1.68713011364126,0.492279529571533,-0.133063141499655
1.73531198501587,-2.29264416317129,-0.619059562683105,-1.6863743267455,0.492329120635986,-0.133039299641744
1.7333025932312,-2.29569973568105,-0.619059562683105,-1.68575253109121,0.492489337921143,-0.13307506242861
1.73150587081909,-2.29877199749135,-0.619036674499512,-1.68507303814077,0.4926438331604,-0.13307506242861
1.73004388809204,-2.30192484478139,-0.619011878967285,-1.68419088939809,0.492825031280518,-0.133039299641744
1.72937726974487,-2.30357422451162,-0.619036674499512,-1.68365063289785,0.492932796478271,-0.13307506242861
1.72770738601685,-2.30844559291982,-0.619011878967285,-1.68220629314565,0.493429660797119,-0.133063141499655
1.7267689704895,-2.31165375332021,-0.619036674499512,-1.6808492145934,0.493724346160889,-0.133027378712789
1.72605085372925,-2.31476511577749,-0.619036674499512,-1.67948307613515,0.493913173675537,-0.133039299641744
1.72517538070679,-2.31896986583852,-0.619036674499512,-1.67698158840322,0.493897914886475,-0.133015457783834
1.72457838058472,-2.32153238872671,-0.619048118591309,-1.67512096981191,0.493886470794678,-0.133039776478903
1.72364187240601,-2.32387842754506,-0.619000434875488,-1.67293800930166,0.49393367767334,-0.133039776478903
1.7226767539978,-2.32592501262807,-0.619011878967285,-1.67079605678701,0.493945598602295,-0.1330512205707
1.72220087051392,-2.32690872768545,-0.619011878967285,-1.66962732891225,0.49390983581543,-0.1330512205707
1.72076082229614,-2.32873215297841,-0.619059562683105,-1.66708483318471,0.493935585021973,-0.133063141499655
1.71998739242554,-2.3296061954894,-0.619048118591309,-1.66570772747182,0.493909358978271,-0.13307506242861
1.71726846694946,-2.33191217998647,-0.618975639343262,-1.6614195309081,0.493945598602295,-0.13309890428652
1.71505975723267,-2.3333789310851,-0.619011878967285,-1.65815033535146,0.493982791900635,-0.133087460194723
1.71269130706787,-2.33467115978383,-0.619024276733398,-1.65463986019277,0.49398136138916,-0.1330512205707
1.70905494689941,-2.33615269283437,-0.618938446044922,-1.64997877697133,0.494005680084229,-0.13307506242861
1.70649671554565,-2.33691944698476,-0.619073867797852,-1.64705242733144,0.494054317474365,-0.133087460194723
1.70528793334961,-2.33718647579336,-0.619049072265625,-1.64578642467641,0.49407958984375,-0.133063141499655
1.70419931411743,-2.337366243402,-0.619024276733398,-1.64475550274038,0.494030475616455,-0.1330512205707
1.70094680786133,-2.33765043834829,-0.619036674499512,-1.64226498226308,0.494077205657959,-0.1330512205707
1.69902276992798,-2.33781351665639,-0.619011878967285,-1.64093508342885,0.494005680084229,-0.13307506242861
1.69727754592896,-2.33802475551748,-0.618975639343262,-1.63973488430166,0.494041442871094,-0.133087460194723
1.69586706161499,-2.33834423641347,-0.618988990783691,-1.63895048717641,0.494065284729004,-0.13307506242861
1.69462394714355,-2.33869804958486,-0.619036674499512,-1.63860048870229,0.494077205657959,-0.13309890428652
1.69414615631104,-2.33882774929189,-0.619036674499512,-1.63858189205312,0.494053363800049,-0.13309890428652
1.69373273849487,-2.33888401607656,-0.619024276733398,-1.63858284572744,0.494077205657959,-0.13309890428652
1.69330167770386,-2.33894219020986,-0.619024276733398,-1.63858284572744,0.494065284729004,-0.13307506242861
1.69261074066162,-2.33895363430166,-0.619000434875488,-1.6385833225646,0.49409008026123,-0.133063141499655
1.69195461273193,-2.33889307598256,-0.618988990783691,-1.63844933132314,0.494053363800049,-0.13307506242861
1.69171619415283,-2.33894123653554,-0.619011878967285,-1.63849892238759,0.494053363800049,-0.13309890428652
1.69149589538574,-2.3389531574645,-0.618988990783691,-1.63843931774282,0.494041442871094,-0.13309890428652
1.69091939926147,-2.33896507839345,-0.619000434875488,-1.63847508052968,0.494053363800049,-0.133039776478903
1.69058084487915,-2.33894123653554,-0.619000434875488,-1.63845123867177,0.494077682495117,-0.13307506242861
1.69015073776245,-2.33892931560659,-0.619011878967285,-1.63845123867177,0.494101524353027,-0.133087460194723
1.68924188613892,-2.33892883876943,-0.619000434875488,-1.63846315960073,0.494029521942139,-0.13309890428652
1.68872117996216,-2.33890499691152,-0.619000434875488,-1.63842691997671,0.494077205657959,-0.13309890428652
1.68746900558472,-2.33897699932241,-0.619000434875488,-1.63841404537343,0.494029521942139,-0.133111302052633
1.68518543243408,-2.33892883876943,-0.618939399719238,-1.63835253338003,0.49402904510498,-0.13307506242861
1.68323278427124,-2.33892883876943,-0.619000434875488,-1.63821854213857,0.494065284729004,-0.133087460194723
1.67988777160645,-2.33886923412465,-0.618964195251465,-1.63775267223501,0.494089603424072,-0.13309890428652
1.67605638504028,-2.33890499691152,-0.618940353393555,-1.63660826305532,0.494126796722412,-0.133087460194723
1.67236137390137,-2.33888115505361,-0.618927955627441,-1.63487591365957,0.494174957275391,-0.133123222981588
1.67018365859985,-2.33888115505361,-0.618975639343262,-1.63381971935415,0.49434757232666,-0.133111302052633
1.66827917098999,-2.33892883876943,-0.618964195251465,-1.63262953380727,0.494640350341797,-0.133123222981588
1.66665887832642,-2.33888115505361,-0.618988990783691,-1.63157143215322,0.495021820068359,-0.133099381123678
1.66548919677734,-2.33891691784047,-0.618988990783691,-1.63072075466298,0.495197296142578,-0.133099381123678
1.66458702087402,-2.33890499691152,-0.618964195251465,-1.62971558193349,0.495341777801514,-0.133099381123678
1.66374063491821,-2.3388573131957,-0.618975639343262,-1.62755598644399,0.495964050292969,-0.133111302052633
1.6635594367981,-2.33889307598256,-0.618952751159668,-1.62574209789419,0.496493816375732,-0.133099381123678
1.66356134414673,-2.33892883876943,-0.618927955627441,-1.62324204067373,0.497542381286621,-0.133135143910543
1.66357278823853,-2.33890499691152,-0.618940353393555,-1.62141146282339,0.498309135437012,-0.133099381123678
1.66357278823853,-2.33890499691152,-0.618975639343262,-1.61956371883535,0.499117851257324,-0.133135143910543
1.66352510452271,-2.33888115505361,-0.618940353393555,-1.61753096202993,0.500298023223877,-0.133111302052633
1.66349935531616,-2.33886923412465,-0.618916511535645,-1.61539568523549,0.502022743225098,-0.133111302052633
1.663414478302,-2.33890499691152,-0.618905067443848,-1.61299862484121,0.503665924072266,-0.133111302052633
1.6632285118103,-2.33891691784047,-0.618940353393555,-1.61057343105459,0.505369663238525,-0.133147064839498
1.66287136077881,-2.33891691784047,-0.618927955627441,-1.60832705120229,0.506561756134033,-0.133111302052633
1.66207456588745,-2.33891691784047,-0.618940353393555,-1.60589041332387,0.508008480072021,-0.133135143910543
1.66098260879517,-2.33891691784047,-0.618940353393555,-1.60345711330556,0.50931978225708,-0.133147064839498
1.65979957580566,-2.33891691784047,-0.618916511535645,-1.60118832210683,0.510221004486084,-0.133111302052633
1.65899610519409,-2.33894123653554,-0.618952751159668,-1.60005869487905,0.510642051696777,-0.133147064839498
1.65828275680542,-2.33894123653554,-0.618952751159668,-1.59886087993764,0.511115074157715,-0.133123222981588
1.65574598312378,-2.33888115505361,-0.618916511535645,-1.59523167232656,0.512527465820312,-0.133170906697408
1.65391206741333,-2.33891691784047,-0.618964195251465,-1.59273781398916,0.513408660888672,-0.133147064839498
1.65193033218384,-2.33889307598256,-0.618952751159668,-1.5905548534789,0.514317989349365,-0.133111302052633
1.64875888824463,-2.33894123653554,-0.618964195251465,-1.5884214840331,0.515354633331299,-0.133194748555319
1.64681386947632,-2.33884539226674,-0.618927955627441,-1.5874711475768,0.515953063964844,-0.133171383534567
1.64420652389526,-2.33890499691152,-0.618905067443848,-1.58660950283193,0.51658296585083,-0.133219544087545
1.64346981048584,-2.33891691784047,-0.618940353393555,-1.58649363140249,0.516739368438721,-0.133207146321432
1.64230966567993,-2.33889307598256,-0.618952751159668,-1.58646311382436,0.517177581787109,-0.1332314650165
1.64140939712524,-2.33888115505361,-0.618952751159668,-1.5864273510375,0.517884731292725,-0.133303944264547
1.64068841934204,-2.33892883876943,-0.618940353393555,-1.58643927196645,0.519824504852295,-0.133339230214254
1.64073038101196,-2.33889307598256,-0.618916511535645,-1.58636583904409,0.521442890167236,-0.133362595235006
1.64069414138794,-2.33889307598256,-0.618916511535645,-1.58635487178945,0.523385047912598,-0.133338276539938
1.64069414138794,-2.33889307598256,-0.618868827819824,-1.58634247402334,0.526468276977539,-0.133385960255758
1.64073038101196,-2.33891691784047,-0.618927955627441,-1.58613314251089,0.52949857711792,-0.133326355610983
1.64067029953003,-2.33890499691152,-0.618880271911621,-1.58598293880605,0.53045129776001,-0.133326355610983
1.64071893692017,-2.33892883876943,-0.618880271911621,-1.58538355449819,0.532151699066162,-0.133362118397848
1.64068269729614,-2.33886923412465,-0.618855476379395,-1.58366360286855,0.534430027008057,-0.133338276539938
1.64064645767212,-2.33889307598256,-0.618769645690918,-1.58241285900258,0.53596830368042,-0.133374039326803
1.64064645767212,-2.33886923412465,-0.618735313415527,-1.58083977321767,0.537207126617432,-0.133362118397848
1.64064645767212,-2.33886923412465,-0.618712425231934,-1.57790817836904,0.537933349609375,-0.133374039326803
1.64053630828857,-2.33890499691152,-0.618700981140137,-1.57451834301137,0.538204669952393,-0.133385960255758
1.64043998718262,-2.33886923412465,-0.618688583374023,-1.57189716915273,0.538361072540283,-0.133362118397848
1.64031887054443,-2.33888115505361,-0.618700981140137,-1.56756575525317,0.53840446472168,-0.133362118397848
1.64011240005493,-2.33886923412465,-0.618712425231934,-1.56422789514575,0.538428783416748,-0.133350197468893
1.63997888565063,-2.3388573131957,-0.618712425231934,-1.56103499353442,0.538441181182861,-0.133362118397848
1.63967514038086,-2.33883347133779,-0.618664741516113,-1.55802710474048,0.538549900054932,-0.133374516163961
1.63883781433105,-2.33888115505361,-0.618700981140137,-1.55377800882373,0.538536548614502,-0.133398358021871
1.63812971115112,-2.33888115505361,-0.61872386932373,-1.55091221750293,0.538500308990479,-0.133398358021871
1.63709926605225,-2.33886923412465,-0.61872386932373,-1.5470360082439,0.538536548614502,-0.133508030568258
1.6364598274231,-2.33886923412465,-0.618653297424316,-1.54481347024951,0.53858470916748,-0.133642498646871
1.63578462600708,-2.33889307598256,-0.61872386932373,-1.54287608087573,0.53858470916748,-0.13384992281069
1.63536691665649,-2.3388573131957,-0.618712425231934,-1.54139311731372,0.538548469543457,-0.134361569081442
1.6351466178894,-2.33886923412465,-0.618712425231934,-1.54051573694263,0.538536548614502,-0.135276619588033
1.63498020172119,-2.3388573131957,-0.61873722076416,-1.53979952753101,0.538560390472412,-0.136796299611227
1.6349949836731,-2.33886923412465,-0.618748664855957,-1.53906090677295,0.538560390472412,-0.13897687593569
1.63500738143921,-2.33886923412465,-0.618748664855957,-1.53871853769336,0.538524627685547,-0.140020195637838
1.63500738143921,-2.33886923412465,-0.61873722076416,-1.53867514551196,0.538560390472412,-0.140408817921774
1.6349949836731,-2.33886923412465,-0.618748664855957,-1.53865178049121,0.538524627685547,-0.140441242848532
1.63498306274414,-2.3388573131957,-0.618712425231934,-1.53863985956226,0.538524150848389,-0.140451733266012
1.63497114181519,-2.33888115505361,-0.61872386932373,-1.53862841547046,0.538536548614502,-0.140427891408102
1.63492345809937,-2.33890499691152,-0.61873722076416,-1.53866465509448,0.538560390472412,-0.140427891408102
1.63494729995728,-2.33886923412465,-0.61873722076416,-1.53862841547046,0.538560390472412,-0.140451733266012
1.63493537902832,-2.33884539226674,-0.61873722076416,-1.53859169900928,0.538572311401367,-0.140475575123922
1.63486099243164,-2.33888115505361,-0.618700981140137,-1.53860361993823,0.538547992706299,-0.140415493641989
1.63484716415405,-2.33886923412465,-0.61867618560791,-1.53855545938525,0.538547992706299,-0.140439812337057
1.6346001625061,-2.33886923412465,-0.618712425231934,-1.5385320943645,0.538536548614502,-0.140463654194967
1.63362073898315,-2.33886923412465,-0.618748664855957,-1.53851969659839,0.538560390472412,-0.140451733266012
1.63307046890259,-2.33888115505361,-0.61872386932373,-1.53857977808032,0.538572311401367,-0.140451733266012
1.63204383850098,-2.33883347133779,-0.61872386932373,-1.53850777566943,0.538547992706299,-0.140487496052877
1.630774974823,-2.33886923412465,-0.61872386932373,-1.53848250330005,0.538536548614502,-0.140451733266012
1.62882375717163,-2.3388573131957,-0.618688583374023,-1.53850825250659,0.538512229919434,-0.140463654194967
1.62804174423218,-2.33884539226674,-0.618688583374023,-1.53839810312305,0.538536548614502,-0.140475575123922
1.62572336196899,-2.33884539226674,-0.618748664855957,-1.53845961511646,0.53858470916748,-0.140475575123922
1.62408971786499,-2.33889307598256,-0.61872386932373,-1.53839905679736,0.538620471954346,-0.140523258839742
1.62246751785278,-2.33886923412465,-0.61873722076416,-1.53837569177661,0.538620471954346,-0.140487496052877
1.62101888656616,-2.3388573131957,-0.61872386932373,-1.53837569177661,0.53858470916748,-0.140487496052877
1.61976432800293,-2.33888115505361,-0.61872386932373,-1.53838808954272,0.53870677947998,-0.140499416981832
1.61867761611938,-2.33886923412465,-0.61872386932373,-1.53833992898975,0.539062976837158,-0.140475575123922
1.61813020706177,-2.33890499691152,-0.618712425231934,-1.5383632940105,0.539491176605225,-0.140499416981832
1.61801481246948,-2.33886923412465,-0.618748664855957,-1.5383518499187,0.540091514587402,-0.140523258839742
1.61804151535034,-2.33886923412465,-0.618760108947754,-1.53836377084766,0.540951728820801,-0.140523258839742
1.61807775497437,-2.33889307598256,-0.61872386932373,-1.53832753122363,0.542153835296631,-0.140487496052877
1.61803007125854,-2.33886923412465,-0.61878490447998,-1.53832753122363,0.544913768768311,-0.140487496052877
1.61811399459839,-2.33888115505361,-0.618748664855957,-1.5383518499187,0.546872615814209,-0.140547100697653
1.61806583404541,-2.33890499691152,-0.61878490447998,-1.53832753122363,0.548893451690674,-0.140499416981832
1.61808967590332,-2.33890499691152,-0.618772506713867,-1.5383518499187,0.550804138183594,-0.140487019215719
1.61804151535034,-2.33891691784047,-0.618760108947754,-1.53833992898975,0.552432060241699,-0.140499416981832
1.61803007125854,-2.33888115505361,-0.618772506713867,-1.53833992898975,0.553935527801514,-0.140499416981832
1.61806535720825,-2.33894123653554,-0.618772506713867,-1.5383518499187,0.555126190185547,-0.140499416981832
1.61803007125854,-2.33891691784047,-0.61878490447998,-1.53832753122363,0.555851936340332,-0.140511337910787
1.61808919906616,-2.33892883876943,-0.61873722076416,-1.53837569177661,0.557337284088135,-0.140523258839742
1.61807775497437,-2.33897699932241,-0.618748664855957,-1.53831561029468,0.558492183685303,-0.140523258839742
1.61812543869019,-2.33889307598256,-0.61878490447998,-1.53833992898975,0.559356689453125,-0.140523258839742
1.61811399459839,-2.33894123653554,-0.618772506713867,-1.53832753122363,0.559700012207031,-0.140475575123922
1.61811399459839,-2.33890499691152,-0.61878490447998,-1.53827937067065,0.559720039367676,-0.140499416981832
1.61814975738525,-2.33890499691152,-0.618748664855957,-1.53824265420947,0.559744358062744,-0.140499416981832
1.61815023422241,-2.33888115505361,-0.618748664855957,-1.53816826761279,0.559768199920654,-0.140475575123922
1.61814975738525,-2.33890499691152,-0.618748664855957,-1.53806908548389,0.559731960296631,-0.140523258839742
1.61816167831421,-2.33888115505361,-0.61872386932373,-1.53772147119556,0.559780120849609,-0.140511337910787
1.61814975738525,-2.33890499691152,-0.618748664855957,-1.53686221063647,0.559696197509766,-0.140451733266012
1.61819791793823,-2.33891691784047,-0.618748664855957,-1.53545601785693,0.559720039367676,-0.140523258839742
1.61822175979614,-2.33889307598256,-0.618760108947754,-1.53372366846118,0.559755802154541,-0.140475575123922
1.61818552017212,-2.33889307598256,-0.61873722076416,-1.53159554422412,0.559767723083496,-0.140511337910787
1.61820983886719,-2.33891691784047,-0.618748664855957,-1.52919753015552,0.559731960296631,-0.140523258839742
1.6182336807251,-2.33886923412465,-0.618760108947754,-1.5266593259624,0.559755802154541,-0.140499416981832
1.61820983886719,-2.33891691784047,-0.61873722076416,-1.52413304269824,0.559755802154541,-0.140499416981832
1.61822175979614,-2.33890499691152,-0.618700981140137,-1.52151472986255,0.559731960296631,-0.140511337910787
1.61825752258301,-2.33888115505361,-0.618712425231934,-1.51897604883228,0.559743881225586,-0.140511337910787
1.61828184127808,-2.33888115505361,-0.61872386932373,-1.51638968408618,0.559731960296631,-0.140487019215719
1.61824560165405,-2.33889307598256,-0.618748664855957,-1.51246960580859,0.559767723083496,-0.140559498463766
1.61826944351196,-2.33889307598256,-0.61873722076416,-1.51114781320605,0.559719562530518,-0.140523258839742
1.61829376220703,-2.33894123653554,-0.618688583374023,-1.50869782388721,0.559719562530518,-0.140499416981832
1.61825752258301,-2.33892883876943,-0.618760108947754,-1.50635655344043,0.559719562530518,-0.140499416981832
1.6182336807251,-2.33888115505361,-0.618772506713867,-1.50526888788257,0.559743881225586,-0.140535179768698
1.61825752258301,-2.33886923412465,-0.61872386932373,-1.50416024148975,0.559719562530518,-0.140499416981832
1.61825704574585,-2.33894123653554,-0.61872386932373,-1.50189192712817,0.559719562530518,-0.140535179768698
1.61826944351196,-2.33890499691152,-0.618796348571777,-1.50085528314624,0.559743881225586,-0.140535179768698
1.61829328536987,-2.33891691784047,-0.618807792663574,-1.49876244485889,0.559695720672607,-0.140499416981832
1.61825704574585,-2.33892883876943,-0.618796348571777,-1.49784882486377,0.559683799743652,-0.140535179768698
1.61828184127808,-2.33894123653554,-0.618772506713867,-1.49754174173389,0.559695720672607,-0.140511337910787
1.61825704574585,-2.33894123653554,-0.618760108947754,-1.49709399164233,0.559695720672607,-0.140535179768698
1.61823320388794,-2.33894123653554,-0.61878490447998,-1.49695427835498,0.559671401977539,-0.140511337910787
1.61823320388794,-2.33891691784047,-0.618772506713867,-1.49687512338672,0.559671401977539,-0.140547100697653
1.61820936203003,-2.33891691784047,-0.61878490447998,-1.49689944208179,0.559635639190674,-0.140487019215719
1.61819791793823,-2.33892883876943,-0.618844032287598,-1.49687560022388,0.559634685516357,-0.140523258839742
1.61816167831421,-2.33890499691152,-0.618832588195801,-1.49693568170581,0.559587478637695,-0.140547100697653
1.61822175979614,-2.33894123653554,-0.618821144104004,-1.49689944208179,0.559611797332764,-0.140499416981832
1.61822175979614,-2.33894123653554,-0.618844032287598,-1.49689944208179,0.559611797332764,-0.140487019215719
1.61819791793823,-2.33897699932241,-0.618832588195801,-1.49688752115283,0.559539318084717,-0.140475575123922
1.61819791793823,-2.33894123653554,-0.61878490447998,-1.49693568170581,0.559599876403809,-0.140511337910787
1.61822175979614,-2.33896507839345,-0.618807792663574,-1.49687560022388,0.559587478637695,-0.140487019215719
1.61819791793823,-2.33895268062734,-0.618832588195801,-1.49687560022388,0.55957555770874,-0.140487019215719
1.61820936203003,-2.33892883876943,-0.618796348571777,-1.49693568170581,0.559539318084717,-0.140487019215719
1.61822175979614,-2.33894123653554,-0.618844032287598,-1.49688799798999,0.559527397155762,-0.140487019215719
1.61820936203003,-2.33896507839345,-0.618821144104004,-1.49689944208179,0.55955171585083,-0.140487019215719
1.61816167831421,-2.33897699932241,-0.618796348571777,-1.49688799798999,0.559539318084717,-0.140487019215719
1.61819791793823,-2.33895268062734,-0.618844032287598,-1.49688799798999,0.559539318084717,-0.140487019215719
1.61819791793823,-2.33895268062734,-0.618807792663574,-1.49694807947192,0.55955171585083,-0.140475575123922
1.61817312240601,-2.33895268062734,-0.618807792663574,-1.49692423761401,0.559527397155762,-0.140487019215719
1.61819791793823,-2.33892883876943,-0.618821144104004,-1.49692423761401,0.55955171585083,-0.140475575123922
1.61818552017212,-2.33897699932241,-0.618832588195801,-1.49689944208179,0.559527397155762,-0.140463654194967
1.6181492805481,-2.33896507839345,-0.618832588195801,-1.49693568170581,0.559515476226807,-0.140451733266012
1.61819791793823,-2.33894123653554,-0.618844032287598,-1.49689944208179,0.559503078460693,-0.140463654194967
1.61818552017212,-2.33894123653554,-0.618832588195801,-1.49693568170581,0.559431076049805,-0.140451733266012
1.61818552017212,-2.33891691784047,-0.618832588195801,-1.49696000040088,0.559455394744873,-0.140475575123922
1.61818552017212,-2.33896507839345,-0.61878490447998,-1.49693568170581,0.559443473815918,-0.140499416981832
1.61820936203003,-2.33894123653554,-0.618821144104004,-1.49692423761401,0.559431552886963,-0.140499416981832
1.61822175979614,-2.33894123653554,-0.618796348571777,-1.49693568170581,0.559443473815918,-0.140463654194967
1.61819791793823,-2.33892883876943,-0.618832588195801,-1.49693568170581,0.559419631958008,-0.140439335499899
1.61819791793823,-2.33895268062734,-0.618844032287598,-1.49692423761401,0.559431552886963,-0.140475575123922
1.61819791793823,-2.33896507839345,-0.618844032287598,-1.49689944208179,0.559431552886963,-0.140439335499899
1.61817312240601,-2.33892883876943,-0.618821144104004,-1.49689944208179,0.559443473815918,-0.140487019215719
1.61819791793823,-2.33892883876943,-0.618821144104004,-1.49696000040088,0.559443473815918,-0.140451733266012
1.61818552017212,-2.33895268062734,-0.618832588195801,-1.49689944208179,0.559419631958008,-0.140427891408102
1.61818552017212,-2.33896507839345,-0.618821144104004,-1.49689944208179,0.559383392333984,-0.140463654194967
1.61817312240601,-2.33890499691152,-0.618844032287598,-1.49694807947192,0.559359550476074,-0.140427891408102
1.61820936203003,-2.33894123653554,-0.61878490447998,-1.49694807947192,0.559407234191895,-0.140451733266012
1.61820936203003,-2.33892883876943,-0.618844032287598,-1.49693568170581,0.559419631958008,-0.140463654194967
1.61818552017212,-2.33891691784047,-0.61878490447998,-1.49692423761401,0.559419631958008,-0.140463654194967
1.61818552017212,-2.33895268062734,-0.618796348571777,-1.49688799798999,0.559407234191895,-0.140403572713033
1.61819791793823,-2.33890499691152,-0.618807792663574,-1.49692423761401,0.559407234191895,-0.140463654194967
1.61816167831421,-2.33894123653554,-0.618807792663574,-1.49692423761401,0.559395313262939,-0.140439335499899
1.61820936203003,-2.33895268062734,-0.618821144104004,-1.49694807947192,0.559407234191895,-0.140427891408102
1.61819791793823,-2.33894123653554,-0.618807792663574,-1.49689944208179,0.559407234191895,-0.140427414570944
1.6181492805481,-2.33892883876943,-0.618807792663574,-1.49689944208179,0.559383392333984,-0.140403572713033
1.61816167831421,-2.33895268062734,-0.618796348571777,-1.49688799798999,0.559383392333984,-0.140415493641989
1.61816167831421,-2.33890499691152,-0.618832588195801,-1.49693568170581,0.559395313262939,-0.140427891408102
1.61820936203003,-2.33895268062734,-0.618832588195801,-1.49696000040088,0.559383392333984,-0.140403572713033
1.61819791793823,-2.33890499691152,-0.618807792663574,-1.49692423761401,0.559371471405029,-0.140427891408102
1.61819791793823,-2.33890499691152,-0.618807792663574,-1.49689944208179,0.559371471405029,-0.140403572713033
1.61820936203003,-2.33894123653554,-0.618807792663574,-1.49692423761401,0.559407234191895,-0.140427891408102
1.61819791793823,-2.33897699932241,-0.618844032287598,-1.49694807947192,0.559371471405029,-0.140427891408102
1.61819791793823,-2.33895268062734,-0.618807792663574,-1.49693568170581,0.559359550476074,-0.140391651784078
1.61817312240601,-2.33891691784047,-0.618832588195801,-1.49693568170581,0.559383392333984,-0.140380207692282
1.61818552017212,-2.33895268062734,-0.618832588195801,-1.49692423761401,0.559371471405029,-0.140415493641989
1.61817312240601,-2.33888115505361,-0.618821144104004,-1.49698384225879,0.559371471405029,-0.140439335499899
1.61820936203003,-2.33892883876943,-0.618844032287598,-1.49696000040088,0.559335708618164,-0.140403572713033
1.61820936203003,-2.33896507839345,-0.618832588195801,-1.49689944208179,0.559383869171143,-0.140391651784078
1.61817312240601,-2.33890499691152,-0.618832588195801,-1.49693568170581,0.559335708618164,-0.140391651784078
1.61820936203003,-2.33894123653554,-0.618807792663574,-1.49692423761401,0.559371471405029,-0.140391651784078
1.61820936203003,-2.33892883876943,-0.618807792663574,-1.49692423761401,0.559347629547119,-0.140380207692282
1.61818552017212,-2.33894123653554,-0.618832588195801,-1.49697192132983,0.559383392333984,-0.140415493641989
1.61816167831421,-2.33890499691152,-0.618844032287598,-1.49692423761401,0.559335708618164,-0.140403572713033
1.61822175979614,-2.33892883876943,-0.618821144104004,-1.49694807947192,0.559311389923096,-0.140427891408102
1.61819791793823,-2.33895268062734,-0.618807792663574,-1.49693568170581,0.559371471405029,-0.140403572713033
1.61818552017212,-2.33891691784047,-0.618821144104004,-1.49693568170581,0.559347629547119,-0.140439335499899
1.61819791793823,-2.33891691784047,-0.618807792663574,-1.49692423761401,0.559395313262939,-0.140403572713033
1.61819791793823,-2.33894123653554,-0.618832588195801,-1.49692423761401,0.559347629547119,-0.140427891408102
1.61818552017212,-2.33890499691152,-0.618832588195801,-1.4969962400249,0.559323787689209,-0.140415493641989
1.61822175979614,-2.33890499691152,-0.618807792663574,-1.49693568170581,0.559383869171143,-0.140415493641989
1.61818552017212,-2.33894123653554,-0.618832588195801,-1.49692423761401,0.559359550476074,-0.140427891408102
1.61820936203003,-2.33890499691152,-0.618832588195801,-1.49692423761401,0.559371471405029,-0.140403572713033
1.61819791793823,-2.33891691784047,-0.618832588195801,-1.49693568170581,0.559371471405029,-0.140403572713033
1.61822175979614,-2.33894123653554,-0.618844032287598,-1.49694807947192,0.559323787689209,-0.140391651784078
1.61820936203003,-2.33891691784047,-0.618807792663574,-1.49693568170581,0.559335708618164,-0.140403572713033
1.61820936203003,-2.33894123653554,-0.618821144104004,-1.49689944208179,0.559359550476074,-0.140415493641989
1.61820936203003,-2.33896507839345,-0.618807792663574,-1.49693568170581,0.559359550476074,-0.140391651784078
1.61823320388794,-2.33892883876943,-0.618796348571777,-1.49696000040088,0.559371471405029,-0.140391651784078
1.61819791793823,-2.33890499691152,-0.618844032287598,-1.49697192132983,0.559347629547119,-0.140403572713033
1.61823320388794,-2.33891691784047,-0.618856430053711,-1.49696000040088,0.559371471405029,-0.140403572713033
1.61819791793823,-2.33896507839345,-0.618832588195801,-1.49693568170581,0.559371471405029,-0.140415493641989
1.61819791793823,-2.33891691784047,-0.618832588195801,-1.49696000040088,0.559347629547119,-0.140380207692282
1.61822175979614,-2.33892883876943,-0.618880271911621,-1.49696000040088,0.559383869171143,-0.140403572713033
1.61820936203003,-2.33891691784047,-0.618796348571777,-1.49692423761401,0.559359550476074,-0.140380207692282
1.61819791793823,-2.33892883876943,-0.618832588195801,-1.49694807947192,0.559383869171143,-0.140391651784078
1.61824560165405,-2.33889307598256,-0.618832588195801,-1.49694807947192,0.559383869171143,-0.140427891408102
1.61825704574585,-2.33890499691152,-0.618856430053711,-1.49693568170581,0.559359550476074,-0.140403572713033
1.61824560165405,-2.33892883876943,-0.618844032287598,-1.49693568170581,0.559347629547119,-0.140403572713033
1.61820936203003,-2.33898892025136,-0.618832588195801,-1.49692423761401,0.559395313262939,-0.140439335499899
1.61822175979614,-2.33892883876943,-0.618868827819824,-1.49696000040088,0.559347629547119,-0.140415493641989
