AdrianPrados/GaussianPathwiseLfD/ExpJointIiwa/joint_out.csv
joint_0,joint_1,joint_2,joint_3,joint_4,joint_5,joint_6
-0.009811733419825427,-0.43641329983175453,-0.003327906975748795,-1.5747230546839066,0.001318167874073121,1.133543979339746,-0.00019060386164737977
-0.009812448949117872,-0.43641284166478517,-0.003336921285597301,-1.574726547805931,0.0013059435766318336,1.1335449671795514,-0.00019055232704955234
-0.009815297757026503,-0.43641256303089904,-0.003346131600995576,-1.5747314095719216,0.001299788616426478,1.1335454666049658,-0.00019058605175462442
-0.009820476955281598,-0.4364124277454049,-0.0033555732626618694,-1.574737652990188,0.0012990272052120224,1.133545549174948,-0.0001906812597250301
-0.009828441501214749,-0.4364124008892656,-0.0033653372598761735,-1.5747453839448047,0.0013032388564428706,1.1335452788721623,-0.00019081610909273662
-0.009838278545938365,-0.4364124406135799,-0.003375228836246735,-1.5747542207909904,0.0013106378878360012,1.1335447605499067,-0.00019095802546471833
-0.009850968286344953,-0.436412504713498,-0.003385840507901821,-1.5747646664697077,0.0013208756267511835,1.133544075542663,-0.00019106816280371741
-0.009869561495637193,-0.4364125637027702,-0.0033969393293305766,-1.5747771982009007,0.001337027369229567,1.1335432740061484,-0.00019114682269924066
-0.009893599587037229,-0.43641259885517936,-0.0034085615485130744,-1.5747921099273432,0.0013567546433197637,1.1335421998206399,-0.0001912195556964596
-0.009921296963415524,-0.43641262340597536,-0.0034202040014183733,-1.5748083305538807,0.001379662448323865,1.133540742527783,-0.00019131754083749283
-0.009954676242000504,-0.43641264867687846,-0.0034323187741175836,-1.574826380651851,0.0014064420995753939,1.1335390031307537,-0.00019140362345495008
-0.00999167766499226,-0.43641266269178636,-0.003445039223901909,-1.5748459673931936,0.0014320098100356693,1.1335372382398408,-0.00019150613134779566
-0.010033737800086873,-0.4364126715587107,-0.0034574439829725854,-1.5748656735477866,0.001460779502981102,1.1335350119342413,-0.00019157860571147116
-0.010081436014131619,-0.43641268703978137,-0.003470721503605236,-1.5748866689794927,0.001493745782616831,1.1335324397799045,-0.000191680963087831
-0.01013145750324763,-0.4364126955793315,-0.003483684011742551,-1.5749071297963206,0.0015302523730965573,1.1335297078689572,-0.00019176224094156574
-0.010180592312222717,-0.43641268627414814,-0.0034951311025573756,-1.574925294257537,0.0015694656365337087,1.1335268040574153,-0.00019180620750128423
-0.010235916624150174,-0.43641266662935807,-0.003509198348776094,-1.5749469951984665,0.001612645938410453,1.1335237182113356,-0.00019185303557553015
-0.0102916861267992,-0.4364126097335445,-0.00352442153429811,-1.5749698017988716,0.0016558267528999214,1.1335207783757195,-0.00019192077652053333
-0.010349954140748054,-0.4364125047501537,-0.0035407668600642337,-1.5749935114558646,0.0017064466558078552,1.1335166855586407,-0.00019195162579063786
-0.010409954318030042,-0.4364123573053336,-0.0035591955725569656,-1.5750193668872676,0.0017611651063127803,1.1335115401756857,-0.0001919961539960026
-0.010468749164781972,-0.4364121724926091,-0.003578935045715662,-1.5750460881972452,0.0018160245308697991,1.1335054303726628,-0.00019205419912083328
-0.010528863827173631,-0.4364119727238693,-0.0036002324998833514,-1.5750741592191022,0.001874329774222195,1.1334975236687241,-0.00019207151450220054
-0.010589376831396201,-0.43641176678117977,-0.00362341030956937,-1.5751046977737946,0.001931208890620337,1.1334889342578418,-0.0001920943403731511
-0.010650785923413017,-0.4364115808674747,-0.0036474473787645478,-1.5751367664957496,0.0019925725388242944,1.1334779883432804,-0.00019209163519313241
-0.010711671345888409,-0.4364114336109592,-0.003671137452296437,-1.5751688336879521,0.002058996900989903,1.1334644844962847,-0.00019209901519717166
-0.01077473131963443,-0.43641133202994875,-0.0036968247839068787,-1.5752036289011566,0.0021271047515827317,1.1334495140703866,-0.00019211830627469256
-0.01083410444539079,-0.4364112960347214,-0.0037211030435181144,-1.5752364745625027,0.002193513068536284,1.1334341541256987,-0.000192104622698325
-0.010897994510633027,-0.4364112647355514,-0.003748272007184738,-1.5752722735477502,0.0022676346045032735,1.1334179882602526,-0.00019211560910525227
-0.010960146877042495,-0.4364112559972757,-0.003776607769217873,-1.5753088821927839,0.0023403372018127844,1.1334029598247228,-0.0001921599550076912
-0.011022884099415022,-0.4364112587085396,-0.0038061534823805943,-1.5753448132260206,0.0024245751475172428,1.1333862026983588,-0.00019219952040426156
-0.011084993902981477,-0.43641126454755097,-0.00383731030274159,-1.5753805109353392,0.0025156477304175127,1.1333687457043042,-0.00019222343554096795
-0.011145245747465535,-0.4364112851707328,-0.0038697174668411503,-1.5754162187596064,0.0026075427084837235,1.1333513001423936,-0.00019225983767277751
-0.01120395480096139,-0.4364113186960636,-0.0039030003310085355,-1.5754510337189034,0.0027050944127895256,1.1333322870617542,-0.00019231904908251769
-0.011262560345298208,-0.4364113309169627,-0.0039391744747731584,-1.5754879530815615,0.0028054325064287857,1.1333126722700324,-0.00019238710137129536
-0.01131875491358645,-0.4364112877302687,-0.003977095458466477,-1.5755250229858493,0.0029093066080284873,1.1332921976371872,-0.00019248827419174493
-0.011371796897494589,-0.43641119580384047,-0.004015600240442744,-1.5755607045382212,0.0030203006921776594,1.1332700643720683,-0.00019255980463511727
-0.011424291582513388,-0.43641106869096336,-0.004057466622992597,-1.5755992353824562,0.003135237720478457,1.1332474172974416,-0.00019266221661856322
-0.011471457742421774,-0.43641088254373495,-0.004098145371069204,-1.5756360851357942,0.0032450117161730956,1.1332250146358995,-0.00019279213068330465
-0.011520392581185562,-0.4364106712865804,-0.004142341650566545,-1.5756754123526688,0.0033684685958547673,1.1331999857281145,-0.00019287490775902032
-0.0115666968785188,-0.43641045936860884,-0.00418703385066906,-1.575715389221172,0.003490680072977472,1.1331753557422313,-0.0001929694095165202
-0.011611939000713827,-0.4364102963817908,-0.004233564560943054,-1.5757549258945807,0.003626412946507407,1.1331500727211639,-0.0001930774830206819
-0.011655089460173879,-0.43641020256029217,-0.004281077647931212,-1.5757933751822857,0.0037691318441851122,1.1331262705381573,-0.00019319991971072537
-0.011698057643037971,-0.43641012612308966,-0.004332160438648018,-1.5758340404272317,0.003915566981782558,1.1331061173477082,-0.00019334014949352936
-0.01173855379843508,-0.4364100739640606,-0.004382522729984039,-1.5758720194804634,0.004064090819853391,1.1330895041586748,-0.00019349998802336112
-0.011778117984784866,-0.43641004855611437,-0.0044320510467379635,-1.5759079687742097,0.004215112042648023,1.1330750665220233,-0.000193671665114684
-0.011817808579271066,-0.4364100433741751,-0.004482917477007854,-1.5759442676987123,0.004372664135715246,1.1330641808801167,-0.00019387347137701146
-0.011857603425233261,-0.4364100305099278,-0.004534129389798049,-1.575978128167284,0.0045410542414285405,1.133055767078176,-0.0001941393950500758
-0.011899207964568087,-0.4364099876564366,-0.004588042138550171,-1.5760132273934755,0.004718204325622145,1.1330495994307137,-0.00019440392793436303
-0.011939174862204265,-0.4364099215209666,-0.00464000027372444,-1.5760466459840259,0.004889185303950857,1.1330456459887617,-0.0001946433683823865
-0.011982108123568059,-0.43640981842725,-0.0046945661744776605,-1.576081195096939,0.005076875615261433,1.1330416233270564,-0.0001949623770852373
-0.012025037216407219,-0.4364096748908705,-0.004748311582194022,-1.5761165444874459,0.005263988054379021,1.1330384520936136,-0.00019533537334597006
-0.01206919321880946,-0.4364094671609503,-0.004803542956250927,-1.5761515954760532,0.00546276613520675,1.1330362366528093,-0.00019573523322297232
-0.012112719724399246,-0.4364092548149534,-0.004858120263747691,-1.5761846687746155,0.005665282781619289,1.1330347180906073,-0.0001961214923322147
-0.012154132762764952,-0.4364090492705429,-0.004910654907417329,-1.5762154282127236,0.005864055287636488,1.1330336763036646,-0.00019647978508907004
-0.01219559675183261,-0.436408845590512,-0.0049645162744508115,-1.5762468086677104,0.006065091085807049,1.1330328405469534,-0.00019681884861166176
-0.012236008692248161,-0.4364086720016042,-0.0050178338890709195,-1.5762755365452683,0.006267749116418852,1.1330317047419356,-0.00019713220725809156
-0.012275854112605513,-0.43640847703240543,-0.005072730768320526,-1.5763047330567472,0.006473652291808124,1.133030199351567,-0.00019742132860239893
-0.012315017946467105,-0.43640828005523064,-0.005130140879034141,-1.5763324528833487,0.006690014756851515,1.1330282909469787,-0.00019768221511711135
-0.012353980194702699,-0.43640809164285177,-0.005189953662654671,-1.576360804578936,0.006915248705819677,1.133026034609391,-0.00019800973732164018
-0.012391572632787637,-0.436407899743861,-0.0052501257387586354,-1.5763899880730265,0.007141084050421403,1.1330234469890434,-0.00019838537028801353
-0.012428873047320273,-0.4364077142009293,-0.0053122945354668475,-1.5764189813622433,0.0073791935887883445,1.1330204657364624,-0.00019874732562031255
-0.012462992138911569,-0.43640757019750626,-0.0053694389517301416,-1.576445213076986,0.007602943325230488,1.133017645360415,-0.00019910053606019524
-0.012496258421058264,-0.4364074547261344,-0.005429320464791114,-1.576471378693422,0.007837636445365555,1.1330141592605756,-0.00019943832470704228
-0.012528002095425563,-0.4364073706602312,-0.005492022676210013,-1.5764969880561714,0.008080406358884502,1.1330099370086362,-0.00019979060607294398
-0.01255662926929163,-0.4364073126217082,-0.00555526184161467,-1.5765207002447856,0.008318634959848848,1.1330050781784047,-0.00020012370544499766
-0.012584302108116488,-0.4364072265752022,-0.005622457560111921,-1.5765460066625914,0.008562389569272584,1.1329994485795367,-0.00020047327870679766
-0.012611230917903022,-0.4364071422588928,-0.005693994304078895,-1.5765708755237953,0.008816278533954131,1.1329934131099988,-0.00020089008424373583
-0.012634831598495067,-0.4364070699925714,-0.005763061025279075,-1.5765940108175351,0.009058344043149643,1.1329874063804843,-0.0002013053460044874
-0.012656092817031662,-0.436406994849823,-0.005834772206013692,-1.5766151400883952,0.009306134537904518,1.132981535152544,-0.00020165946667609791
-0.012674969228299415,-0.43640691826558836,-0.005910290790684151,-1.5766358117818313,0.00956632788221243,1.132975596920894,-0.0002020406388818172
-0.0126901541446404,-0.43640684233105254,-0.005983796303130912,-1.576654177864839,0.009818694210680433,1.1329703268409452,-0.00020247131908732508
-0.012704829682399478,-0.43640674457299733,-0.0060621542600663055,-1.5766728638517433,0.010086431071062585,1.132965208578812,-0.0002029392472895825
-0.01271918126272104,-0.43640662357921756,-0.006142332304825857,-1.5766922011081563,0.010361270730421895,1.1329601616571876,-0.000203491835095654
-0.012732274920700011,-0.4364065116282776,-0.006222590454515785,-1.576709847590539,0.01063042926408408,1.1329557057233168,-0.0002040504891189818
-0.012744450280163206,-0.4364063918247645,-0.006308933854178254,-1.576727323008952,0.010914292446350934,1.1329514619703438,-0.00020461255147410056
-0.01275509011978142,-0.43640625721392967,-0.006398291763142105,-1.5767443127123881,0.01120315059938494,1.132947413234041,-0.00020524231435785313
-0.012763650023885588,-0.43640613929195865,-0.006486278068938394,-1.5767600124836259,0.011483039055388491,1.1329436680472555,-0.00020581292797396613
-0.012771393270897189,-0.4364060322591826,-0.006577255831648696,-1.5767742325302105,0.011767848440294607,1.1329402144916123,-0.0002063999030165317
-0.012778162252050628,-0.43640595417896544,-0.006668181807282075,-1.5767887120803137,0.012052672091687953,1.1329365974437942,-0.0002070193204225583
-0.01278390839294434,-0.43640590937976514,-0.00676420822678163,-1.576802018279178,0.012346910352666818,1.1329331955445734,-0.00020763643391912625
-0.012788505738800318,-0.4364058796004762,-0.0068594127299446755,-1.576813705775744,0.01263384494255382,1.1329301500869169,-0.00020824785187840985
-0.012791857054664532,-0.4364058685537186,-0.0069494932983932296,-1.5768234115703386,0.012904260006866213,1.1329275095003002,-0.00020885718879476916
-0.012794623927455513,-0.43640588674044295,-0.007041443240270387,-1.5768314479847916,0.013182711620960371,1.132924989101893,-0.0002095815775515424
-0.012797434181889172,-0.43640589840007354,-0.007135982628337382,-1.5768389291440226,0.013472964325265476,1.1329224121845178,-0.0002103574828773146
-0.012800019319806847,-0.4364058826650501,-0.00723504855083753,-1.576846135686326,0.013777221183369737,1.1329193584756316,-0.00021131782069382291
-0.012802210782187445,-0.43640586774385526,-0.007339836427624194,-1.576852460789693,0.014094844145357362,1.132915664412848,-0.00021239760540301338
-0.012803811230047014,-0.4364058365013731,-0.0074423441937807745,-1.5768579043441235,0.014399673656161365,1.1329115429080958,-0.00021346209018913422
-0.012804653530807675,-0.436405797916551,-0.00754380109582323,-1.5768624052733577,0.014703395912633355,1.1329066838601347,-0.00021470944750801236
-0.012805242677346503,-0.43640575655190567,-0.007652826606899845,-1.5768659348164056,0.015025967755106071,1.132900948327778,-0.0002160993821696583
-0.012805393582898757,-0.436405727027985,-0.007757433120615696,-1.576868302229269,0.015335181800899824,1.1328951742489481,-0.0002175580460173863
-0.012805138520995622,-0.43640572079564083,-0.00786550247083633,-1.5768694930945875,0.015650369545860437,1.1328880364667966,-0.00021903820477646332
-0.012804766407132304,-0.4364057062026521,-0.007978819026609567,-1.576870385878696,0.0159843307711791,1.132879466307766,-0.00022059505076621997
-0.01280441078363584,-0.436405706079175,-0.008090553528090943,-1.576870663781314,0.01631253443044818,1.132869813363592,-0.0002221073324064303
-0.012804084412242374,-0.4364056966600925,-0.00820088201123793,-1.576870534277986,0.01663058300209252,1.1328587913407877,-0.00022356519790428666
-0.012803812865723541,-0.4364056970072856,-0.008310827341251931,-1.5768701563465939,0.01694176442409481,1.1328470596082214,-0.00022492798341912254
-0.012803495023149931,-0.43640569182136923,-0.008420236245934827,-1.5768695684851959,0.01725270036162696,1.1328335376051506,-0.00022618233810614398
-0.01280306571756772,-0.43640567026910076,-0.008536862018312174,-1.5768688677620892,0.017587903170381586,1.1328159464261738,-0.00022742749439203227
-0.012802662595418702,-0.4364056623533093,-0.008657104046395575,-1.5768680842267924,0.017938378610625284,1.132795517486263,-0.00022870797150076423
-0.012802293702014042,-0.4364056699917424,-0.008773523394563705,-1.5768672020176302,0.018279162070688255,1.1327736448597265,-0.00022984851116268263
-0.012801839530885605,-0.4364056990961751,-0.008895074544881332,-1.5768661396015062,0.01863280741944996,1.1327494019919173,-0.00023092489578865682
-0.012801376670001027,-0.43640573791232573,-0.009006910832195208,-1.5768650078960564,0.018955521564054847,1.1327263400153973,-0.00023181099752887026
-0.012800920516424452,-0.43640577583779017,-0.009124865939075183,-1.576863518265235,0.019295647344845523,1.132700265801445,-0.00023269240826525895
-0.012800458940561052,-0.4364058192357659,-0.009245195564216189,-1.576861760162291,0.019641905225461536,1.132672266898276,-0.00023352086064421066
-0.012800061246902333,-0.43640583770773644,-0.009362968414524442,-1.5768598229419644,0.019982069218635733,1.1326433600489474,-0.00023433209285057143
-0.012799750391477863,-0.4364058440231292,-0.009484643604931798,-1.5768578193342575,0.020340904944917623,1.1326125338522728,-0.00023524615867777254
-0.012799402692646835,-0.4364058211985721,-0.009607581052612522,-1.5768559518012173,0.02070303578579804,1.1325788683452254,-0.00023607671284784162
-0.01279907923471678,-0.4364058116493981,-0.009725416687211592,-1.5768543649321727,0.021052205903493475,1.132544160682757,-0.00023678229368132676
-0.01279870971962379,-0.43640578133741575,-0.009852769650902135,-1.5768530336834332,0.021429418548677668,1.1325031601542777,-0.0002375237215811551
-0.012798258066922986,-0.43640573201581606,-0.009981573075802426,-1.5768519440868436,0.021810210761548186,1.1324587923522442,-0.00023826752325597223
-0.012797678605911173,-0.4364056660450993,-0.010103095210340304,-1.5768511507688214,0.022169539168781845,1.132413464287204,-0.00023898702801234079
-0.012796995083395721,-0.4364055542209191,-0.010231976113063453,-1.5768503056054997,0.022553557252147895,1.1323630740057946,-0.0002398295797192991
-0.012796390036160152,-0.4364054433436063,-0.010353864302886852,-1.5768494539713291,0.02292109352885523,1.1323137739483558,-0.00024068825510957265
-0.012795878380573002,-0.4364052294126064,-0.010480676665162662,-1.57684858456212,0.02330524959108967,1.132259929000603,-0.00024160256950576906
-0.01279544826096873,-0.4364049389203681,-0.010612335350353344,-1.5768477262467822,0.023704188219903832,1.1322022499876438,-0.00024249152461298658
-0.012794997287520963,-0.43640463343022523,-0.01074189434906649,-1.5768470003219601,0.024096928516434236,1.1321435367524875,-0.00024335525370827634
-0.01279440324274133,-0.4364043222480345,-0.010866468739597764,-1.576846436193727,0.02447339670623179,1.1320851938318344,-0.00024409677096418641
-0.012793546955823623,-0.43640405403928856,-0.011000230786700434,-1.5768459651139604,0.024874527095333117,1.1320230830538485,-0.0002448819926296049
-0.012792508737736701,-0.43640384112406083,-0.011126325115783148,-1.576845635915899,0.025248442554885623,1.1319647695431194,-0.00024560899135332763
-0.012791346214238983,-0.4364036956276439,-0.011262554388561375,-1.5768452585909056,0.025653074850188584,1.1319072223946434,-0.00024633548144299954
-0.012790263764811837,-0.4364036180026589,-0.011399411083282346,-1.5768447810176054,0.026062579871945372,1.1318540199633564,-0.00024710624939172323
-0.012789440264376974,-0.43640360844338255,-0.011527789432252753,-1.5768441495792436,0.026451546604948598,1.1318085847140902,-0.00024785719382692335
-0.01278876795738576,-0.4364035887793354,-0.011660684549307342,-1.576843268556725,0.026858681986911787,1.1317642343426342,-0.0002486567275904251
-0.012788380711361933,-0.4364035471685906,-0.011790139392520313,-1.576842184224261,0.02725581191029237,1.131722979090003,-0.00024942288325535087
-0.01278787381355418,-0.43640348977503696,-0.011921008615662686,-1.5768411086401994,0.027662952336598705,1.1316814165987392,-0.00025029225286777457
-0.012786883340051925,-0.4364033655499604,-0.012056950440752265,-1.576840175225494,0.02809311448879118,1.1316360603622722,-0.00025130724759251543
-0.012785415938016475,-0.43640323171683243,-0.012190904358286332,-1.5768395552460899,0.028522744521260957,1.1315886168221103,-0.00025240844288024455
-0.012783451289806307,-0.4364030870063921,-0.012316664806072733,-1.576839300535664,0.028932420114393058,1.1315404948813936,-0.000253536593620055
-0.012781033709186103,-0.43640294608289604,-0.012452477279573878,-1.576839206954748,0.029378224615607323,1.1314871826885298,-0.00025475371366440305
-0.01277854137242647,-0.43640282438708267,-0.01257793366206556,-1.5768392380152678,0.029793286053797677,1.1314363497885902,-0.0002559823675836506
-0.012775279082311831,-0.43640273793078954,-0.012712231073416522,-1.5768391256345022,0.03024644394190305,1.1313755427467522,-0.00025746879122059025
-0.012771401786656022,-0.4364026983639374,-0.012847262380012867,-1.5768387526723435,0.030710046905929766,1.1313083569567255,-0.0002591265086332135
-0.012767150074358077,-0.4364026873120862,-0.012975483469912449,-1.5768381459391143,0.031156746065763012,1.1312381916816467,-0.00026088817639567733
-0.01276231246426641,-0.43640269445591534,-0.013105510351547847,-1.5768374536924794,0.031615457878709875,1.1311620852812154,-0.0002628888737669375
-0.012757270934741124,-0.4364026923544788,-0.013235321988811877,-1.5768368216225177,0.03207487595859928,1.131084446752268,-0.00026490991875565057
-0.012751712894660379,-0.4364026819501754,-0.013363571872198238,-1.576836304416565,0.03253394548159441,1.1310048396045915,-0.0002671570805822571
-0.012745093495884005,-0.43640266688618073,-0.01349825762716114,-1.5768359479217156,0.033024436356490605,1.1309184923654936,-0.0002699718145693006
-0.012737782094705344,-0.43640265384447297,-0.013631165939108571,-1.5768357116891603,0.03351763349680057,1.1308301963283813,-0.0002732310543664703
-0.012730176804382147,-0.43640263742967056,-0.013754037058395036,-1.5768355707353803,0.03398441647951152,1.1307448050032716,-0.0002767816749470182
-0.012721768794611545,-0.43640262921812223,-0.013886508102403883,-1.576835380579214,0.03449351731748493,1.1306524594240823,-0.0002807863815889596
-0.012713750144483168,-0.4364026349506789,-0.014008279733001882,-1.5768352049483232,0.03496820255155447,1.130566922638273,-0.0002845493547631386
-0.01270483095462358,-0.4364026176288422,-0.014137619151737196,-1.5768348464655833,0.03548307712796695,1.1304811946356554,-0.0002890506440964069
-0.012695500220633153,-0.4364025788908315,-0.01426850078430893,-1.5768343592885536,0.03601346072587656,1.130399495472777,-0.00029412062849585593
-0.012686255718336011,-0.4364025005968846,-0.014393911412997762,-1.5768337093092057,0.036529963676706675,1.130325939504261,-0.00029950291511220714
-0.012676797769945928,-0.4364023175413826,-0.014518311651340392,-1.5768329232697842,0.03704764042960338,1.130256533240766,-0.00030541885607674574
-0.012666929281815432,-0.43640205425205525,-0.014646037827901848,-1.5768319563192468,0.03758031963723449,1.1301860155337808,-0.00031177532466270674
-0.012657063165901282,-0.4364016718446754,-0.014768725940596866,-1.5768310126828993,0.03810013934615863,1.1301181066720887,-0.00031860069138478226
-0.012646154198039026,-0.4364010672099278,-0.014898219715407512,-1.5768302885753223,0.03866147417249043,1.1300431364418373,-0.000327035417608633
-0.012634926634660554,-0.4364002740783532,-0.015026638143895384,-1.5768298588623564,0.03922834140126274,1.1299654941868473,-0.00033646154637993866
-0.012624121413986184,-0.43639936283852737,-0.015145591312221995,-1.5768297905703859,0.03976574510362251,1.1298911947776507,-0.0003463170588395827
-0.01261245808812203,-0.4363983785334588,-0.015272141254465512,-1.5768298672197378,0.040343834151203566,1.1298135021724103,-0.00035715551258576827
-0.012601366707828424,-0.4363973613422266,-0.015395388297165276,-1.5768301132832032,0.04090886542897115,1.129741156588233,-0.00036854986767174275
-0.012589698335941379,-0.43639645012309036,-0.015512593299326806,-1.576830253359426,0.041470230280472156,1.129670359906672,-0.0003791628554839577
-0.012577408336685626,-0.4363956316269591,-0.015633530240771215,-1.5768302046592404,0.042058187565757556,1.1296019289275923,-0.00039064041087121665
-0.012564980083512341,-0.436394963529685,-0.015752198503408033,-1.576829904129147,0.042642213692618336,1.1295401872617776,-0.0004024299193822179
-0.012552361785447408,-0.4363944889084669,-0.015868262304999423,-1.576829496232376,0.04321919264599024,1.1294862718532568,-0.00041434222522913677
-0.01253866486924963,-0.43639409779284594,-0.015995363277914565,-1.5768291749646892,0.04384250613773479,1.1294315661694825,-0.00042791250242286933
-0.012525178986076782,-0.4363938385188105,-0.016116801370815236,-1.5768289254881067,0.04443885539840158,1.1293834557028144,-0.0004408846902502417
-0.012510599769960674,-0.4363937040449438,-0.01624023045763429,-1.5768287704045438,0.04505726392659711,1.1293394012655282,-0.0004538407711476031
-0.012495476139184563,-0.4363936752063475,-0.01636909160212072,-1.576828612513469,0.04569996608696731,1.1293016240461384,-0.00047002956284445855
-0.01248081184996773,-0.4363936857250741,-0.01649512820637094,-1.5768284655401315,0.04632896891449343,1.1292728272810093,-0.0004889762303742789
-0.01246565678866476,-0.4363937724702606,-0.01661856799607073,-1.5768282323996654,0.04695888725281075,1.1292470826582086,-0.0005104307597455241
-0.012449880853860885,-0.43639383628461015,-0.016749295764053457,-1.5768279218500147,0.04762266227299716,1.129222994002709,-0.0005366426883873658
-0.012435426249853884,-0.43639388404477536,-0.016870769183843656,-1.5768276202453992,0.04823196050351792,1.1292033004974684,-0.0005631247885274598
-0.012420361614377056,-0.43639390700913594,-0.016998664920039052,-1.5768273676586553,0.04886827686785963,1.1291878653470253,-0.0005965452852675344
-0.012405212834295489,-0.4363939560192659,-0.01713067660900405,-1.5768272656692586,0.04951832314146058,1.129177249888596,-0.0006365101239560101
-0.012390658023691156,-0.43639396761734933,-0.017260767076470097,-1.576827229027069,0.050152754427998596,1.1291712962512503,-0.0006807842655959635
-0.012375416995890553,-0.4363939672090669,-0.01739492533036343,-1.5768272434562753,0.05081637412300475,1.1291659256393556,-0.0007279879898630702
-0.012360651106535957,-0.4363939740855986,-0.017536504332938588,-1.576827263336465,0.0514971237224535,1.1291619007224802,-0.0007802631930432578
-0.01234700169259248,-0.43639397803708063,-0.017672049252672354,-1.5768273160247877,0.052144242828972134,1.129159068456521,-0.0008318690557111895
-0.012333235171597443,-0.436393989639998,-0.01780681632105716,-1.576827376565748,0.052802456932816585,1.129157287068361,-0.0008806112835194446
-0.012320153830840976,-0.4363938788356999,-0.0179479154271494,-1.576827474085869,0.05347867576035577,1.1291563089941783,-0.0009264016674519462
-0.012308749561690585,-0.43639361759830436,-0.018083754150773092,-1.5768275577746234,0.05411989951802749,1.129156105270968,-0.0009636417790971238
-0.01229725333266367,-0.4363931525958271,-0.0182280709894879,-1.5768275613863452,0.05479896867782573,1.129156088807139,-0.000996725075814322
-0.012286409320079492,-0.43639247059315756,-0.018377714343432987,-1.57682746918174,0.055484103960228806,1.1291561252971938,-0.0010262428399975482
-0.012275696717309444,-0.4363916160432034,-0.018520676413540244,-1.5768272340117557,0.05615831804328129,1.1291563191160425,-0.001048331835888772
-0.012264989434238963,-0.43639048065170893,-0.01867100919604959,-1.5768268822531595,0.05686468749793891,1.1291565260781309,-0.0010693311880635883
-0.012254822286599167,-0.4363891661983514,-0.01882467829168636,-1.5768265410674331,0.0575761704968092,1.1291567050745352,-0.0010914565017649226
-0.012245654303771447,-0.43638780251074705,-0.018974558681662406,-1.5768262701315887,0.05826130271825053,1.1291568951845186,-0.0011154165888770473
-0.012236136103866502,-0.4363865541747272,-0.019125311570584575,-1.5768261048740995,0.05896250091887735,1.1291570540557607,-0.0011424994402860315
-0.012227640951040005,-0.43638541000177683,-0.01928036107984984,-1.5768260721075802,0.059652898871464306,1.129157158917644,-0.0011754504485323618
-0.01221920123041188,-0.43638449469394996,-0.019432667163201165,-1.5768261227916027,0.060352989652720214,1.1291572992399102,-0.0012101682891403824
-0.012211420185349155,-0.4363837573052707,-0.019595144076813367,-1.5768258423727481,0.061079102462416414,1.1291574977580598,-0.0012523142607241892
-0.012204783526698843,-0.436383193953513,-0.019756678572341316,-1.5768251684413,0.06178509761381035,1.1291577648723243,-0.0012980018521324267
-0.0121985435291487,-0.43638280004450647,-0.019915269990684045,-1.5768239537022528,0.06248975704381629,1.129158171418244,-0.0013456632827513187
-0.012192612944080913,-0.43638241457935184,-0.02006914423273055,-1.5768225486148504,0.06318030088454038,1.1291587361631836,-0.0013922568747046832
-0.012187473827724164,-0.43638195396710133,-0.02023126038465788,-1.5768206549997212,0.06389114678178719,1.1291594823925197,-0.001443050404945185
-0.012183088695615773,-0.43638149807569504,-0.020406476590659556,-1.5768179113304734,0.06464305373899637,1.1291603314825538,-0.0015020821317443876
-0.012179733544197864,-0.43638111309345473,-0.020575346135062067,-1.5768150603722884,0.06537063745007843,1.129161140055717,-0.0015589667509591709
-0.012177568998495918,-0.4363807609019291,-0.020750400969283624,-1.5768111848827675,0.06608120608760075,1.1291618006208608,-0.0016283768304194194
-0.012175450731985773,-0.4363804978981134,-0.020932241679565547,-1.5768063604608218,0.06682078073680886,1.1291623935552009,-0.0017094586214503559
-0.012174021284491614,-0.43638023913139473,-0.021124961532378358,-1.5768005596176649,0.06755940743283662,1.129162775521419,-0.001804622952765858
-0.01217347981073505,-0.4363800439332298,-0.021313641468979506,-1.5767945795920881,0.06830620342906074,1.1291629546814466,-0.0018998338605860326
-0.0121737177491842,-0.43637976939901707,-0.02151350340300025,-1.5767873333510618,0.0690737671705418,1.1291630069704957,-0.001999904070475485
-0.012174551891466684,-0.43637945891459906,-0.02170863779233703,-1.5767796202295536,0.06980764384183613,1.129163034312486,-0.002095292998704511
-0.01217545683506465,-0.436379112588259,-0.02190335330088854,-1.5767715634187018,0.07052861533706353,1.1291630907291639,-0.0021848153841828957
-0.012176014503540503,-0.43637871702667236,-0.02210743909731528,-1.5767629948147501,0.0712858690918018,1.1291631675036249,-0.002271282226683303
-0.012176318266806246,-0.43637838010181046,-0.02229644082129587,-1.5767546403453798,0.07197415781939784,1.1291632356209473,-0.002346627628204145
-0.012176506146830787,-0.43637810164026225,-0.022477085652854764,-1.5767466922845024,0.07263328799553971,1.1291632881442624,-0.002416257731147502
-0.012176813522882813,-0.43637785268503293,-0.022665715614324258,-1.576737733394813,0.07331405296600695,1.1291633997831672,-0.0024931981732596474
-0.012177216155983392,-0.43637757805392013,-0.02285708326041676,-1.5767274038071917,0.07398016439499853,1.1291634569176119,-0.002580083689724232
-0.0121778751778182,-0.43637734871652445,-0.023048477553660712,-1.5767162910981125,0.07467105012748644,1.1291635198117873,-0.00267220734511324
-0.012178625984352433,-0.43637703165476877,-0.023256437680822174,-1.576703233318959,0.07539950321652927,1.1291635792146224,-0.002778982768486219
-0.012179334298705595,-0.4363766913107671,-0.023467439043974657,-1.5766889418564953,0.0761254060158923,1.129163664715506,-0.002892738268879408
-0.012179801921755039,-0.43637638587029826,-0.023663120275102947,-1.57667510207198,0.07678828143040099,1.1291637340858636,-0.0030002004440703002
-0.012180175382844214,-0.4363761685149786,-0.023875621972286244,-1.5766581868388663,0.07749252586304003,1.1291638118160139,-0.0031180428092557784
-0.012180520084354786,-0.4363761073526362,-0.024092072543647737,-1.5766391775551436,0.07819068015327776,1.129163860634836,-0.0032393179560051273
-0.01218099972656141,-0.43637620604631544,-0.024304371400637004,-1.5766190096193724,0.0788773100422008,1.1291639403345988,-0.003356063479998422
-0.012181764392335103,-0.43637639573743897,-0.024526387397595918,-1.576596812072124,0.07960843239271131,1.129163992318886,-0.0034739360008674476
-0.012182637169147269,-0.43637657053287987,-0.02474656395013922,-1.5765741517959746,0.0803150086031411,1.129163993910669,-0.0035932045479095593
-0.012183579913815341,-0.4363767876343563,-0.02496712592525177,-1.5765502685140969,0.08101367745968228,1.1291640157337666,-0.0037176403707234245
-0.012184535938765253,-0.43637703584809756,-0.025204345179405337,-1.5765228751508553,0.0817494177036695,1.1291641476458643,-0.0038578636175177483
-0.012185516590335961,-0.4363772336368594,-0.025443438731034104,-1.5764936273919907,0.08247924313351371,1.1291643499798145,-0.004002141074073716
-0.012186454335850815,-0.4363774092001033,-0.025670575863875875,-1.5764639884824503,0.08315938907929331,1.1291646560602187,-0.004140204832474944
-0.012187552938606915,-0.43637760913000967,-0.025916860885436533,-1.576431007242219,0.08389277535041885,1.1291650449618462,-0.004288232588957433
-0.012188759071672998,-0.43637779239771995,-0.026159732984110624,-1.5763979741604077,0.08459564315205313,1.1291654919372862,-0.0044374026928231695
-0.012190225199513344,-0.4363779435950032,-0.026393795630887854,-1.5763642025430311,0.0852914200440262,1.1291660029363204,-0.004571315445052048
-0.012191767643395619,-0.43637807508010396,-0.026643857746955938,-1.5763261010243754,0.08600761298536844,1.1291664848553276,-0.004717484026177446
-0.012193251532427334,-0.4363781209502757,-0.02689466936709055,-1.5762860675721628,0.08670053764870488,1.1291669353367308,-0.004867252330526594
-0.012194615648008802,-0.43637815021219184,-0.027150614920123814,-1.576243721875555,0.08738491528435319,1.1291673341309145,-0.005023431948649794
-0.0121958200096304,-0.4363781943315166,-0.02743020174141837,-1.5761974721040524,0.08811224524237189,1.1291677133883808,-0.005201096389917173
-0.012196894962211616,-0.4363782004477056,-0.02769955493907108,-1.5761517580011448,0.08880415628374386,1.1291680049503992,-0.005372389968151313
-0.012197882059612768,-0.43637822900739404,-0.027976871414497867,-1.5761020595637154,0.0895159935953023,1.1291682888832202,-0.005546943138201196
-0.012198560732114316,-0.43637833961785416,-0.028269409604522094,-1.5760477049318562,0.09024220053851469,1.1291685992752152,-0.0057396733588447445
-0.01219894986083688,-0.4363785033836221,-0.028559161004930517,-1.5759922706768839,0.09093802968752636,1.1291688938914328,-0.005938205030805588
-0.012199281742126521,-0.4363787308908432,-0.02884536300911896,-1.5759347964437458,0.09163872467258576,1.1291692902318424,-0.006129990661486995
-0.012199493254519961,-0.43637902420130914,-0.02914153163304243,-1.5758754558567243,0.09233954855403075,1.12916973221436,-0.006341022296613226
-0.012199787554737935,-0.4363792895674062,-0.02943211060840466,-1.5758149652094982,0.09303762727540042,1.1291700975670174,-0.0065388790392006
-0.012199742827192293,-0.43637958269840094,-0.029743315261327646,-1.575748609068262,0.09376494138445593,1.1291705969939978,-0.006754395837983085
-0.012199248551080002,-0.4363799010489803,-0.03006256247620579,-1.5756790961150404,0.09448730502758985,1.1291712169846282,-0.006980408912774031
-0.012198303845074497,-0.4363801934226967,-0.030379392737182327,-1.575608145390537,0.09518678998249783,1.1291719700923235,-0.007208033571460496
-0.012197034519758504,-0.4363805255468905,-0.030695179334665087,-1.5755349532285832,0.09589116124130719,1.1291729962737531,-0.007428200377140084
-0.012195193902922676,-0.43638089740409847,-0.031015972872487148,-1.5754605319148554,0.09658403232088554,1.129174452367017,-0.00765898456938904
-0.012192424803513771,-0.436381435639395,-0.03136857002245697,-1.5753748934088654,0.09732924150537567,1.1291765896958375,-0.007915102900480475
-0.012189051074216924,-0.43638208937262263,-0.03173124513131918,-1.575283292606894,0.09808142825048936,1.1291791305824095,-0.008181653138902952
-0.012185249607877495,-0.43638282245415533,-0.032088153617841196,-1.5751900048153935,0.09880376802626264,1.129181744924366,-0.008448791032035396
-0.012181252905834071,-0.4363835327179786,-0.03243560545093233,-1.5750944955975927,0.09951810334566934,1.1291840622471492,-0.008696682730255385
-0.012177033808509416,-0.4363841519347484,-0.03278909259144205,-1.5749968848840579,0.10022990645927754,1.1291861002078911,-0.008957889337025567
-0.012172852921069344,-0.4363847138076153,-0.03313300951301112,-1.5748999268300876,0.10092806537029046,1.1291876622784698,-0.009202863188761314
-0.012168099048760646,-0.43638520434379297,-0.03349141420538405,-1.5747969270884234,0.10164822150239863,1.1291886083254379,-0.00945848312798538
-0.01216274559135194,-0.43638567444336884,-0.03385452993199234,-1.5746909309309098,0.10236483984377628,1.1291890732643108,-0.009722059175957462
-0.01215701871196815,-0.4363861398229691,-0.034206894048544316,-1.5745865877637206,0.10304861649695135,1.1291891808220051,-0.009981865625764245
-0.012150506138833091,-0.43638679606135056,-0.03459630683823477,-1.574470635587056,0.10379499389863643,1.1291893262855348,-0.01027499798260958
-0.01214394542363367,-0.43638750647005636,-0.03497409596672135,-1.5743572350087747,0.10450566849224296,1.1291891862804344,-0.010564822945684752
-0.012136755241445418,-0.43638836928458086,-0.03535365482581793,-1.5742384860780754,0.10522726722057901,1.1291887987096303,-0.0108414513203446
-0.012127998620017144,-0.4363894247190143,-0.035756587614853015,-1.5741093899766168,0.10597677298207354,1.1291897360219725,-0.011145881397637149
-0.01211826676525259,-0.4363904895966129,-0.036158372621635355,-1.573977726670524,0.1067080509290517,1.1291922040242786,-0.01145975688671986
-0.012107986749008318,-0.4363915039871281,-0.03655509942597927,-1.5738436490084835,0.10743358735485373,1.1291964197685693,-0.011765580384291277
-0.01209706007517405,-0.4363924673031726,-0.036963274630024155,-1.5737058093403327,0.10817139686970066,1.1292025856430246,-0.012091712905732474
-0.012086148889326725,-0.4363932635685691,-0.037365303628093025,-1.5735678314822474,0.1089000028334421,1.1292094570084164,-0.012411036761647117
-0.01207400734514213,-0.4363939667337202,-0.037782913279157324,-1.5734203676762735,0.10965687952346181,1.1292180950629658,-0.012749098961160056
-0.012060362467079153,-0.43639463513689164,-0.03821297057760438,-1.5732650668121186,0.11042707394088234,1.129228543300309,-0.013111953001826365
-0.012045753956583508,-0.43639515845620064,-0.03863284388027164,-1.573109946362183,0.11117022145815637,1.129240140524323,-0.01347828538529458
-0.012029644081356235,-0.4363956822141377,-0.03905238775103358,-1.5729487478081834,0.11192867228277302,1.1292524242412778,-0.013834191627633297
-0.012012096234092655,-0.43639625912493896,-0.03948051485465548,-1.572784999786409,0.11268602930224263,1.1292664637735619,-0.014218917222128149
-0.011993104620060153,-0.43639690065260195,-0.03990294146379208,-1.5726172013771689,0.11344553145332073,1.1292802458584594,-0.014584734274925758
-0.011970263632922869,-0.4363976061391454,-0.04035060576355432,-1.572435921250266,0.11424119087428007,1.129299985968118,-0.014993387087949967
-0.011945047474076069,-0.4363983897641705,-0.04079691213428552,-1.572252133565749,0.11502560010057797,1.1293246657548415,-0.015420663703536378
-0.011918199599126204,-0.43639931744924615,-0.04123319471971297,-1.5720671958233348,0.11579570967304069,1.1293528019444352,-0.015844095827886488
-0.011889585171510838,-0.4364003674358281,-0.04167915436347765,-1.5718758711447323,0.1165807873741483,1.1293844871181336,-0.01628789827871362
-0.011860209746756388,-0.4364015314648385,-0.042122197930124096,-1.57168438872372,0.11735534602012458,1.1294155773088714,-0.016739672424948806
-0.011827927516111192,-0.4364027782767289,-0.04257806925814359,-1.5714827342561184,0.11815369821597206,1.1294472575485999,-0.01720816481956218
-0.011792008427863826,-0.4364041490726301,-0.04305210932690699,-1.5712707027334574,0.11897414536504577,1.129482094669271,-0.01771107840058458
-0.011754524691478418,-0.4364056590810197,-0.04351610176914699,-1.5710611810797661,0.11976692112064255,1.1295189282982094,-0.01821419272467263
-0.011715289657962463,-0.43640739512808824,-0.04397793598598203,-1.5708466811668786,0.1205666415742136,1.1295572292363845,-0.018695553231674013
-0.011673685472095201,-0.43640912020604494,-0.04445014040568897,-1.5706299507080592,0.12137023956868193,1.1296039555824742,-0.019204901035360517
-0.011631308615123544,-0.4364109149314059,-0.044913549946367065,-1.570412026750267,0.12216924441500755,1.1296506073894934,-0.01968323822126121
-0.011584362339223537,-0.4364130165544184,-0.045404128699420496,-1.5701763510188804,0.12300943111789908,1.1297130497933208,-0.020195784822141415
-0.011535589819320246,-0.4364154088401483,-0.045896119989889704,-1.5699343969585566,0.12384672466335221,1.1297883911597446,-0.020716659392487305
-0.011486687208070145,-0.4364180042315491,-0.04637546468460648,-1.569691603062907,0.12466428362460852,1.1298720719478161,-0.021226257756162242
-0.011436732844505183,-0.43642063298758044,-0.04686318139085557,-1.5694397833877798,0.12549982384636785,1.1299642956454405,-0.02174667652859889
-0.011386777111980467,-0.4364232215713917,-0.04735074844586524,-1.5691860270064706,0.12632891753711165,1.130060763121828,-0.02227936233448393
-0.011335444332389456,-0.436426347784846,-0.04784505715020425,-1.5689191779541238,0.12717755256135244,1.1301597745760914,-0.022818690245127518
-0.011281588920453507,-0.43642984455220724,-0.04836070841986219,-1.5686351366412974,0.12805689827267067,1.1302679270294043,-0.0234075115170101
-0.011228162733093043,-0.4364333870557926,-0.048865665237379306,-1.5683525027778873,0.12891386262998547,1.1303761613394423,-0.024011982009418762
-0.011175395066553467,-0.43643705893351353,-0.04936160268513831,-1.5680675132710866,0.12976838338849322,1.1304761898362956,-0.024606270624418943
-0.011119223028648746,-0.43644121154654664,-0.049885908061297175,-1.5677640467250464,0.13067048472081286,1.1305823387530196,-0.025250649570976655
-0.011067626610260367,-0.43644519098513956,-0.05036858941690514,-1.5674844903298235,0.13149954146128584,1.1306804978029072,-0.025852763928007935
-0.011011906696097544,-0.4364501429676412,-0.05087712760650719,-1.567183542120899,0.13237825056045774,1.130791885157877,-0.026501962405428087
-0.010953824606640183,-0.4364559558244082,-0.05139414913862296,-1.5668716116813146,0.1332752868980243,1.1309148118470418,-0.027174828824637298
-0.010895827889335652,-0.43646249180942537,-0.051899344740302694,-1.5665600053096365,0.13415604165527834,1.1310422977433896,-0.027837599915391836
-0.010834478971849614,-0.43647034740397506,-0.0524203994888358,-1.5662290256467222,0.13507672037880095,1.1311727007594312,-0.028509581162671223
-0.0107716564598191,-0.4364788153098847,-0.05295062154394597,-1.5658918705881317,0.1360038437523279,1.1313080106496183,-0.029210001451001572
-0.010710104028144414,-0.43648785671005624,-0.05346022235188843,-1.5655635214819639,0.13689446711374442,1.131433202873314,-0.029889693630282675
-0.010641545589572402,-0.43649909104149043,-0.054008972520405964,-1.5652023598479878,0.13785315439778306,1.1315634250031046,-0.03063360281153618
-0.010570704545395694,-0.43651168001781,-0.054561780306471,-1.5648322075397196,0.1388192482737145,1.131693301206575,-0.03139080225398907
-0.0105023255179719,-0.4365247465303399,-0.05508302177829574,-1.5644785744810212,0.1397300586257477,1.1318192476002198,-0.03211114464058893
-0.010428092413932822,-0.436539031843117,-0.05563833169835393,-1.5640999481733169,0.140701119609357,1.131965451072999,-0.03288366715619449
-0.010357474685327482,-0.4365527231318309,-0.05616586054425553,-1.5637405306661283,0.1416247277501955,1.1321157121763732,-0.03362078440511298
-0.010281561134528546,-0.43656779758580777,-0.05671656569742222,-1.563360451301209,0.1425897935040744,1.1322867930516203,-0.03439916070197986
-0.01020003006077192,-0.4365840810334373,-0.0572886712285458,-1.5629601594772122,0.14359181450227496,1.1324740845558114,-0.03521867082667029
-0.010116648806290096,-0.4366006145609352,-0.05785314095992841,-1.5625609163409682,0.144577920631269,1.132664942880624,-0.03603781701604557
-0.01003272114254441,-0.43661684664942896,-0.05839709605170911,-1.562172969320652,0.14552475131896433,1.1328524731064935,-0.03683594714020228
-0.009940887026575355,-0.4366339680040193,-0.05897920440372433,-1.561757490450976,0.14653627449580411,1.1330498582300934,-0.0376918852043827
-0.009852103640469751,-0.43664986090254504,-0.05952642497287456,-1.5613663026382594,0.14748432151208118,1.1332389036724706,-0.03849980631064955
-0.009750218987202911,-0.4366673282419079,-0.060121777746818914,-1.5609380753497721,0.1485109424304624,1.1334558706564117,-0.03938715475778469
-0.0096419420345327,-0.43668524767320605,-0.06072616321195042,-1.5605021747789847,0.1495485513446292,1.1336868722499114,-0.04029650414488416
-0.00953443088449713,-0.43670257646459526,-0.06130080905750825,-1.560087108879003,0.15053089232576156,1.133918812009975,-0.041171884502993326
-0.009419111171639356,-0.436721467572295,-0.061901202693824875,-1.5596506720004681,0.15155780361381857,1.1341690560079432,-0.04209372421865391
-0.009305975281669281,-0.4367403578185002,-0.062484596105208214,-1.5592239010780655,0.15255631690388052,1.1344132916206353,-0.04299381414220707
-0.009187757081818017,-0.4367608535956294,-0.06308113853863889,-1.5587839278207367,0.1535751077344197,1.134668338904481,-0.043918566410842845
-0.00906130147592607,-0.43678366361355947,-0.06370875210973141,-1.5583187984087414,0.15464531373403384,1.1349439168114015,-0.04489289972702208
-0.00893380852122981,-0.43680748719723245,-0.06433349869888633,-1.5578553276952174,0.15570793129155644,1.1352277301782392,-0.04586483983566078
-0.008811703444276897,-0.43683114065786083,-0.06492778344501114,-1.557414564171397,0.1567141410394824,1.1355091933505936,-0.04678874368726628
-0.008679670183440544,-0.436857129468294,-0.06557201563010016,-1.5569357871992702,0.15780299939193596,1.1358186456721384,-0.047789560428582525
-0.008556801947779438,-0.436881710012732,-0.06617104476393207,-1.556489980057669,0.15881486136253678,1.1361093673416909,-0.04872140973573322
-0.00842136598924235,-0.4369083293120275,-0.06682228780351715,-1.556007134607175,0.1599070973385934,1.1364282928785336,-0.049737585583769145
-0.008281273364406061,-0.43693512768660164,-0.06748623769722797,-1.5555168345805708,0.16101359792254866,1.1367558530419521,-0.05077626505653058
-0.008144304312671572,-0.43696043007152185,-0.06812417383693037,-1.5550479740786614,0.16206720586824486,1.1370713685964726,-0.05177842349751703
-0.008001727521979522,-0.4369860827004173,-0.06877918019510229,-1.5545686689350398,0.16314020813205724,1.1373946331235736,-0.05280940890154842
-0.007858053483563372,-0.4370114151590752,-0.0694354297003923,-1.5540898150827283,0.16421176506405422,1.1377163533152983,-0.05384135942927672
-0.007713296206706775,-0.43703676737639907,-0.0700915274109351,-1.5536127983400694,0.16527587043407743,1.1380410068194338,-0.05487349132485618
-0.007558407378313943,-0.43706415881953553,-0.07079003561698778,-1.5531061726818693,0.16640061457236854,1.1383934165201048,-0.055970292556476904
-0.007402277785682729,-0.4370919627701253,-0.07148902477706992,-1.5525998636883709,0.16751963597971842,1.1387549168624373,-0.05706477339881138
-0.007253677895131258,-0.43711863433841125,-0.07214720079914376,-1.552122819404834,0.16856860401346418,1.139104206420215,-0.058094614610590706
-0.0070904798030494,-0.4371483175727747,-0.07286072916426303,-1.551602739810978,0.16970509438673828,1.1394874433908098,-0.05920953575579117
-0.006938269608542486,-0.43717688291395007,-0.07352167059545386,-1.5511169089546708,0.17076012666022167,1.1398482134162382,-0.06024078852516391
-0.006768329555743716,-0.4372078781586757,-0.07423769881686501,-1.5505908907094794,0.17188830235195376,1.1402360602125077,-0.061352439824388344
-0.006588306558018178,-0.4372395909465975,-0.07497443906400905,-1.5500520313716746,0.17303475949488017,1.1406305189628003,-0.06249141979543972
-0.006407673749068254,-0.4372701175436542,-0.07569110122865637,-1.5495297228486116,0.17413598756759335,1.1410088616257892,-0.06359616838993082
-0.006222474422457332,-0.43730036531004546,-0.07640955124885,-1.5490064420156748,0.17522961775856638,1.1413828340154717,-0.06470329507366496
-0.00603194913894723,-0.43733104049804294,-0.0771469100220137,-1.5484701436973938,0.1763498280598823,1.1417641773950225,-0.06584183652210192
-0.005844796177245198,-0.43736012544975666,-0.07786414612561221,-1.5479483422991933,0.1774345429988941,1.1421330294675074,-0.06695117447145503
-0.0056432075898451995,-0.4373904522155339,-0.07863366758976578,-1.547385590406789,0.1785927167830636,1.1425287025560031,-0.06814387818077258
-0.005440416335725831,-0.43742058873430073,-0.07940659996807474,-1.5468153437082197,0.17975126369578254,1.1429256378320929,-0.06934317305347253
-0.005249450650201402,-0.4374488491353695,-0.08013369119139645,-1.546273752480166,0.1808362477753875,1.143297112245195,-0.07047007989782633
-0.005042203869660939,-0.4374788312773002,-0.0809211783171402,-1.5456892299272855,0.18200262331063302,1.1436974919165506,-0.07168374147811751
-0.004846219607494961,-0.4375064110468377,-0.08166118523196716,-1.5451423448302086,0.1830955208949723,1.1440714578091933,-0.07282144039516739
-0.0046335862682219744,-0.4375348681133111,-0.08245241259878969,-1.5445625088505475,0.18424731700643576,1.1444735726874318,-0.07402588957926778
-0.004410003607768573,-0.4375635210574717,-0.08327298819291785,-1.5439659311739637,0.18542352615995852,1.144894659190901,-0.0752614092256452
-0.0041871907109467974,-0.4375905891323861,-0.08408067117316578,-1.5433835999359613,0.1865618804323157,1.1453128557298455,-0.07646307930425868
-0.003965433312698974,-0.4376160266187526,-0.08487406079535115,-1.542816237398631,0.18766305266057898,1.1457248576294758,-0.07763104872260863
-0.003731013637109865,-0.4376424394569796,-0.08570933139062431,-1.54222012556053,0.18881828522750185,1.1461599215079217,-0.07885684470270106
-0.0035043366262400046,-0.43766685857674653,-0.08650679605903042,-1.5416538586721595,0.1899117391681102,1.1465740313396775,-0.08002047203327417
-0.003252358939900551,-0.43769156445590757,-0.0873735954621533,-1.5410445082500404,0.19108219586408423,1.1470140586679802,-0.08127411808582377
-0.002991856335610461,-0.43771485047762,-0.0882517750220795,-1.5404329714427352,0.19225231450485883,1.1474519019419955,-0.08253585929094027
-0.0027396890985801874,-0.4377348625716081,-0.08908407049663665,-1.5398592630208854,0.1933457269218607,1.1478597273099265,-0.08372192526408245
-0.0024696286174329786,-0.43775508658047935,-0.08997077488635809,-1.5392512947512302,0.1945013023818829,1.148291200890246,-0.08497959202920737
-0.0022127070023761687,-0.4377738967825851,-0.09081861916421677,-1.5386714375856334,0.19560015718425172,1.1487019432968806,-0.08617851961901293
-0.001941059943925193,-0.43779198879912284,-0.09170292675983698,-1.5380709165260313,0.19673591231832493,1.1491292183638706,-0.0874220900080194
-0.001653835850368449,-0.4378095356984917,-0.09262317506448926,-1.537450074874513,0.1979103782561091,1.149575433310779,-0.08870904093574694
-0.0013657639499882073,-0.4378256840119794,-0.09353051787699855,-1.5368422472626726,0.19906370773255344,1.1500182227852023,-0.08997167634441525
-0.0010840804899187471,-0.4378400159410854,-0.09440005903669434,-1.536265374376215,0.2001639423818091,1.1504445557748229,-0.09117581212693031
-0.0007795430708718955,-0.4378552508737009,-0.09533323588071045,-1.5356488304464773,0.2013415587590004,1.1509017319321506,-0.09246475320945945
-0.0004908218213285941,-0.43786908267905383,-0.09620701558658915,-1.5350739474133348,0.2024397269365969,1.151330273375112,-0.09366922486852237
-0.00017031766826885195,-0.4378832197704043,-0.09715769247900517,-1.534454008636269,0.20362129455205244,1.1517933075029485,-0.09496975056821771
0.0001595755418648927,-0.43789695417938607,-0.0981243513014773,-1.5338294529572047,0.20480863085188789,1.1522603310635804,-0.09628296475575975
0.0004769663746764412,-0.43790947927591223,-0.09904716250994798,-1.533238680032798,0.205926138192848,1.1527003266486953,-0.09752681795263296
0.0008097646030172603,-0.4379225967887136,-0.10001301856328576,-1.532623091843134,0.2070829192297461,1.1531558922169982,-0.09882011946863964
0.0011350039872529269,-0.43793545253588884,-0.10095882058487025,-1.532021122122532,0.2082116265056614,1.1535997353182508,-0.10008518236834023
0.0014686311400132397,-0.4379487333390633,-0.10192676063539197,-1.5314096402710133,0.2093502897493834,1.1540463631288276,-0.10136518604486296
0.001823017563654502,-0.4379632708401813,-0.10295303261970903,-1.5307669778106607,0.21053711853389365,1.1545120812697662,-0.10270081322770194
0.002178265629075576,-0.4379781185720965,-0.10397861998673634,-1.5301294394954148,0.21170493015708905,1.154971639366655,-0.10401428347607737
0.00251993268683097,-0.4379925079935642,-0.10495511030366418,-1.5295273128882392,0.2128006437073103,1.1554050224989898,-0.10524346465379286
0.002887534839399839,-0.43800766788637996,-0.10597263101580613,-1.5288969890382584,0.21394476892078254,1.1558487655506047,-0.10651730234881766
0.003253118126406807,-0.43802154714936725,-0.10701755783570086,-1.5282601606760613,0.21510220300824548,1.1563288612331901,-0.10781032116147699
0.00365007978486205,-0.4380365234659777,-0.10812147674601656,-1.5275855281817563,0.21631933850364765,1.156825134450066,-0.10915951769256747
0.004057298796376682,-0.4380519158102809,-0.10923054953220239,-1.5269061972705495,0.21753736477860447,1.1573155638119033,-0.11050268993991014
0.004453187431921905,-0.4380667770727241,-0.1102848683522784,-1.5262594260138809,0.21868962945108492,1.1577735145756423,-0.11176897786920474
0.004850888603424039,-0.43808234598890217,-0.11130628707626358,-1.5256278359258788,0.21980601048128215,1.1581985642034556,-0.11299254863095785
0.005254665957309319,-0.4380984156707056,-0.11235434162790255,-1.5249822235035546,0.2209448407481033,1.158634465960106,-0.11424854803693014
0.005666900567638127,-0.438114590886436,-0.1134343095547864,-1.5243253378746768,0.22210437942404176,1.159083296440628,-0.11553508181638678
0.006102851679912849,-0.4381322453344787,-0.11454625289752743,-1.5236540491446797,0.22329051644117673,1.1595292880523036,-0.11685100409178623
0.006535787855790367,-0.438150317522104,-0.11561980824858525,-1.5230119560248196,0.22442633713534646,1.1599438883537598,-0.11810924807241935
0.0069662192344356975,-0.43816787834236526,-0.11671921471706004,-1.522369858332301,0.2255706316067068,1.1603875312183187,-0.11938588482072379
0.007413683468319503,-0.43818734966120404,-0.11781399248409348,-1.5217264412212246,0.22671245491805914,1.1608067294297275,-0.120649404910384
0.007850403407194518,-0.43820577160129814,-0.11892283897653226,-1.5210910607905408,0.22784695135701513,1.161245682181451,-0.1219072181573352
0.008319400607298667,-0.4382255291416128,-0.12008839923734321,-1.5204315453424366,0.22902484434246942,1.1616936151054487,-0.12320571375070781
0.008797797628214159,-0.4382457160539883,-0.12125190473015435,-1.5197798239972362,0.23018709647461,1.162124230235226,-0.12448112289517162
0.009267652087812944,-0.4382652418748104,-0.12238988872835393,-1.519151717923266,0.23130896011943458,1.1625378341316004,-0.12570935635083091
0.009746435876766008,-0.43828438623218546,-0.12355769382946014,-1.5185141056146982,0.23245108814998747,1.1629644972067241,-0.1269621505215906
0.010231693280800607,-0.4383038502207741,-0.12470699979474291,-1.5178849336122353,0.233578511458922,1.1633678599244062,-0.1281884787381553
0.010723204292930577,-0.4383226329692853,-0.12589123860452223,-1.5172491930668452,0.2347308347010213,1.1637948675031187,-0.1294369679554231
0.011245159173557595,-0.438343223493921,-0.12711399687973343,-1.5165964556171256,0.23591570758462885,1.164220881097947,-0.130710800063055
0.011763392053325867,-0.4383647393904501,-0.12829653411805456,-1.5159681913145857,0.2370555731296735,1.1646196617372635,-0.13192685054009584
0.012272957877407918,-0.4383856228081388,-0.12949658996899477,-1.5153450989740003,0.23819367818006495,1.1650413158875657,-0.13314040665854157
0.012801133445053306,-0.4384081477313361,-0.13069710524949404,-1.5147200242860464,0.23933100013390174,1.165446598526118,-0.13435043114820414
0.013316822090916452,-0.43842980992748276,-0.1319003365533304,-1.514105032473664,0.2404571676358637,1.1658626602892737,-0.13554412018801348
0.013863737352304782,-0.4384531479551802,-0.13316398556433628,-1.5134653291417766,0.2416225616647504,1.1662925211676964,-0.13677430033565216
0.014423490814618951,-0.43847732300685505,-0.13443849240125286,-1.5128249053185834,0.24278015154343377,1.1667145444382372,-0.1379923169796216
0.014972718877454032,-0.43850059139487274,-0.13567969066730512,-1.5122073569842078,0.24388862175371848,1.1671181834813438,-0.13915295442369563
0.015526952811941774,-0.43852252427324967,-0.13695957603079512,-1.5115791512439503,0.24501588996255538,1.1675484319636356,-0.1403356274813259
0.01609196007835968,-0.4385450606432847,-0.1382231679085646,-1.5109546648855834,0.24612380335615444,1.1679533524322268,-0.14149431516149427
0.016656439066371008,-0.43856601741632495,-0.13952220196406198,-1.5103213712359451,0.24724393553091162,1.1683826191763265,-0.1426593543324996
0.017258580731369422,-0.4385875625958545,-0.14086958759503046,-1.5096612072914504,0.24839544080632434,1.1688191846529499,-0.14385503538369063
0.017860282412346905,-0.43860832882593015,-0.14218071254583398,-1.509015164262986,0.24950726008561147,1.1692355468811821,-0.1450070996181768
0.0184491256148,-0.4386271935130864,-0.14347976579919713,-1.5083788795017155,0.25060040305968945,1.1696604821373582,-0.1461367173145855
0.019074682221789763,-0.43864681222458374,-0.1448479323086533,-1.5077082537938642,0.25174918478198793,1.1701064496089484,-0.1473210306857502
0.019665033874484115,-0.4386652167266667,-0.1461091767868357,-1.5070849962689887,0.2528116197679874,1.1705110745814133,-0.14841618049984862
0.020277582592224307,-0.43868412930825007,-0.1474054402537823,-1.5064474919980675,0.2538932731305474,1.1709197220320031,-0.14952628066004997
0.020914739980024688,-0.43870395937465284,-0.14874443005599444,-1.5057941633441143,0.25499547742580136,1.1713315727109812,-0.1506525454199989
0.02154212689422545,-0.4387238524078635,-0.1500546503075026,-1.5051607064793762,0.2560570236920534,1.1717232639762807,-0.1517316669557321
0.022175232445358385,-0.43874333636593327,-0.15143594369792954,-1.504509929501643,0.2571530239977728,1.172147579417052,-0.1528383706980765
0.02283949292994377,-0.4387646468225462,-0.1528607908150511,-1.5038422994790304,0.25827104320365274,1.172570186044951,-0.15396721692284146
0.02346287919283355,-0.4387851745469991,-0.15420496711628653,-1.5032196248630945,0.25931261655214805,1.1729634974235552,-0.15501416998860817
0.024142674649942398,-0.4388079189199719,-0.1556640270399091,-1.5025535059671964,0.2604283991972471,1.1733815494342021,-0.15611903526297025
0.024836091708622426,-0.43883092071002194,-0.15714396961084603,-1.501886290759549,0.26154998560181103,1.173802216913196,-0.15721358661859414
0.02550324526529695,-0.43885194474662825,-0.15855300591619512,-1.5012593014818414,0.26261026601809756,1.1742046094038932,-0.15823033742176432
0.026196806716510295,-0.43887215534606944,-0.15999913747656236,-1.5006197973637898,0.2636978395277702,1.1746226635366703,-0.15926071864789665
0.026897253854160568,-0.4388907762613193,-0.16148229323281982,-1.499970971028159,0.2648139485852324,1.1750642785270387,-0.1603050888825667
0.027582153461969385,-0.4389073380034729,-0.16288410486609295,-1.4993549879781707,0.265866906869098,1.175486011507985,-0.16129086648807422
0.028297435451606283,-0.4389225165145516,-0.16432509052748212,-1.4987251752941093,0.2669421176639457,1.1759241379801089,-0.16229083639332587
0.029019659956562284,-0.4389358924614664,-0.1657843305733184,-1.4980964187154264,0.2680216443264991,1.1763729102464457,-0.1632825911469408
0.02970787891723513,-0.43894706780970255,-0.16717770826553985,-1.4975053662445172,0.2690413936451365,1.1768016401942059,-0.16420784566330177
0.030460764459663628,-0.43895977765661265,-0.16871642516331084,-1.496857529693966,0.2701595223819054,1.1772641305287173,-0.16521903574177096
0.031182956752639154,-0.43897153127664396,-0.1702260334992943,-1.4962331271512248,0.27124972902177835,1.1777126672708318,-0.16619109194229956
0.03193882812106184,-0.4389843019103197,-0.17176453715727816,-1.4956003442156565,0.27234546684345173,1.1781613459864266,-0.16717416059298523
0.0326863721886153,-0.4389973027930328,-0.17324726039590388,-1.4949942168090073,0.2733873667829823,1.1785900962734388,-0.16811535991034413
0.03343457611717553,-0.4390100253131821,-0.17476018627349543,-1.4943889935143388,0.274438954052123,1.1790383720916429,-0.16904682343222846
0.034187124538056925,-0.4390231564775366,-0.17625501874343896,-1.4937931493742835,0.2754679311228945,1.179486877546766,-0.16995241243922715
0.03495718828922738,-0.43903696158822564,-0.17778754881073144,-1.4931832120423485,0.2765228626349962,1.1799515564993406,-0.17086900055492427
0.0357471493341392,-0.439051098213555,-0.17939013457687233,-1.4925517516673203,0.2776224573810495,1.1804436568129775,-0.17180572896491644
0.03655013196730449,-0.4390660109415579,-0.18096314970023353,-1.4919266506309905,0.27868973101168626,1.1809220735104682,-0.17272250619992907
0.03736206099674868,-0.43908048937434,-0.1825630966043277,-1.4912939907155651,0.2797652992955973,1.1814059193995479,-0.17362996376828638
0.038156190157471015,-0.439093315928201,-0.1841678118365279,-1.4906677895143872,0.2808357344082292,1.1818893688976917,-0.17450302869213455
0.03899066283887846,-0.439106121538882,-0.18581916462157583,-1.4900206509072906,0.28192527649024507,1.1823788667264699,-0.1753877892867938
0.03977314715265945,-0.4391170226538279,-0.1873706861944038,-1.4894154790542609,0.28294201460248164,1.1828356424189646,-0.176199625798364
0.040616477933155815,-0.4391271996144161,-0.1890394988245226,-1.4887657655047508,0.2840287812548336,1.1833276190184348,-0.1770579026774325
0.0414526777738314,-0.4391362303590584,-0.19065080956137234,-1.4881347229890147,0.2850663317128825,1.1837999164359725,-0.17788349035950815
0.0423002002346539,-0.43914473085654915,-0.19230892663440138,-1.4874916507635194,0.28613904399416434,1.1842916874380494,-0.17870293225115438
0.04315219023044735,-0.4391535555065251,-0.1939694634221351,-1.4868504754738334,0.28721463028805155,1.184789526580876,-0.17950476985660632
0.04401333620158145,-0.43916350558189976,-0.19560366540086074,-1.4862154784423256,0.28827304816845584,1.1852833694698501,-0.18029212795485902
0.044862850176878036,-0.4391741869610962,-0.1972315935017998,-1.4855875161832057,0.28932726440092377,1.18578123426605,-0.18105855996541034
0.04574941348044098,-0.43918738593320167,-0.19891654358999328,-1.4849384212102619,0.2904005148472653,1.1862957177098046,-0.18184647473023446
0.04663553197985004,-0.43920176914472137,-0.20060744998195518,-1.4842947840824063,0.29146038400309865,1.1868096412888447,-0.18262072986888184
0.04750627979101401,-0.43921623428884016,-0.2023222027113009,-1.4836589978622645,0.29252528809921197,1.1873261888971303,-0.18337668782025826
0.04841641045988247,-0.43923149114567706,-0.204088373167284,-1.4830086375306502,0.2936036474964477,1.1878471744124832,-0.18414955388056115
0.04927541997562035,-0.4392457402512945,-0.20575100165174706,-1.482402156310301,0.2946098853232504,1.1883302361310768,-0.1848699745611649
0.050194844096535726,-0.4392599517644485,-0.20752602671372447,-1.4817597473332385,0.2956830169744821,1.1888496523052663,-0.18563044962343744
0.05111099044056989,-0.43927308021818795,-0.2092411739118001,-1.481137188727412,0.29670902007866795,1.1893552400850838,-0.18636990837943357
0.052045992030042044,-0.4392839881206423,-0.21099785081884162,-1.4805088751261868,0.29777106016347854,1.1898870380836954,-0.18711242817971424
0.052975130659268455,-0.4392927652357641,-0.21274012774592155,-1.4798924448887183,0.2988314434967193,1.1904252190250397,-0.18783479637309186
0.05392762033124915,-0.4393013843650233,-0.21448225442967964,-1.4792749686358235,0.29988495313243074,1.1909669547956598,-0.1885589874825508
0.0548430843473617,-0.43930827357130564,-0.21616476656322653,-1.4786857480696374,0.3009034132529366,1.191496946121752,-0.18924618283767214
0.05583056623713531,-0.4393146947379271,-0.21798929570209383,-1.4780545083312464,0.3019955976435896,1.1920713523665498,-0.1899760267065507
0.05679152078422152,-0.4393209826188766,-0.21974373780078987,-1.4774504228661969,0.30302345756664056,1.1926181976044206,-0.19067400624898784
0.05770726723317914,-0.4393271293176675,-0.22143536227462052,-1.4768768646908768,0.3040018966765888,1.1931380858894427,-0.19132899896600003
0.05867236600466519,-0.43933452453083094,-0.22321722786234766,-1.4762786550290299,0.30502003649372256,1.1936766612185081,-0.19200278307338906
0.05960006637003594,-0.43934229407452985,-0.22492587688046833,-1.4757091529977657,0.3059905529235803,1.1941863805081152,-0.1926375897822313
0.06058246304790117,-0.4393517684579626,-0.2267428754350333,-1.4751085260721362,0.30702780509985816,1.1947315546334851,-0.19329454031010093
0.06160979710250569,-0.43936329189201523,-0.2286281039447955,-1.4744863927992675,0.30810446117253193,1.1952997753985166,-0.19396394462959093
0.06260073397493437,-0.43937625510033756,-0.23040927189532373,-1.473895190222854,0.30911549558253,1.1958399971843867,-0.194595120998842
0.06359145573759933,-0.4393897074174244,-0.23221638729950153,-1.4733024507422863,0.31016019190134914,1.1963953815553312,-0.19520974096306473
0.06463757041088965,-0.4394036538083266,-0.234101246854744,-1.472682906243696,0.3112470350714776,1.1969806707184358,-0.19584360155805847
0.06562749634001058,-0.43941655450087874,-0.23589641095373834,-1.4720970662665904,0.3122878652418063,1.1975372104707946,-0.19643283578746287
0.06666092671848053,-0.43942887671221675,-0.2377340674064793,-1.4714952720169316,0.3133373897782878,1.1981013992723486,-0.1970314636201985
0.06771616744867691,-0.4394394961203707,-0.23961737554482132,-1.4708820728574976,0.31441080508744174,1.1986749783158208,-0.19763355081252024
0.06872448155025782,-0.4394475827607457,-0.2414125969746892,-1.4702993506813153,0.31543277095552424,1.1992180598293758,-0.19819657286552309
0.06978477142287696,-0.43945485375310256,-0.24329822163817189,-1.4696889559847364,0.3165122822375869,1.1997851640811437,-0.1987728056096318
0.07084026313056908,-0.4394611692501565,-0.24516907925481007,-1.4690839366966382,0.31758869174962834,1.2003409901430777,-0.19933464113640503
0.07187600767899709,-0.4394678418742429,-0.24696977945430126,-1.4684992556585443,0.318614239128871,1.2008722895069353,-0.1998708971239249
0.07297469264711073,-0.4394765977050032,-0.248885671120745,-1.4678811032356884,0.31970158590224895,1.2014406359023706,-0.20042738383973424
0.07404439428498033,-0.43948715336532884,-0.250736472474785,-1.4672835625949179,0.32073778936848973,1.2019956659172866,-0.20095991623775977
0.07509550561474587,-0.43949931784366625,-0.25260009101069025,-1.4666931486633707,0.32178411222719644,1.2025485855130973,-0.2014693490289448
0.07621294186871667,-0.4395138959021292,-0.25456885408642627,-1.4660726067204548,0.322868559085824,1.2031267571675812,-0.20200185043448957
0.07727228538570505,-0.4395286310259294,-0.2564573315168514,-1.4654870443597598,0.32390490139478967,1.2036755241862773,-0.20249367541443725
0.07836663675559387,-0.4395440823647655,-0.2583614446873984,-1.46489616712761,0.32492402754201966,1.204228981818328,-0.20299106652052007
0.07949986799634545,-0.43955903100278065,-0.2603313393311217,-1.464286563758075,0.3259889833924373,1.2048041090080683,-0.2034986099439276
0.08058167285925381,-0.43957179027477083,-0.2621874801132319,-1.4637114941270455,0.3269936098325223,1.2053501236495936,-0.2039723238818705
0.08170454108371862,-0.4395829476701107,-0.26411884594893054,-1.463115814333185,0.3280552205670915,1.2059227411579878,-0.2044450484504758
0.08283932525499833,-0.4395931908376453,-0.2660590046506003,-1.4625165791732149,0.3291239482386321,1.2065030210101766,-0.2049124867353063
0.08393351398718427,-0.43960219667440015,-0.2679145626707099,-1.4619439253258029,0.3301359132470927,1.2070609820840534,-0.20535431190261244
0.08508852055468243,-0.4396114364044158,-0.26988424696867963,-1.4613430309211173,0.33119333246917576,1.207646741239151,-0.20581547823201587
0.0862212543355873,-0.4396209780082519,-0.2718220083142086,-1.4607571824733327,0.3322119637522397,1.208215246181768,-0.2062661718189236
0.08732324605220348,-0.43963041971636846,-0.27374377608684325,-1.460190002876416,0.3332235151870694,1.2087682951289693,-0.20668758456614555
0.08850026181190973,-0.4396414680445009,-0.27577594558993895,-1.4595934550067204,0.3342788304895524,1.2093479092815347,-0.20712764275441406
0.0896266595746887,-0.4396528084966801,-0.27773050559942464,-1.4590265734206578,0.33530039587641197,1.209898409202116,-0.20753528252452041
0.09077618435443831,-0.439664440998636,-0.2796674946871642,-1.45846157660329,0.33629381597300895,1.21044826398382,-0.20793858864700607
0.09197848096945113,-0.4396754616928609,-0.28169667255702263,-1.4578712533249407,0.3373501142407819,1.2110293967126133,-0.20834335257544664
0.09312496980052284,-0.43968474894836085,-0.28360757715569185,-1.4573135217310378,0.33834191271569447,1.2115834399718661,-0.20871687001138672
0.09429554322790215,-0.4396924764808689,-0.2855925148600888,-1.4567433496604365,0.3393805539380607,1.2121541675142975,-0.20908346318870535
0.09549562751091409,-0.43969928756793175,-0.28762601047896097,-1.4561629336242716,0.34042875538534484,1.2127361705664217,-0.2094574318522393
0.09663932942967142,-0.4397047677428154,-0.2895681756542717,-1.4556139340462213,0.34141472158027614,1.2132849268490684,-0.2098097687318822
0.09784423331870755,-0.43971002483011234,-0.29160156123491954,-1.4550412393193044,0.3424271151153541,1.213853000998795,-0.21017813504171132
0.0990440577391565,-0.43971543320885326,-0.29361900706425026,-1.4544738522580536,0.3434216613516133,1.2144111153791728,-0.2105419196747108
0.10020085997410315,-0.43972105689384705,-0.29557996021454447,-1.4539272767785298,0.34439227869999345,1.214943213429379,-0.2108775506969255
0.10143230618806545,-0.43972806385058727,-0.2976496798658347,-1.4533483417952138,0.345412081676579,1.2155007744233182,-0.21122303989888117
0.10262219661142875,-0.4397356991366504,-0.299659201113014,-1.452787641993727,0.3464094301913967,1.2160395702987574,-0.21154601593083563
0.10381419004304192,-0.43974482248330926,-0.30163079415296196,-1.4522296182555774,0.34736580455770893,1.2165680064400737,-0.21186152940824793
0.1050685580048304,-0.43975547020769534,-0.30372758202656774,-1.4516383815497487,0.34838743056461263,1.2171198891725714,-0.21218178398145413
0.10626815207196764,-0.4397661277114024,-0.30571812659501907,-1.451075185251237,0.34934189059222764,1.2176387740965353,-0.21248455883886647
0.10748136098575096,-0.4397767941460803,-0.3077611775543828,-1.4505058633294783,0.3503354881726859,1.218156258939765,-0.21278140035118967
0.10874841428738462,-0.4397871890718296,-0.3098694474733038,-1.4499176415790318,0.35135123943333313,1.2186856472715968,-0.2130947009381669
0.10995282240370269,-0.439796196396209,-0.3118662367633778,-1.4493615815921328,0.3523166510086396,1.2191763550402719,-0.21338728632142165
0.11121228025882907,-0.43980370390674356,-0.3139200394471603,-1.4487835479023936,0.35329808103193067,1.219671509875557,-0.21368982197040262
0.11248065365388209,-0.43980949542920644,-0.31598784793614804,-1.44819815082998,0.35429037548615544,1.2201656150117175,-0.21398962360539794
0.11369028324068255,-0.43981381054632557,-0.3179769788497,-1.4476338705061158,0.35524693351991626,1.220629694028992,-0.21427223183401006
0.11496383691254625,-0.43981875729385866,-0.32008560810009273,-1.4470363553820798,0.35625248630108236,1.221104267695577,-0.2145666171320214
0.11620916488899452,-0.4398243949529136,-0.32216747538853013,-1.4464511966335303,0.357241638868665,1.221551866718313,-0.21484965167608944
0.11743662933271956,-0.4398313634900655,-0.324192576487067,-1.4458801802910388,0.35817680535844604,1.2219697613977236,-0.2151287928906818
0.11873854951798937,-0.4398407284215474,-0.32634267460174154,-1.4452785822180674,0.3591730603463903,1.2224065278028062,-0.21541598548070306
0.11999611702061284,-0.4398514946699097,-0.3283851533795321,-1.444704169905395,0.3601117195439427,1.2228242514739776,-0.21568787242231338
0.12125232239656104,-0.43986283613209504,-0.33044354911812096,-1.4441334393592107,0.36108291397443626,1.2232383598088343,-0.21594184969908561
0.1225771596470176,-0.43987413600732744,-0.3325838167922522,-1.4435361516349094,0.3620883006930287,1.2236693770738165,-0.2162060693010082
0.12383164207396409,-0.439884317487826,-0.33461632986227374,-1.442971090782122,0.36305253522512143,1.2240771330452858,-0.21645048746575823
0.12512601384190764,-0.4398930017957799,-0.3366897263769483,-1.4423899010556034,0.3640143060550854,1.224494721453504,-0.21670608810698347
0.12644425511457644,-0.4398999892848758,-0.3388287753247607,-1.441795558344991,0.36500109385501556,1.224918864523931,-0.21696459690745956
0.12769583752145647,-0.439905038512988,-0.34087313832579597,-1.441232387049925,0.3659341460638672,1.2253086963874722,-0.21720901889360708
0.12900673623068482,-0.43990941432274083,-0.3430244822528424,-1.440646656256011,0.3669140325267418,1.225696029482107,-0.2174663530263626
0.13031432431256462,-0.4399133443203934,-0.3451652712220887,-1.4400669742853214,0.36788483233579483,1.226067272917336,-0.21772669376575424
0.13158663700889942,-0.4399170253608066,-0.34721377030602874,-1.4395091926570305,0.36879983714547443,1.2264164747853086,-0.2179836075892932
0.13293396304047994,-0.43992147755735217,-0.3493756627265899,-1.4389200961515545,0.3697714089937972,1.226782776988157,-0.2182505176632384
0.13424148868506441,-0.43992657444275024,-0.3514543430707635,-1.4383469199667107,0.37070042726903246,1.2271375516962424,-0.21850436347968
0.13552730628514997,-0.4399325275528363,-0.353528184482897,-1.4377835158628827,0.37164623584235146,1.2274822085601649,-0.2187480556014543
0.13688950887185575,-0.4399393395571326,-0.3557089131296823,-1.43719047261283,0.372630042834309,1.2278438943421948,-0.21900895511800375
0.1381837931922321,-0.4399459223700447,-0.3577940805642305,-1.4366309735787781,0.3735781735711762,1.2281834007187544,-0.21925592602373498
0.1395053240502614,-0.4399531556039448,-0.35988371873700514,-1.436062438069076,0.3745059409905759,1.2285202874078893,-0.21950710115797045
0.14087508196011378,-0.43996066029881076,-0.36205464338395515,-1.4354738894916186,0.37547859918306853,1.2288608659095916,-0.21976258375934452
0.14217505872578992,-0.4399677558350579,-0.3641028090572482,-1.4349161192318964,0.37639090616641907,1.2291750064941518,-0.2200014120835916
0.14351773322329014,-0.4399752640429136,-0.3662430451183539,-1.4343396764725318,0.37735191999632023,1.2294913236126475,-0.22024774973263556
0.14487392643691652,-0.4399830200423006,-0.3684065272023939,-1.4337564506613185,0.3783161308324611,1.229806168954057,-0.22049678000477338
0.14617275140454442,-0.439991236909354,-0.3704763188793952,-1.4331958321337575,0.3792236570691902,1.2300993618170566,-0.22073268943507646
0.14754200972890721,-0.44000118675132843,-0.37265978961445334,-1.4326045709764765,0.38017037731552394,1.230395764307999,-0.22098097412292728
0.1488888332424827,-0.44001211396418133,-0.374797361352032,-1.432024174800715,0.38108725515445513,1.2306741709014601,-0.2212248143948211
0.15020420852244862,-0.44002309126018735,-0.3768922774129853,-1.4314622726526478,0.3820025837482117,1.2309365213500143,-0.22146379925144824
0.1516046969480972,-0.44003491413716006,-0.3790884884400756,-1.4308661614088114,0.3829611117877205,1.231215752420998,-0.22172023574079036
0.15294889186620575,-0.44004562726561997,-0.38119207885125905,-1.4302972799725313,0.3838931980085464,1.2314863945199483,-0.221973516407458
0.15430062361116487,-0.4400576831521048,-0.3832632600785351,-1.4297202222995318,0.384794072005621,1.231760623302863,-0.22222394584807648
0.15570984050856848,-0.440071648422478,-0.38544886898314545,-1.4291123927890017,0.3857542813868058,1.232047585572949,-0.22247877401142807
0.15704200893626807,-0.4400869562977851,-0.38751739275771035,-1.4285293242997217,0.3866508956687761,1.2323132582728265,-0.22270762139786246
0.15840326927086631,-0.4401043964954085,-0.38966563452842495,-1.4279329706490937,0.3875896776005067,1.232569489602193,-0.22293910201738767
0.15980190417660597,-0.44012395556289996,-0.3918652496653659,-1.4273220271133793,0.388536466582001,1.2328173809646639,-0.22317655206336529
0.16113526433936853,-0.4401442557520315,-0.39395455803105583,-1.4267434598913906,0.389428251587897,1.2330388521175224,-0.22340229757122895
0.16253679937954202,-0.4401677434394737,-0.39612430451724234,-1.4261378906644868,0.3903429454798906,1.233269048136538,-0.2236351463114544
0.16393482217187305,-0.44019270581987374,-0.398274281844303,-1.425534216182763,0.3912494818729263,1.233506276501249,-0.2238629185029488
0.16528298355629045,-0.4402175614816902,-0.40035706577233354,-1.424957278896844,0.39213846503205646,1.2337442674820325,-0.22408585823671381
0.16671084194752847,-0.4402437397822521,-0.40255754310145103,-1.4243490532664773,0.393076145185799,1.234007237095095,-0.22432484277971068
0.16809414674235013,-0.44026847633967026,-0.4047007042290614,-1.4237641673882673,0.3939991005708077,1.234267672717997,-0.2245641368350675
0.16946356629697812,-0.4402933360892216,-0.40679301286149505,-1.423183433622265,0.39487819502250204,1.2345249907572635,-0.22479576242367866
0.1709091304099187,-0.44031790088617756,-0.4090084503218157,-1.422574432737196,0.395816663061964,1.2347875962463823,-0.22504214322019175
0.17228691353668016,-0.4403404885831806,-0.4110979983160765,-1.4219938837880064,0.3966899447079099,1.2350295315119717,-0.22526724109328322
0.17367953990550036,-0.4403611382405756,-0.41322962682396874,-1.4214162201243903,0.3976022414006995,1.2352659766541438,-0.22549569524654717
0.1751272332378952,-0.4403830317141607,-0.4154305113078024,-1.4208164170839703,0.3985337189220083,1.2355103198118493,-0.22572614468853996
0.17649712702246986,-0.44040372612009365,-0.41751929086464723,-1.4202517486208375,0.39941996622587306,1.2357445546992596,-0.2259397262947254
0.17791673113415352,-0.44042897263879754,-0.419672885213171,-1.419664789041498,0.4003120603302935,1.235992563238461,-0.22614451677250091
0.1793507262724432,-0.4404575573952233,-0.4218622634726868,-1.419073475838542,0.4012145090977737,1.2362450154940432,-0.22634422415469266
0.1807236848662238,-0.44048772101687633,-0.42396423267341615,-1.4185131554035353,0.40208321304097777,1.236483819041852,-0.22653075546964888
0.18217574291286875,-0.44052087080799823,-0.4261736178007358,-1.4179277980686653,0.40299936856686946,1.2367306785648078,-0.2267291006608871
0.18360773489710508,-0.4405532871218011,-0.4283400882457305,-1.417357573491037,0.403905703976492,1.2369696700097996,-0.2269294920661484
0.1850091696433795,-0.4405865997449395,-0.4304220512289402,-1.4167970003985533,0.40476271625835525,1.237207701376982,-0.22711527172036142
0.1864909865268504,-0.44062137236115856,-0.43262692090792354,-1.4162044570693786,0.40568101320733474,1.2374633386791234,-0.22731328535920708
0.1879088646131977,-0.44065564536758806,-0.434730278638232,-1.4156291911200172,0.4065472656089365,1.2377145814284458,-0.22749527064349598
0.18932111846584732,-0.44068837195083266,-0.43685848237781716,-1.4150637563725463,0.4074398850897714,1.2379553245026098,-0.22768923725399945
0.19080377944099788,-0.4407244385072791,-0.4390837946102501,-1.4144686535941056,0.408352470291631,1.2381983977058637,-0.22789281069059913
0.19221038180646965,-0.4407587427522674,-0.44120507435034767,-1.4139109060620068,0.409223088096931,1.2384163975431797,-0.22809485383001576
0.19365060856536132,-0.4407977897713979,-0.44334423666398126,-1.4133340960655547,0.41007339877462573,1.2386386873560349,-0.22829348367088714
0.19516091534614258,-0.44083900086996725,-0.44559085841292667,-1.4127367837381002,0.4109814751876383,1.238868316620484,-0.22851176266942946
0.19658424370909394,-0.44087962993053326,-0.4476920025046105,-1.4121712765627874,0.4118287823515987,1.239087934136718,-0.22871786208912373
0.1979906625128759,-0.44092218293589186,-0.44974796243855003,-1.4116039607065611,0.41264700934774284,1.2393134086320499,-0.22891705591279396
0.19942353365411555,-0.4409652390510937,-0.451855465734665,-1.4110308926700563,0.4134951695140905,1.2395378065080322,-0.2291294019383462
0.2008162412292972,-0.441008402987071,-0.4538990021320002,-1.410471542085207,0.4143056864465317,1.2397614564737158,-0.22933332565207473
0.2022966620541051,-0.4410537515308073,-0.4560781106047608,-1.4098841615146003,0.41516842164149365,1.2400020350303602,-0.2295538289842534
0.20380884712595487,-0.4410988653392221,-0.4583133887360256,-1.4092963277248007,0.4160596388120807,1.2402462538991776,-0.22979080717378422
0.20521070739029543,-0.44114096368304,-0.46037543563201694,-1.4087547531839562,0.41687484600442754,1.2404808552224393,-0.23001328307593555
0.20671131870408682,-0.44118665519171113,-0.46257155070905437,-1.4081760078648073,0.41773229412348756,1.240735723778996,-0.23025254640125464
0.20817242177091547,-0.44122946138610086,-0.464730323600192,-1.407625192643834,0.41859078977634934,1.2409752135946115,-0.23050054124181354
0.20966081132837666,-0.4412760603543894,-0.4669119905015255,-1.407054503690525,0.41943013869058016,1.2412252131388875,-0.2307435424374319
0.21113003956426285,-0.4413243398922957,-0.46906045067674823,-1.4064839199364803,0.4202367266406892,1.2414718138192646,-0.2309803810648028
0.21262905070269777,-0.44137202578213913,-0.47128645858215396,-1.4059144341489478,0.4210908546574171,1.2417080583775642,-0.231240099802381
0.21408034498146153,-0.4414196588423908,-0.47342525687349546,-1.4053612511526035,0.42189372812856485,1.2419450197623567,-0.23148526368417674
0.2155130167555133,-0.4414668952129117,-0.4755072337719091,-1.4048146780056285,0.42265872252430303,1.2421867051571815,-0.23172032962520261
0.2169629552228171,-0.441511611329303,-0.477611654640663,-1.4042760498201086,0.42344594230110755,1.2424244376071882,-0.23197413289437627
0.2184255437140434,-0.44155790602282624,-0.4796977000217825,-1.4037243246877669,0.4242033127985175,1.24268382852504,-0.23222284619937902
0.21993266165258693,-0.44160341750628523,-0.48186232861236683,-1.4031607938824446,0.42500296409079225,1.2429513296327341,-0.2324915235967286
0.221416707395848,-0.44164599572687535,-0.4840289930319923,-1.4026141599769217,0.425821527588205,1.2432070597845455,-0.23277305606945997
0.2229483055400961,-0.44169328256391355,-0.48626457928907235,-1.402038349109321,0.426639964782352,1.243476871276852,-0.23305477321976553
0.22434841904365355,-0.4417387193482493,-0.48831899111727184,-1.4015069036802177,0.4273760805157093,1.2437243182885593,-0.23330896762988518
0.22581736416712075,-0.4417892363181959,-0.4904692546965497,-1.4009493613291872,0.4281304099399445,1.2439807382358299,-0.23357633739266503
0.2273051267962877,-0.4418429195303089,-0.4926309020314624,-1.4003844679397357,0.42887477095828924,1.2442399100599224,-0.23384487066324597
0.2287582977929553,-0.4418961825138395,-0.4947276307765048,-1.3998359620887364,0.4295938553375028,1.244489892788546,-0.2341097307438668
0.23027229446229583,-0.4419484594372234,-0.49692244804975017,-1.3992786409060567,0.4303755590202643,1.2447343472355497,-0.23440510296649067
0.231816163343575,-0.44200220913908334,-0.4991415606184392,-1.3987032560460815,0.4311581869957023,1.2449940597133315,-0.234699882686889
0.23331723002361107,-0.4420523274029604,-0.501306634365772,-1.3981471052323893,0.43193140955840453,1.2452436578281998,-0.23499226213923752
0.23479512848107367,-0.4421044489555572,-0.5034153445220091,-1.3975761248440441,0.4326499634820697,1.2455140564303682,-0.23525626241609632
0.23623260060321988,-0.4421556149353064,-0.5054632188034278,-1.397013679609335,0.43332917150949113,1.2457850190608546,-0.2355060480749515
0.23761511095832363,-0.4422027457803284,-0.5074459689608578,-1.3964832863373045,0.4339859543615053,1.2460366229257172,-0.23575589435964753
0.23911008651778257,-0.44225325266816123,-0.5095937494222493,-1.3959188171187877,0.43469420483591475,1.2462977357964296,-0.23603252450759427
0.24061725117300606,-0.44230147446396106,-0.5117756417243139,-1.395367929310749,0.4354318031094141,1.2465428685982651,-0.2363285084319907
0.24216406738446833,-0.44235299753398977,-0.5140105194624628,-1.3948010622081242,0.436172649561023,1.246794359202743,-0.23663033524570903
0.24366879169432892,-0.4424080446138404,-0.5161694747056078,-1.3942333327553142,0.4368563872358874,1.247049559988557,-0.23690736451609845
0.24520179608607057,-0.44246337631574373,-0.5183905384746446,-1.3936665560031856,0.4375654131801707,1.2472953069569241,-0.23720167244431883
0.24671544529554001,-0.44251701304229785,-0.5205995862371714,-1.3931181130288015,0.43827406182228945,1.2475301326303232,-0.2375025212871378
0.2482532633434026,-0.4425734332154128,-0.5228217564501064,-1.392549925585636,0.4389617340389308,1.2477876892152282,-0.23779427789778823
0.2497223361718557,-0.44262542444378267,-0.5249414697174762,-1.3920154910464675,0.43962142312626123,1.2480307528075185,-0.23808018794045413
0.2513116562276201,-0.4426790812389176,-0.5272236894616471,-1.3914410114871303,0.4403309060902563,1.24829161994189,-0.23839403459948505
0.2528470600665695,-0.4427309514411975,-0.529405989614181,-1.3908766848560716,0.44098908444093937,1.2485539049294583,-0.23868798740178665
0.25430247144155665,-0.4427778515814389,-0.5314770859911974,-1.390343226538511,0.44161188404484236,1.2488004903939265,-0.23897199107116443
0.2558155865801218,-0.4428267757585774,-0.5336439725471731,-1.3897854240109104,0.4422529392310777,1.2490515010862613,-0.23927328270713222
0.2572643691290911,-0.44287534376519483,-0.5357296809289329,-1.3892444705567628,0.4428538778595036,1.2492865511232505,-0.23956231748551063
0.2587803244986641,-0.4429267795306024,-0.5379381807027979,-1.3886863203655864,0.44349107303241597,1.2495158573514416,-0.2398768110090799
0.2603566957452108,-0.44298280353421193,-0.5402382459275292,-1.3881067132124516,0.44414199270723553,1.2497507048060035,-0.24020590166194752
0.2619210886605462,-0.4430401413946515,-0.5425142844958598,-1.3875340274193673,0.44478008797270535,1.249980243677256,-0.24053646273477286
0.2633640947446847,-0.44309594046110795,-0.5445922199247293,-1.3870003871983312,0.4453509080939815,1.2501921467540746,-0.2408350895013555
0.2649011923869542,-0.4431558018657612,-0.5467815808281259,-1.3864266261493972,0.4459472955452985,1.2504226770894324,-0.24115166743125005
0.26637541002149456,-0.4432107968778677,-0.5488769131146558,-1.3858832943949777,0.4465330932300399,1.25064106434268,-0.24146975324838305
0.26788965486287886,-0.44326879522875784,-0.551015076993375,-1.3853049564062385,0.4471117213304679,1.2508781000603701,-0.24178651432380047
0.269490257603799,-0.4433267206685625,-0.5533042248518679,-1.3847003349152696,0.44775042231012524,1.251114173760631,-0.2421405456791237
0.2710111388384462,-0.44338139204802585,-0.5554914408470008,-1.3841199315166968,0.4483564882570725,1.2513311067198478,-0.24248138768362235
0.27252160230908595,-0.44343733262904567,-0.5576643734665809,-1.3835365279998815,0.4489429823749763,1.2515459860780345,-0.2428162368596116
0.2740809284512519,-0.44349346259891403,-0.5599123016170617,-1.3829488690035114,0.44955802198653666,1.2517582531813456,-0.24317584614367366
0.27563294553728995,-0.44354914397885087,-0.5621448925946861,-1.3823668610266484,0.4501651758494719,1.2519655250755348,-0.24353765111694842
0.2771678684064232,-0.4436084087759239,-0.5643291612759689,-1.381771881768762,0.4507267529447628,1.2521829151043868,-0.2438770215998536
0.27874935175921844,-0.443668060173651,-0.5665910789544705,-1.381169334156669,0.4513218105445363,1.2524001413666248,-0.244239858350215
0.280226969256804,-0.4437243900345808,-0.5687130984379946,-1.3806042842231512,0.45187804765793804,1.252609180131207,-0.2445788227511053
0.2818004260846294,-0.4437858254856517,-0.570967892784883,-1.3799977934871626,0.45246078654793853,1.2528419063550442,-0.24493346263380378
0.28334098836537924,-0.4438432636369431,-0.5731853503785476,-1.3794216359488847,0.45305577399203495,1.2530610375652322,-0.24529690238552143
0.28490872950788637,-0.4439055494645041,-0.5754236319714902,-1.378820743585291,0.45363388378104097,1.2532948558085313,-0.24564885401157183
0.28645624086015997,-0.4439694900580604,-0.5776154553878028,-1.3782204032457526,0.45418652241791535,1.2535316720382454,-0.24598602431287828
0.2880446491830952,-0.4440317900826853,-0.5798739075685505,-1.3776273223725402,0.4547852317665136,1.2537577971193774,-0.2463548551013402
0.28957466895564316,-0.4440935447788272,-0.5820424522016345,-1.3770461047074911,0.4553463136412632,1.2539779309653347,-0.2467007532302307
0.29107333315198675,-0.4441568113989025,-0.5841634194416211,-1.3764590741307652,0.4558727090138453,1.2541978207561806,-0.24702590280227674
0.29258272973183236,-0.44421878622190014,-0.5863204541897742,-1.3758772068505207,0.4564174756624827,1.2544042597679324,-0.24736809479083272
0.2940979358221151,-0.444284458844387,-0.5884773135360039,-1.3752730620679712,0.4569309201947318,1.2546212365579814,-0.2476931341313079
0.2956619062037075,-0.4443496842680952,-0.5907049105956488,-1.3746607043949186,0.4574734941576561,1.254835671791975,-0.24804109301210397
0.29723013932257414,-0.44441033957216114,-0.592939634970303,-1.3740681111704183,0.4580474895063182,1.2550344898760308,-0.24841439923718195
0.29878401190940224,-0.4444750441221187,-0.5951166636105572,-1.3734538290354195,0.4585767873179305,1.2552532638451581,-0.2487577762973842
0.30032944766389486,-0.44453495327128245,-0.597281321688434,-1.3728575818014879,0.4591319994116137,1.255464997235371,-0.2491212671934349
0.30193468267963613,-0.44459977820067226,-0.5995240578459912,-1.372222808402373,0.45970498457899944,1.2556906053114811,-0.24949892735552398
0.3035317833146983,-0.44466887406509087,-0.6017574385166705,-1.371570437720876,0.46026483563196996,1.2559197727465197,-0.24986987247886625
0.3050645418852196,-0.44473987066132165,-0.6039133332001267,-1.370929933782619,0.4607985964032445,1.2561371080242711,-0.2502274814996039
0.3066218835079294,-0.4448129976938424,-0.6061292252573062,-1.3702902887428965,0.4613609914567968,1.2563415239620024,-0.2506088607727347
0.3081609874067153,-0.4448913337046378,-0.6083075684264896,-1.3696413228577806,0.4618839659880781,1.2565528177616665,-0.2509680011166912
0.30972333037553124,-0.4449684558965515,-0.6105219659628561,-1.3690063597826039,0.46243987968347644,1.2567485151436955,-0.25135991497613086
0.3113429951048447,-0.44505373642247337,-0.6127923532707866,-1.368336219300809,0.4629953939170022,1.2569599422670679,-0.2517601347663989
0.31291361342649276,-0.44514106704829665,-0.6149702411458052,-1.3676741091156999,0.463517311123754,1.257179415183629,-0.25214109827793774
0.31447138892488036,-0.44522462965296355,-0.6171354424223268,-1.3670337539731328,0.4640637882606882,1.2573966222085098,-0.2525408315357049
0.3160394096596887,-0.4453112535911152,-0.6193092817024436,-1.3663690161845021,0.464595636225258,1.2576327223263997,-0.25293013645695134
0.3175872532600314,-0.4453938629997256,-0.6214639008106315,-1.3657210550125378,0.46513895330669963,1.2578578304685948,-0.25332614114095475
0.319192946492127,-0.4454783274065552,-0.6236998644740137,-1.365050986701382,0.4657038850125795,1.2580900982738497,-0.25374015638185543
0.3208106277107944,-0.445563360218449,-0.6259452808155351,-1.3643682403287305,0.4662589770994521,1.2583294297689276,-0.2541490768842321
0.3223643517529453,-0.4456454579592304,-0.6280947129885409,-1.363705534268944,0.46678010360278993,1.2585620720334614,-0.2545351776272779
0.32394557050684,-0.44572370064614203,-0.6302931200478012,-1.36305142944389,0.46733922753481166,1.2587778332009187,-0.2549511399386565
0.3255107693785753,-0.44580793100975696,-0.6324549914422909,-1.362374841880496,0.467856855368994,1.2590028119620278,-0.25533893197059176
0.32708233523274993,-0.44588997660596574,-0.6346518146991241,-1.3617135037421644,0.4684125824668397,1.259210852673748,-0.255747717559218
0.32871291668226005,-0.44598322483307756,-0.6369288045478569,-1.3610081804990293,0.4689743329661118,1.2594400843481757,-0.2561554503874428
0.3303017677170453,-0.44608223393081387,-0.6391426218821654,-1.3603031527996206,0.4695073195372406,1.2596735454353172,-0.25653695965233536
0.3318674650784069,-0.4461828974078307,-0.6413232387221668,-1.359616237952609,0.47005240502472545,1.259893304416144,-0.2569213352446772
0.33345803187201883,-0.4462905837105768,-0.6435164455708676,-1.3589108351978094,0.4705961039880167,1.2601232557672397,-0.25730441034322027
0.3350292518145077,-0.4463980474236563,-0.6456691822016202,-1.358213877196934,0.4711380329112278,1.260353702925835,-0.2576831414605382
0.33665035974018553,-0.44650957251119,-0.647884725868298,-1.3574927641930934,0.47170829901579553,1.2605865631103932,-0.25808019607424626
0.33829230923757936,-0.44662657498883274,-0.6501227339214039,-1.356743474964082,0.47227377502690565,1.2608222149758819,-0.2584758303093747
0.33986119496777434,-0.4467424590974165,-0.6522629245500428,-1.3560092880310703,0.4728005731149948,1.261044866994547,-0.2588465547036119
0.34144600628106836,-0.44685483575155743,-0.6544564285408805,-1.3552900857589865,0.47336584236483015,1.261245242401524,-0.2592460048668789
0.34302125716769555,-0.44697362137893554,-0.6566268527646678,-1.3545511139379909,0.4738862239269439,1.261460543086242,-0.25962026707746955
0.3445984335211157,-0.4470872902020949,-0.6588128550147998,-1.3538380639939314,0.4744363614670746,1.2616558074686486,-0.26001638036355096
0.3462470024431315,-0.44721295329008576,-0.6610746810096759,-1.3530840442432588,0.47499483955042715,1.261864896882561,-0.2604215007661739
0.3478718287985716,-0.44734322193285747,-0.6632810538229514,-1.3523312470647222,0.4755324884898054,1.2620787125709578,-0.26081322755284836
0.3494600012751146,-0.4474723818057307,-0.665428431201256,-1.351601615218923,0.4760724598861209,1.262288071922576,-0.26120365509146604
0.3510730452646323,-0.4476051794709572,-0.6676081303385873,-1.3508594605941548,0.4766292084778828,1.2625053577989493,-0.26160438779655676
0.3526605700535912,-0.44773912784300407,-0.6697548384994332,-1.3501201481807386,0.47717324616223783,1.2627236164693925,-0.26199562772425106
0.3542885804557951,-0.44787568764342456,-0.6719679485036453,-1.3493724414173434,0.477750470173944,1.2629334888335892,-0.26241277434693316
0.35595403891295874,-0.44802014352533326,-0.6742244905942608,-1.3485971556828942,0.47832503622577993,1.2631466639049076,-0.2628398391988066
0.357554765134424,-0.4481635239864652,-0.6763826565810709,-1.3478424398094937,0.4788589494832045,1.2633502012343265,-0.2632504890835048
0.35916854844871626,-0.44830126197199893,-0.6785665548204521,-1.3471052569361504,0.47942901149184886,1.263530237774561,-0.26369108204320596
0.360784921850932,-0.4484461568045535,-0.680722820284644,-1.3463411863850878,0.47996463270644185,1.2637210348433139,-0.2641117987378378
0.36238883345198036,-0.4485855832173542,-0.6828800913750019,-1.3455965202357894,0.48052751674429506,1.2638924416522008,-0.26454622730516164
0.3640586460925595,-0.44873985687982193,-0.6851177256532526,-1.3448043833854015,0.48110820490914674,1.2640755169931168,-0.26498030818093377
0.36571155400831706,-0.4489024375141183,-0.6873259006338047,-1.3440046006035467,0.48167690252265893,1.264262870452804,-0.2653902620522235
0.36731206024798263,-0.4490667866496598,-0.6894618928534122,-1.3432274951332235,0.4822348963187118,1.2644420993100858,-0.26577683884572545
0.3689455625077745,-0.4492365885716187,-0.6916383028051568,-1.3424451374541095,0.48281974116073256,1.2646172369828068,-0.2661710958349885
0.37056091059308777,-0.4494096999787617,-0.6937674918572507,-1.3416601099228993,0.4833798119499501,1.2647977952343408,-0.2665454412260848
0.37220870374173126,-0.4495827026634174,-0.695940094059394,-1.3408740286704321,0.4839797427723071,1.2649720372317488,-0.26694077015013196
0.37390558130271234,-0.44976590082290235,-0.6981626723428075,-1.340051113975782,0.48458661082025256,1.2651582729983941,-0.26733924545132826
0.37554039121849914,-0.44994737384987765,-0.7002945661420611,-1.3392437840567326,0.4851601810347305,1.2653423311785326,-0.2677148119562291
0.3771684353571925,-0.4501238932605968,-0.7024476179367626,-1.3384553388499865,0.4857636242565299,1.265507137024732,-0.2681125039798434
0.3788028055961154,-0.4503104759256422,-0.7046028212279616,-1.337646140484622,0.4863403889685559,1.2656795886677545,-0.26849401316087557
0.3804196680553692,-0.4504915536249866,-0.7067510465546533,-1.3368601707547099,0.4869338108496819,1.265834429615492,-0.26888662897163423
0.3821069781525673,-0.45068269382305737,-0.7089757722488541,-1.336040040044281,0.48754905839273033,1.265993702185312,-0.26929585853791654
0.383799822444719,-0.4508777172686639,-0.711182023078381,-1.3352120399439098,0.48815680737275163,1.2661575396508968,-0.269701146270012
0.38543448550088816,-0.45106674746722814,-0.7132900118780199,-1.3344096793878848,0.4887429092293543,1.266318321195112,-0.2700909274778805
0.38709944084054493,-0.45125302309599974,-0.7154400932136795,-1.3336031858855781,0.48936908365567044,1.2664761905482307,-0.27050547218502335
0.3887436447215006,-0.4514441052521236,-0.717549413669992,-1.3327826773621836,0.4899636682367384,1.2666461175229788,-0.270899427046441
0.39040092138828614,-0.4516353217462597,-0.7197051055209875,-1.3319625225322353,0.49059883227807194,1.2668016885559412,-0.2713226686357788
0.3921135450642873,-0.4518448400367612,-0.7219308360862918,-1.3310950830797357,0.4912411218329804,1.266957724003369,-0.27176199308381466
0.3937753202140406,-0.45205990439762556,-0.7240860896057966,-1.3302362851785412,0.4918498285116969,1.2671032172915657,-0.2721899143513654
0.3954108806914785,-0.4522729014557963,-0.7262183923203561,-1.3293969872565274,0.49247001392125844,1.267227519402958,-0.27263405855379225
0.3971219483218561,-0.452499377615535,-0.7284333973561696,-1.3285130700316503,0.49311338026772034,1.2673567936710473,-0.2730985730819734
0.3987791185496559,-0.4527179146543226,-0.7305748329607807,-1.3276536541623523,0.49374194038251323,1.267480940930892,-0.27355462042217255
0.4003537294199283,-0.45293551179647584,-0.7325759622254706,-1.326815697272636,0.49430555706849033,1.2676101135674336,-0.2739595604290867
0.40196045105612377,-0.45316225030103646,-0.7346089414823994,-1.3259537589277457,0.49487768621561284,1.2677415222282196,-0.27436168805956695
0.4035388365043689,-0.4533887496028285,-0.7366049657196075,-1.3251056194606818,0.49544283343909284,1.2678675665118833,-0.27474904225924296
0.4051865926901845,-0.45361869498720536,-0.7387154486461388,-1.3242481196705036,0.4960782899373353,1.2679833059721133,-0.27517601905367867
0.4069196519632056,-0.4538651343079518,-0.7409211205743526,-1.3233468193262536,0.49673690055241143,1.2681107763336603,-0.2756195056073265
0.40858802784636084,-0.45410054218831913,-0.7430420458248126,-1.3224898103522782,0.49738482223358077,1.2682333655284763,-0.2760559422378569
0.4102724834958574,-0.45434899518164695,-0.7451467361906693,-1.3216156946086968,0.4980083670972128,1.2683675631447013,-0.2764797639753908
0.4120225599256607,-0.4546053391427494,-0.7473395765539211,-1.320712797288178,0.49867331855852154,1.26850126501024,-0.27693558940315727
0.413727751242277,-0.45485330906200544,-0.7494891518261969,-1.3198377941293102,0.4993364259408158,1.2686218387046417,-0.2773933805573771
0.4154011997319222,-0.45510555194500485,-0.7515880557558349,-1.3189673195028875,0.49996426297804175,1.2687403999425033,-0.27782765022430017
0.4170961977707147,-0.4553586747116942,-0.7537364422994388,-1.318090841853066,0.5006139211533411,1.2688487054141127,-0.27827580567708504
0.41876654897535415,-0.4556138427666131,-0.7558494508074636,-1.3172282940215196,0.5012407254835386,1.2689549580051027,-0.27870654272561696
0.42049804011926806,-0.4558838045256979,-0.7580216472160716,-1.3163338941359544,0.5018843673060959,1.269070742011517,-0.27914598020988723
0.42225923076522603,-0.4561576555611953,-0.7602206069475632,-1.3154285370349224,0.5025532161725401,1.2691907444097545,-0.27959872102610794
0.42395660348725217,-0.45641967727841404,-0.7623276395547876,-1.314556127403311,0.5032125993156761,1.2693096610806014,-0.2800420594612681
0.42566817919910693,-0.4566934050454224,-0.7644139930387556,-1.3136546856340796,0.5038482484014678,1.269441150088342,-0.2804677918452811
0.4273872618901093,-0.45695775947437023,-0.766541629332852,-1.3127519462752466,0.5045324629206934,1.2695600844399426,-0.28092619666594704
0.42912819304173977,-0.4572383422513717,-0.7686814769585144,-1.311817825762305,0.5052026749576317,1.269677745656048,-0.28137392618603074
0.43080392151074753,-0.45752104599723253,-0.7707323706453926,-1.310905081383191,0.5058266426253448,1.2697880024120691,-0.2817907615885146
0.4324837392859177,-0.45780448752425684,-0.7728079669037161,-1.3099946535680913,0.5064729211473735,1.2698840876596316,-0.2822231101836199
0.4341383438120815,-0.4580929421095734,-0.7748397455392764,-1.3090938094279168,0.5070931048725057,1.2699801401465984,-0.2826362917550254
0.43583361946420507,-0.4583890443364423,-0.7769176207759517,-1.3081728894563065,0.5077325497244018,1.2700828124123078,-0.283061779180905
0.4375755468852867,-0.4586895079144683,-0.7790582217210259,-1.307232715030464,0.5084080697293387,1.2701877888517452,-0.2835068705951329
0.43936481255930027,-0.45900493503437323,-0.7812380404017372,-1.3062607973625382,0.5090861781206166,1.2703023452969928,-0.28394484115502194
0.4410647916860686,-0.4593119342969525,-0.7832891443898097,-1.3053295408871752,0.5097098727860271,1.2704176047854894,-0.2843374938225151
0.4427130756970668,-0.4596056033741693,-0.7852956239767621,-1.304431152807427,0.5103331984442507,1.2705221771986772,-0.2847252113818274
