AdrianPrados/GaussianPathwiseLfD/ExpJointIiwa/joint_gaussian_5_joints.csv
joint_0,joint_1,joint_2,joint_3,joint_4,joint_5,joint_6
-0.012814312196980565,-0.4351137103703721,-0.0018563564088645403,-1.5760134793939244,0.0027984603990489324,1.1333017104719516,9.371665409969628e-05
-0.012814252310370606,-0.4351117929080226,-0.0018567758333004102,-1.5760023340485703,0.0027984603990489324,1.1332586271284493,9.359677179669992e-05
-0.012814252310370606,-0.43510987544567314,-0.0018564164045575776,-1.5759902898586515,0.002798172768788204,1.1332174013606864,9.311746075087097e-05
-0.012827674655899991,-0.43510436271414765,-0.0018594723669947415,-1.5759800433578623,0.0028072807694897364,1.133122486319889,9.245827170900836e-05
-0.012834325887513185,-0.43510196583166927,-0.001859292598081786,-1.575974470739727,0.0028082394788478565,1.1330680779712028,9.185907836018305e-05
-0.012841216774649293,-0.4351007674449716,-0.001858453640126968,-1.5759687182435953,0.0028049797274039066,1.1330106135509963,9.11999984013987e-05
-0.01284852719530435,-0.43509932929366796,-0.0018582738712140125,-1.5759656023945483,0.0028042128297305806,1.1329528495886567,9.042092705653973e-05
-0.012855058653697625,-0.4350975317136215,-0.0018586334090399234,-1.5759662614745071,0.002809006376521183,1.1328880748568784,9.006149831370714e-05
-0.012861170578571952,-0.435095554255579,-0.0018590529425588716,-1.5759689578991183,0.0028137042792687763,1.1328213826627502,8.970196048779631e-05
-0.012879266697672021,-0.4350936367932295,-0.0018611501738212992,-1.575977466706471,0.002819648521635218,1.1326761938491816,8.832369579411204e-05
-0.012891071232067884,-0.4350927380577478,-0.0018622286782159535,-1.575981960820212,0.0028247296986865494,1.1326057865035746,8.772450244528674e-05
-0.012903894275165365,-0.4350921387553159,-0.0018625882160418644,-1.5759871740096045,0.002831057389889655,1.132541191540709,8.658600235759519e-05
-0.012918634889695397,-0.4350916594442701,-0.001862887867257816,-1.5759918477831751,0.0028388232323964036,1.1324864835408068,8.51479601370301e-05
-0.012935412848877897,-0.4350911201375312,-0.0018634870606066415,-1.5759947839723925,0.0028485064936193934,1.1324392657304727,8.382969113638314e-05
-0.012954108270409869,-0.4350906408264854,-0.0018645056783913366,-1.575996162128003,0.0028624082156444536,1.1323951637691856,8.203200200682898e-05
-0.012997191504829192,-0.4350886633684429,-0.0018677414097414558,-1.5759981395860456,0.0029034421280893165,1.1323073792710472,7.855661513379527e-05
-0.013022777813497272,-0.4350874049860522,-0.0018700784056098763,-1.5760007760149637,0.002932491911758286,1.1322599816918,7.687880830723747e-05
-0.01305004192899191,-0.43508542763709274,-0.0018725351746982147,-1.5760031728974422,0.0029693073634010783,1.1322136027303376,7.442203921889896e-05
-0.013078624313487195,-0.43508368994365626,-0.0018749919437865534,-1.5760060490909664,0.003010533087530736,1.1321692611135274,7.166561891460866e-05
-0.013109963118286772,-0.4350817124856137,-0.0018777482550077654,-1.5760096443601423,0.003053964035170288,1.1321280353457646,6.825011865153401e-05
-0.013143698696481647,-0.4350794954811314,-0.0018803249063991001,-1.5760150373184478,0.003100366929460136,1.132089026691567,6.411565181971594e-05
-0.013214285701918524,-0.43507458194295473,-0.001886436831273428,-1.5760314556307213,0.0032106218217695707,1.1320106498453464,5.428857546636187e-05
-0.013251017355940605,-0.43507176563604044,-0.0018906912894913206,-1.576040923169249,0.0032715975171818705,1.1319688248842346,4.8416306114948696e-05
-0.013289067278963333,-0.43506876956021323,-0.0018955448319749602,-1.5760511097834282,0.0033357371454621858,1.1319261610742513,4.134554098280667e-05
-0.013327536626421933,-0.43506601313990895,-0.0019007580213675891,-1.5760615360531303,0.003406683732358204,1.131882478646483,3.361580497495853e-05
-0.01336522701161875,-0.43506349648421067,-0.0019064505218060468,-1.5760723218606585,0.003481081707850041,1.1318353207227587,2.5166884232210485e-05
-0.013403336930334514,-0.4350611595974253,-0.00191274221559333,-1.5760838866304483,0.0035567261974936526,1.1317838484542067,1.6238652443633492e-05
-0.013480934705210496,-0.4350572646770333,-0.0019271232922974501,-1.5761105515525942,0.00372517647571696,1.1316668224916142,-3.954807001940901e-06
-0.013519284279449177,-0.4350556468658998,-0.001935991637476068,-1.5761253520537342,0.0038138597966034453,1.1316040849954052,-1.5519576791811828e-05
-0.013559491320344291,-0.4350541488279862,-0.0019459384870493402,-1.5761415907061778,0.00391011697377896,1.1315429055328026,-2.7024459971723698e-05
-0.01360149605036896,-0.4350530103278985,-0.0019565445256644752,-1.576159507165448,0.004006757774324064,1.131486399952854,-3.8469347458598264e-05
-0.013642961473654763,-0.43505217136994373,-0.001967570097798558,-1.576177962822374,0.004108671738138218,1.1314332498774753,-4.955480620264025e-05
-0.013685805052551172,-0.4350515721765949,-0.001978895102982436,-1.576196598248213,0.004214708169645582,1.1313800999111796,-6.0580269253644926e-05
-0.013777244706475485,-0.4350504336765072,-0.0020025040626910854,-1.5762346481712355,0.004440970210413174,1.1312656504908956,-8.394946435630126e-05
-0.013823204243502096,-0.4350500142520713,-0.0020147280215228186,-1.5762548416306812,0.0045584156847078994,1.131205249990555,-9.617342318803479e-05
-0.013871440671621011,-0.43504959482763544,-0.00202749117801034,-1.5762757540566954,0.004677011505512615,1.1311416137588641,-0.00010827749971677197
-0.013920935591213691,-0.4350491154075065,-0.0020409734101496835,-1.5762978649784904,0.004800401047640858,1.1310791160272609,-0.000119422845070773
-0.013972108208549853,-0.43504869598307067,-0.0020552946002438447,-1.5763211742869832,0.004922448431574317,1.1310222509094863,-0.00013044830812177768
-0.014025438052841479,-0.4350482765586348,-0.002070095101383835,-1.5763455622089537,0.0050485224646250534,1.1309698199097595,-0.000143511115825251
-0.01413413497699412,-0.4350471380585471,-0.00210185333061928,-1.5763977535531575,0.005310833233895037,1.130886289869839,-0.00017269269366936143
-0.0141925580192923,-0.43504683840733116,-0.002118751063021698,-1.5764239390551744,0.0054465905281687625,1.1308521348672083,-0.00018881146380999856
-0.014251939901848294,-0.43504647886950526,-0.002135828564337071,-1.5764499447882785,0.005585895204147167,1.130819777444624,-0.00020469057842772121
-0.014314377637758375,-0.4350461793273724,-0.002153025947955441,-1.5764758906347724,0.005731719208480544,1.1307886185178204,-0.00021973073509062586
-0.014376276176012667,-0.43504552013833053,-0.0021708824115325947,-1.5765015968257434,0.005876584503455802,1.1307573395996309,-0.0002348308874465678
-0.014440032290006472,-0.43504462140284883,-0.0021895178373715295,-1.5765278423234534,0.006026531150015316,1.1307267798661762,-0.00025005081302242784
-0.014570061064609301,-0.4350431233649352,-0.0022281670628261615,-1.5765827899788787,0.006341955953614917,1.130671352790622,-0.0002824082356066985
-0.014635135447603753,-0.43504222452037045,-0.002247940988752788,-1.576610833056635,0.006504078540635119,1.1306478038266066,-0.00029774804348555486
-0.01470003006168525,-0.4350413855624156,-0.0022683142171113176,-1.576640014634479,0.006672145370021763,1.1306280897872898,-0.0003129080824514559
-0.014764565137940836,-0.4350404268312409,-0.0022898857230844198,-1.576670154943498,0.006839253315517361,1.1306115515927133,-0.0003291467348950894
-0.014827182642763871,-0.4350396478689791,-0.0023127756071412474,-1.5767019131727333,0.007009908642717639,1.1305981292471838,-0.00034730284968819515
-0.014889320836541077,-0.4350391085622402,-0.0023377028358505434,-1.5767338510617988,0.00718085177471157,1.1305884819397436,-0.00036569862000421536
-0.015009702412786586,-0.43503880902010733,-0.0023945080670152025,-1.5767951504067041,0.0075359681580283245,1.130575838556476,-0.0004018310806774715
-0.015071001757692054,-0.43503856936458446,-0.0024256071072087854,-1.576825650253549,0.007718799600222215,1.130571823862864,-0.00042094592664531337
-0.015134817758295817,-0.43503844948228143,-0.0024590431432707886,-1.5768564497516095,0.007907095668304099,1.1305690674425597,-0.00044048019704902514
-0.015197015838682982,-0.43503844948228143,-0.00249421676368623,-1.5768870094850644,0.008095967171440366,1.1305672098668202,-0.000459535156406908
-0.0152595135702861,-0.43503832959997846,-0.0025299896865335755,-1.576917449445299,0.008284455051207045,1.1305657118289065,-0.00047864989329167164
-0.015320992684104522,-0.43503820982675856,-0.002565822605073958,-1.5769485484854928,0.008476298500993608,1.130564393668989,-0.0004987234704342497
-0.015440415420092217,-0.4350381498310655,-0.002644319224514716,-1.5770128439062254,0.008865833649824318,1.1305634348287312,-0.0005427655451113876
-0.015497580189082786,-0.4350380300578456,-0.0026854251099746084,-1.5770444222574649,0.009065251130432835,1.1305630154042954,-0.0005639776223416572
-0.015554325533637487,-0.4350377902932396,-0.002727309957696281,-1.5770755812933515,0.00926859961611562,1.1305627757487724,-0.0005842908550071497
-0.015609273189062634,-0.43503761052432666,-0.0027721309946352,-1.5771071597536739,0.009474536425079111,1.1305625360932496,-0.0006047239699756386
-0.015663921193271826,-0.43503761052432666,-0.0028196484561853713,-1.5771394571805653,0.009682007378455107,1.1305625360932496,-0.0006255765093799973
-0.015718269655348147,-0.4350374907511067,-0.0028701619935627477,-1.5771716348342364,0.00988966996898297,1.1305623563243365,-0.0006470882378262187
-0.015822832112668973,-0.43503707132667085,-0.002979577884284133,-1.5772358103726662,0.010310843573829206,1.1305622364420336,-0.0006919691613750963
-0.01587508323439979,-0.4350369514443678,-0.0030354843799670936,-1.5772683475641633,0.010522341176322478,1.1305621166688136,-0.000717255818827225
-0.01592577654069012,-0.43503671178884495,-0.003094147077788188,-1.5773003454489218,0.010740549918855518,1.1305621166688136,-0.0007456584344095546
-0.015977188922632272,-0.435036532019932,-0.003153828502477056,-1.5773318040269413,0.010960100994116267,1.1305621166688136,-0.0007786150503426506
-0.01602656385083888,-0.4350361125954961,-0.0032177044987738573,-1.5773638019116996,0.011185020876689076,1.1305622364420336,-0.0008157062421906428
-0.016075219812476744,-0.43503569306197715,-0.0032832581928141386,-1.5773966386453298,0.011408215152230438,1.1305621166688136,-0.0008559732787787953
-0.01617217219792656,-0.43503503398201837,-0.003419458887984333,-1.577462372108283,0.011849138728359316,1.1305622364420336,-0.0009470533948771976
-0.01622088804617438,-0.4350347343308024,-0.0034901657757242053,-1.5774941303375183,0.012069936143238914,1.1305622364420336,-0.0009935521295595957
-0.01627086227681289,-0.4350344946752795,-0.003560453348111286,-1.5775267873022356,0.01228699436472904,1.1305623563243365,-0.0010415490112386746
-0.016319937662886624,-0.4350343747929765,-0.003634216198288323,-1.5775599236870816,0.012507024707402385,1.1305623563243365,-0.0010926617419648762
-0.016369911893525133,-0.4350341351374536,-0.0037089977753331327,-1.5775927005341017,0.012723987110316576,1.1305623563243365,-0.0011448529770857322
-0.01642042543090251,-0.4350338355953207,-0.003787194852641017,-1.577624998070076,0.012945072155456903,1.1305622364420336,-0.0011960255944218929
-0.016520673434312405,-0.43503353594410477,-0.003945925894042128,-1.5776889938395928,0.013397788223209806,1.1305623563243365,-0.0012995693248749433
-0.016570827433863868,-0.4350334160618018,-0.004027358702700132,-1.5777190142663087,0.013625296778129172,1.1305623563243365,-0.0013521800935147473
-0.016619663164414687,-0.43503329628858184,-0.00410945059131692,-1.5777474768775839,0.013857407242687272,1.1305623563243365,-0.0014022742064562538
-0.01666921797061733,-0.43503329628858184,-0.004193639820279213,-1.5777759992663862,0.014086929034898815,1.1305624760975566,-0.0014489527100516075
-0.01671835324330102,-0.4350328767550629,-0.004277649280328553,-1.5778048214154874,0.014320094201923894,1.1305623563243365,-0.0014911372089892322
-0.01676712908724188,-0.435032697095233,-0.004365014244947928,-1.5778340029933315,0.014551149964015015,1.1305623563243365,-0.0015255918628359305
-0.016863841708085702,-0.4350322775617141,-0.004553046746496146,-1.5778884712286279,0.015010193722971023,1.1305624760975566,-0.0015708922108206781
-0.016909261938373447,-0.4350322775617141,-0.004655272207948549,-1.5779141774195988,0.015239332066345902,1.1305623563243365,-0.0015826367495235044
-0.016953783324096413,-0.4350319180238882,-0.004756538829143138,-1.5779389847660052,0.015462718153572058,1.1305622364420336,-0.0015891680988337018
-0.016995728167511125,-0.4350313788262324,-0.0048579254417238016,-1.5779623539611078,0.01568936381770924,1.1305622364420336,-0.0015924638258768583
-0.01703593520840624,-0.43503095929271346,-0.004962188138745596,-1.577984644651816,0.01591437951885798,1.1305622364420336,-0.0015944411748362898
-0.017075303400429613,-0.4350306597505806,-0.005067529449245122,-1.5780060364979591,0.01614160044351662,1.1305621166688136,-0.0015957594438369368
-0.0171494857841256,-0.43502904183036395,-0.005288938100245384,-1.5780454046899826,0.01660112364441815,1.1305621166688136,-0.0015981563263153162
-0.017185138824669946,-0.43502850252362507,-0.005404346142621179,-1.5780632012669498,0.016834096999758436,1.1305618170175977,-0.001598935288577097
-0.01722061209630134,-0.43502790333027624,-0.005523229680953086,-1.5780793799237003,0.01707205571357412,1.1305618170175977,-0.0015997741374488366
-0.017254886981235083,-0.43502706448140455,-0.005643071950459729,-1.5780941205382304,0.017308576276086157,1.1305613975931619,-0.0016003734398807403
-0.017287603941645264,-0.4350264052923627,-0.005767168569101186,-1.5781079623081955,0.017545672273652578,1.1305610979419458,-0.001600732868623573
-0.017320320902055448,-0.4350259858679268,-0.005894021608046933,-1.578121264771422,0.017781330119915357,1.1305604388619872,-0.0016012122887524801
-0.017382938515961562,-0.43502502713675206,-0.006153779615119719,-1.5781443944200848,0.018252166195962465,1.1305587610551606,-0.0016019912510142607
-0.017412299862718625,-0.43502430806110026,-0.00628284976763089,-1.5781533825384833,0.018491467242505857,1.1305579220972057,-0.0016021710199272162
-0.017441241675956745,-0.43502364898114143,-0.006412339344577932,-1.5781610524969643,0.01873249407061362,1.130557083248334,-0.0016023507888401716
-0.017469884056145066,-0.4350226902499667,-0.006547521312880353,-1.5781675239596644,0.01897026097274451,1.1305562442903792,-0.001602530557753127
-0.017497927133901487,-0.43502155174987905,-0.006686837966180748,-1.578172916808887,0.019211287800852274,1.1305551657859845,-0.0016026504400561234
-0.017524532060354262,-0.43502023348087837,-0.0068270533549628434,-1.5781777704604538,0.0194506846659716,1.1305544467103328,-0.0016031297511019523
-0.017573667442121032,-0.435017716716097,-0.007118329935748159,-1.5781853804232417,0.019936477166510747,1.1305525292479832,-0.001603429402317904
-0.017596856868310733,-0.4350164584427894,-0.007271308590100853,-1.57818783719233,0.02018450276491901,1.1305518101723313,-0.0016037889401438149
-0.017619507096844646,-0.4350152599470087,-0.007425245975628284,-1.5781889158058078,0.02043406215867392,1.1305508514411566,-0.0016040884822766885
-0.017642336985208434,-0.4350145409804399,-0.0075808611679822726,-1.5781890955747206,0.02068295064786437,1.130549832823372,-0.0016042682511896438
-0.017664627675916436,-0.43501376201817815,-0.00774138978942986,-1.5781886760412018,0.020929058653023462,1.1305485744409813,-0.0016044480201025993
-0.017685300446407842,-0.4350130429425263,-0.007904315402438904,-1.57818777730572,0.021174016137139644,1.1305469565207646,-0.001604747671318551
-0.017721432907081097,-0.4350121440979616,-0.008230406174896829,-1.5781843018097639,0.021659712819102856,1.1305428819405428,-0.001605167095754421
-0.017737491790611775,-0.43501208421135157,-0.00839357133434571,-1.5781816053851527,0.02190514974516456,1.1305403652848445,-0.0016057064024932871
-0.017752651829577675,-0.4350119643290486,-0.008560152103140744,-1.5781783696538025,0.02214598476158753,1.1305367100199755,-0.001606125826929157
-0.017767212675194752,-0.43501208421135157,-0.00872942929654703,-1.5781745347291036,0.022386723784901637,1.1305317964817987,-0.001606605137974986
-0.017780754793944052,-0.43501208421135157,-0.008903140608001087,-1.5781699207330597,0.022623532152207332,1.1305261039813603,-0.0016069646758008968
-0.017792319563733925,-0.43501208421135157,-0.009079009146410608,-1.5781636290392724,0.022864271350054366,1.1305183742453524,-0.0016075639782328003
-0.017808797871700473,-0.43501238375348444,-0.009439015265976366,-1.5781467911934801,0.023351693639049025,1.130497761361471,-0.0016093016716693172
-0.01781413083431302,-0.43501238375348444,-0.009619377809043617,-1.5781366045793008,0.023598952165251035,1.1304861365959882,-0.001610080633931098
-0.017818205523617958,-0.4350125036357875,-0.00980369515911281,-1.578124979922901,0.023850429152255114,1.1304736130950235,-0.0016113389072387077
-0.017821561137271073,-0.43501262351809045,-0.009992087198486937,-1.5781113778084586,0.024102673211465447,1.1304604305141002,-0.0016125972896293955
-0.01782407779296937,-0.43501262351809045,-0.010180119700035154,-1.5780964574250156,0.024350890447025576,1.130445929555093,-0.001614095327542998
-0.017825515835189935,-0.4350126834047004,-0.01036665416366977,-1.5780812374994397,0.024603901403909233,1.130431428596086,-0.0016158330209795147
-0.017825995255318843,-0.43501274329131034,-0.010747992133685717,-1.578050917421508,0.025115196306412672,1.130401108518154,-0.001619068752329634
-0.017825635717492933,-0.43501274329131034,-0.010942795749150124,-1.5780356974959322,0.025373576245141315,1.1303845104369676,-0.0016210462103721437
-0.017824976637534146,-0.43501280317792035,-0.011139816369096878,-1.5780183802300107,0.025632723081543282,1.130368271784524,-0.001623982290506311
-0.017823838137446455,-0.4350126834047004,-0.011338395022650272,-1.5779980071107353,0.025890335948065675,1.1303514938253414,-0.0016272180218564302
-0.01782251986844581,-0.43501280317792035,-0.01153757286955249,-1.5779758961889403,0.026146223207556617,1.130335255281981,-0.0016305137488995868
-0.017821081717142164,-0.43501280317792035,-0.011741064952199483,-1.5779531261871864,0.02640575349279525,1.130319615822886,-0.0016338692534696242
-0.01781886460357674,-0.43501280317792035,-0.01215625849179638,-1.5779056686122461,0.026926731831054602,1.1302880373625637,-0.001642617825428324
-0.01781772610348905,-0.43501280317792035,-0.012365503070574867,-1.5778798426480551,0.027186933195390627,1.1302725177857718,-0.0016469920568661347
-0.017816288061268483,-0.43501280317792035,-0.012576245578183879,-1.577850780843431,0.02744924396466061,1.130257118091283,-0.0016521452505657262
-0.017814610254441927,-0.4350129230602233,-0.012789924384093213,-1.5778190226141955,0.02771356797122277,1.130242317590143,-0.0016584369443530093
-0.017812692792092456,-0.4350126834047004,-0.013005400660965947,-1.5777861259939556,0.027976358182438276,1.1302280563957419,-0.0016658072516180249
-0.01781047567852703,-0.4350126834047004,-0.013223034273877223,-1.5777504129577182,0.028244804831226572,1.1302136753190377,-0.0016739565211448212
-0.017805861791566305,-0.43501280317792035,-0.013668787437845758,-1.5776710773803226,0.028789176166516255,1.1301847932833264,-0.0016924721737638377
-0.017802745833436103,-0.43501280317792035,-0.013897146862592087,-1.5776296119570368,0.029062224724943284,1.13016825508875,-0.0017025987922500653
-0.01779843148860825,-0.43501280317792035,-0.014123948362814855,-1.5775852104536168,0.029335081646218446,1.1301508180496087,-0.0017133845997781556
-0.017793518059514655,-0.4350130429425263,-0.014347514022604426,-1.577535895302937,0.029613019744544937,1.1301327218214257,-0.0017245299451321566
-0.017788844176860892,-0.43501334248465917,-0.014575513909524844,-1.577484842567904,0.029895176303673495,1.130113187551022,-0.0017368736771838083
-0.01778452983203304,-0.4350135822492652,-0.01480441264101004,-1.577432052030351,0.030182510032962247,1.130094312360577,-0.0017505956739291442
-0.01777811825594276,-0.43501376201817815,-0.015272037071250707,-1.57731772249237,0.030763313545590986,1.1300562624375543,-0.0017801966762091245
-0.017775242062418553,-0.435014181442614,-0.015502913151695333,-1.5772550449918539,0.031065124257426257,1.130038945280716,-0.001796914639698587
-0.01777134714202657,-0.4350144210981369,-0.01573702496349008,-1.5771923076047278,0.03137105761148766,1.1300233058216211,-0.0018144715611428674
-0.01776649359954293,-0.4350148405225728,-0.015973833308979158,-1.5771259150618158,0.03167929183310197,1.1300110220852626,-0.001834005831546579
-0.01776086098571443,-0.4350154997116147,-0.016211600276559893,-1.5770559271406448,0.03199356611565866,1.130001674319955,-0.0018573151400392764
-0.017754689065147065,-0.4350162187872665,-0.016452603084573827,-1.57698102579038,0.03231033325198596,1.129994543777296,-0.0018853582177956953
-0.017740308097526025,-0.4350174770605741,-0.01694755151691909,-1.5768237327911994,0.03295450932068877,1.1299853158942914,-0.0019652331019301378
-0.01773209883230619,-0.4350184357917488,-0.017197961976850508,-1.5767378058688006,0.03328211006474906,1.129983398431942,-0.0020197014463094547
-0.017723050718214617,-0.43501963428752954,-0.01744933105887358,-1.5766471452862212,0.03360856028776643,1.129983098780726,-0.0020832177956972672
-0.017713103868641344,-0.4350207127919242,-0.017701539098851474,-1.576555286098778,0.033933764171164955,1.129982978898423,-0.00215668110374143
-0.017702917254462082,-0.435021431867576,-0.017959080101441913,-1.5764614496714584,0.03426136508975817,1.129983158667336,-0.0022357170299210543
-0.0176924909847599,-0.435021731518792,-0.01821757983520709,-1.5763642576304857,0.03459280067125094,1.129983278549639,-0.002319366952144482
-0.0176707995964838,-0.43502364898114143,-0.018747761883660834,-1.5761671171282359,0.03526037008604992,1.129983458318552,-0.0024897227590285013
-0.017658755406565023,-0.43502502713675206,-0.01901926453851952,-1.5760644722423476,0.03559774990990914,1.129983817856378,-0.0025820012618245542
-0.017646291792210375,-0.4350262255234497,-0.019291306391034,-1.5759597301251969,0.03593637624792012,1.1299839377386809,-0.0026804516851879723
-0.017633888173548766,-0.4350276037881434,-0.01956520592837107,-1.575851932045609,0.0362781663442662,1.1299844769363367,-0.0027880699958628815
-0.017621544332414037,-0.4350287422882311,-0.01984084305006158,-1.5757429354702404,0.03661957281724269,1.1299848964698556,-0.002896647037712527
-0.017609440364968375,-0.4350302403261447,-0.020120554861057023,-1.5756317817769994,0.036959062046035863,1.1299853757809013,-0.003014272302736824
-0.01758685002304442,-0.4350341351374536,-0.020698434249056975,-1.5754019243143396,0.0376369856266223,1.129986154743163,-0.0033012944253042477
-0.017574626173295766,-0.43503719109989075,-0.02099732079263022,-1.5752828611161778,0.037978871541544314,1.129987113474338,-0.0034651187737949913
-0.017561024058853427,-0.43504072648245684,-0.021300821223164193,-1.5751617604642805,0.03832325031023695,1.1299877726633798,-0.0036406876609885613
-0.01754694263336526,-0.43504408209610995,-0.021604141993868287,-1.5750382630389879,0.03866897123712437,1.1299887313945545,-0.0038064894675218144
-0.01753328052322988,-0.4350470780628541,-0.02190860126466007,-1.574915244924741,0.03901469216401179,1.1299896901257294,-0.003958509281616694
-0.017520037946613453,-0.4350491154075065,-0.02221192192628109,-1.5747918074951415,0.039363864479495025,1.129990888512427,-0.004089257240954424
-0.01749696840272675,-0.435051272634462,-0.022841573124966024,-1.5745361839549004,0.04005060843052227,1.129994364008383,-0.0043648344760349725
-0.01748654213302457,-0.4350524710211597,-0.023168263090772773,-1.5744001030329502,0.04039076873841283,1.1299965810128654,-0.004517273823648801
-0.0174749773632347,-0.43505313010111846,-0.023496810632319037,-1.574263662682257,0.04073533914425734,1.1299998767399084,-0.004676723940701733
-0.01746137524879236,-0.43505336986572446,-0.023826197022737042,-1.5741250052179985,0.041082690034133194,1.1300036517779974,-0.0048422260960190346
-0.01744663463426233,-0.43505438848350914,-0.02415414537093448,-1.573985808447001,0.041435217919636315,1.1300077263582193,-0.005010005251511719
-0.01743183413312234,-0.43505588652142274,-0.024485808761527866,-1.57384187790674,0.041789663398388605,1.1300121605853501,-0.005185634025315248
-0.017403311635237013,-0.435058642941727,-0.025176279884989362,-1.573549163174651,0.04250919615194137,1.1300206692836199,-0.005584528916775474
-0.01738821148288107,-0.4350596615595117,-0.02553299038659504,-1.5734017572475167,0.04287265381281925,1.1300229462837952,-0.0058014434540349285
-0.01737137363708861,-0.4350618186773841,-0.02589293661955084,-1.5732503365176878,0.04323524858291495,1.130024204666186,-0.0060174590376465276
-0.017351959248987896,-0.4350648147532113,-0.02625126493229004,-1.5730945415564208,0.04359937714835731,1.1300248638552277,-0.006213820577634498
-0.017330028096105805,-0.43506841002238733,-0.026608994051680414,-1.5729338331660603,0.04396628619783101,1.1300255828217964,-0.006407725348534128
-0.01730695844313602,-0.43507218506047635,-0.026973973596032808,-1.5727737238599655,0.04433635900563981,1.1300265415529713,-0.006618887389662089
-0.017258961670540023,-0.43507841686765364,-0.027721489606181874,-1.5724524268524642,0.045091748676010165,1.130027320624316,-0.007086631702205751
-0.017231937210568298,-0.43508219190574265,-0.028098333571540093,-1.5722843480457556,0.045480900550537134,1.130027859821972,-0.007326555896741952
-0.017203175057160056,-0.43508638636826746,-0.028475656847944137,-1.5721117752343892,0.04587657175341908,1.1300283392421009,-0.0075858944793788675
-0.017173753823793034,-0.43509106025092126,-0.02885471792686778,-1.571938543233981,0.046275790163472774,1.1300289384354496,-0.007860572978977718
-0.01714223535916358,-0.43509549436896905,-0.029237913472623236,-1.571764592267004,0.046677884876133766,1.1300298372800144,-0.008133274020534058
-0.0171079004785368,-0.43509950906258094,-0.029624764283247763,-1.5715901018842051,0.04707959613995809,1.1300307361245792,-0.008400522217174857
-0.017033957859446808,-0.43510765833210774,-0.030400742795589117,-1.5712360280296838,0.047888291656342855,1.1300357694359757,-0.008946403611333366
-0.016996147591946995,-0.4351123322147615,-0.030792387262087325,-1.571050212641701,0.0483022746792038,1.130042240898676,-0.009243252919337223
-0.016956060324271795,-0.43511712587063517,-0.031188346073413382,-1.5708625995645886,0.04872316065378931,1.1300521878573324,-0.009547951845651922
-0.01691513420772486,-0.4351221592911148,-0.031591495423091503,-1.5706707920249514,0.04914788164034022,1.1300664490517336,-0.009866192890715926
-0.01687504704913274,-0.4351274922537274,-0.031999138886510424,-1.5704781456364425,0.049573465343140395,1.130083227010916,-0.010195459507914012
-0.016832802663585156,-0.4351322260229911,-0.032408699703195744,-1.5702853793656306,0.05000298005101484,1.1301044390881463,-0.010526343936245618
-0.01674088358953194,-0.4351440304483039,-0.03323435290404274,-1.5698819903604295,0.05088041693078573,1.1301549526255237,-0.011217893673184844
-0.016694324859156503,-0.4351514007555689,-0.03365338136833858,-1.5696750826684365,0.05132738074238991,1.1301868905145889,-0.011587666873410918
-0.016644230855298075,-0.43515847152070103,-0.03407294903029021,-1.569468774278875,0.051782301859119785,1.1302244011308729,-0.01196313268315853
-0.016591859742181185,-0.4351651826389242,-0.03449323576789366,-1.5692587507378348,0.05224230432743392,1.1302694019367248,-0.012349863611480058
-0.016537271624581948,-0.4351724330638862,-0.03491663846362731,-1.5690445926208798,0.05270269024458471,1.1303208742052768,-0.012741927502414135
-0.01648040650680733,-0.435180822098019,-0.03534028081488388,-1.568825640848051,0.05316614427602758,1.1303812147099244,-0.013134231157954205
-0.01636122331725947,-0.4351986186749862,-0.03619913028718688,-1.568381265839693,0.0540975582554432,1.1305094459044809,-0.0139470012109276
-0.01629842604352348,-0.43520748691108174,-0.0366367342907117,-1.568158838570908,0.05456657290588293,1.13057541913204,-0.01436051694369794
-0.016232093387221418,-0.4352168945629992,-0.03707667518102186,-1.5679314378773364,0.05503827187271222,1.1306442085574304,-0.014792188682178306
-0.0161624650038762,-0.43522690140826553,-0.03751775457141971,-1.567692652182888,0.055518120305417855,1.1307151552097763,-0.015227875223353652
-0.016088881813529042,-0.4352379268713165,-0.03796069153755707,-1.567451170063828,0.056001420126719305,1.130801201905395,-0.01567788284554008
-0.01601302173208958,-0.4352497314057124,-0.03841033962191759,-1.567207530826896,0.0564906641903872,1.1309033673711544,-0.01611770396263032
-0.01585255288816887,-0.43527310060081503,-0.03932150021164445,-1.56671132401216,0.0574839167559973,1.1311509016375616,-0.01702550893870406
-0.015769262612854433,-0.4352856839883896,-0.03977959721674771,-1.5664552810474832,0.057987158185733266,1.1312891995639942,-0.017490856368769344
-0.015684893614979184,-0.43529940598513495,-0.040240929953201096,-1.5661958225825434,0.05849461825080422,1.131442058336044,-0.01795884033683592
-0.015598667150447498,-0.435313906835059,-0.04070957311030953,-1.5659318101172526,0.05900629677667725,1.1316142117229744,-0.018426045451723796
-0.015510642996786261,-0.4353293066386309,-0.04118199130550696,-1.5656586895421774,0.0595239193703838,1.1317921174969534,-0.018917578383805984
-0.015420641494165591,-0.4353459047198174,-0.041653930080575476,-1.5653767007310064,0.06004988306711855,1.131986501687982,-0.019419537694673434
-0.015237762186316964,-0.4353816177560548,-0.04259577028606005,-1.564805113145877,0.06111101427986552,1.1324094249635865,-0.020412910055320074
-0.015146202759172733,-0.43539887502628305,-0.04307591821726532,-1.5645151548340923,0.06164531890509555,1.1326266390429789,-0.02091576810166922
-0.015050868184856438,-0.43541685137216324,-0.04355948175781675,-1.5642226198709162,0.06218412962138838,1.1328382205085428,-0.021436782262811472
-0.014953676143883708,-0.4354363856425669,-0.04404508253393757,-1.5639264897476473,0.06273252778032827,1.1330492027807577,-0.021952463461341176
-0.014853068602647903,-0.4354574179508843,-0.04453355950358259,-1.5636258654015545,0.0632816930114744,1.1332765435877195,-0.022469283159958574
-0.01464682009969662,-0.4355015797987813,-0.04553244470483781,-1.5630078389683524,0.0643982391261039,1.1337919251350332,-0.023561765133010493
-0.014541239024591101,-0.435524889107274,-0.046035782062232786,-1.5626951705414238,0.0649649492795557,1.1340875759472564,-0.024113578792213455
-0.014433620713916193,-0.4355476592181109,-0.04654001837327562,-1.5623813636144077,0.0655316592584746,1.1343966491050088,-0.024668688069376495
-0.014322227365152297,-0.4355706089887777,-0.04704814949562735,-1.5620641411871283,0.06610431347975992,1.1347090179898045,-0.02524105461676786
-0.014205441058082819,-0.4355946972595322,-0.04756011554267803,-1.5617413460326306,0.0666802274524892,1.1350096422268143,-0.025826843618771692
-0.014086018322095124,-0.4356203435638933,-0.04807226146772474,-1.561413277911213,0.06726112678369388,1.1353019974210774,-0.02640963643586524
-0.013960603325369941,-0.435647008376956,-0.04859081885977866,-1.5610788581003154,0.06784432698245145,1.1356086736963515,-0.027000938060311494
-0.013695452359991572,-0.43569884018333405,-0.049651063183466224,-1.5604015096711674,0.06901024828708693,1.1363076536271657,-0.028220213076616124
-0.013556435357907128,-0.43572436660539215,-0.050185739454743854,-1.5600685280115734,0.0695945031883115,1.1366883925129159,-0.028828292660244878
-0.013412864355471918,-0.435750791762932,-0.05072287238602674,-1.5597336887762399,0.07018230547124073,1.1370634387891445,-0.029445779895791117
-0.01326767543282011,-0.4357784754119456,-0.051264918855486306,-1.5593959733473821,0.07077883230603484,1.1374379457586343,-0.030075670749998968
-0.013122486619251379,-0.4358080165276156,-0.05181421585899097,-1.5590519661156539,0.07137411262667717,1.137823598182561,-0.03070981595334163
-0.012978316314384264,-0.4358385762610703,-0.05236812674945636,-1.5586954354920444,0.07196996838237388,1.1382392110375108,-0.03135534626664429
-0.012671879694633048,-0.4359023922616741,-0.0534839179219179,-1.5579738053326961,0.0731874697514594,1.1390960831608545,-0.03267037528170108
-0.012510332346317687,-0.43593624772217193,-0.05404418050186361,-1.5576070282082972,0.07380815665549009,1.1395224819324152,-0.03333220413405733
-0.012348605229089371,-0.4359716611071934,-0.054606899741814575,-1.5572424080926877,0.07444063622567773,1.1399620632848995,-0.03399624999089593
-0.01218262376272624,-0.43600803322338955,-0.055171896091024006,-1.55687521143477,0.07507282799107172,1.140430766328618,-0.034671081655262614
-0.012012447724755177,-0.43604452511280567,-0.05574264471819878,-1.5564993861962795,0.07570933421037664,1.1409095361042125,-0.035351426160237884
-0.011837837568736343,-0.4360826949181314,-0.05632160261059338,-1.556123321193183,0.07634881237633184,1.1413868677285037,-0.036020745093079065
-0.011462791292507681,-0.43616131141987513,-0.05749851346813051,-1.5553629820308534,0.07764167060480025,1.1423577098520024,-0.03738149388055648
-0.011270084908305701,-0.4362028367297709,-0.05809742505536469,-1.5549806852205796,0.07829457122536793,1.1428614067472234,-0.03805326969156908
-0.011075760712970199,-0.4362453807665344,-0.05870448602120875,-1.5545929955610833,0.07894354084086133,1.1433707962519657,-0.03873942647020272
-0.010881017093198829,-0.4362880445765179,-0.05931388387383815,-1.554198534787671,0.07959241481231172,1.1438852790637979,-0.03943097620714195
-0.010686812671083247,-0.4363318469956721,-0.05992250276420578,-1.5538034149342996,0.08025269765201656,1.1444159405323804,-0.040109283258381666
-0.010485777357524591,-0.43637564930574324,-0.06053609507936003,-1.5534066771607118,0.08091556916406795,1.144957627464014,-0.040790646381141625
-0.010075018045058544,-0.436461696001362,-0.06177544367280724,-1.552599000305745,0.08226096616634451,1.1460398629362767,-0.042154571013359204
-0.009863077041668803,-0.4365068165804338,-0.062403417064665616,-1.5521855445686676,0.0829381226747247,1.1465915567131768,-0.042847139368083126
-0.009641368848535668,-0.4365528959997634,-0.06303918018822488,-1.5517681939111985,0.08362477098170894,1.1471537367554718,-0.043549295143637486
-0.009410612650394038,-0.4366011324278823,-0.06368441085031158,-1.5513494052115087,0.08431419942365867,1.1477353910724777,-0.04424773576771282
-0.009171946729165447,-0.43665290434765036,-0.06433862963079683,-1.5509288188226893,0.08499586202310166,1.1483205208854397,-0.04495762127927503
-0.008932262299235239,-0.4367069531585107,-0.06500615098359154,-1.5505025399334313,0.08567560737836133,1.1489188332793252,-0.04567349894249165
-0.008445463027333693,-0.43683272758397873,-0.0663571925770186,-1.549629968573466,0.08704075435192055,1.1501392467957174,-0.04710992815157865
-0.008193135214135882,-0.4368988805804509,-0.06703717754416795,-1.5491882299940263,0.08773008697529434,1.1507648233050976,-0.04783587265575461
-0.007935534324935482,-0.43696790966136423,-0.06771842078462491,-1.5487436752167554,0.08842833578768489,1.1513841082297733,-0.048558401550584426
-0.007671941284080675,-0.43703819712466824,-0.06840355894547386,-1.5482961842502674,0.08912687240486908,1.1520199312399424,-0.04928584398359091
-0.007397262784481824,-0.43711076169723073,-0.06909576776237186,-1.5478420420521661,0.0898293396780617,1.1526599487126366,-0.05001544364355287
-0.007114015700003386,-0.437183685698536,-0.06979396873092429,-1.5473771739331466,0.09053343691424275,1.1532973896430223,-0.05074720031230413
-0.006541589156918981,-0.4373310317390602,-0.07121769456105065,-1.5464380900388832,0.09193386554409809,1.1546303351173492,-0.0522202414021933
-0.006254866576484431,-0.4374053338959761,-0.07194262033835884,-1.5459632151836806,0.09262962167725093,1.1552951000498397,-0.052951398877595736
-0.005961312995523731,-0.4374802952419339,-0.07267036242258128,-1.5454793521009962,0.09332758285938074,1.1559764032859898,-0.05367668419272984
-0.005657932338209677,-0.4375557358989375,-0.07340289816267741,-1.5449894968666575,0.09402381843447911,1.1566542909127937,-0.0544061639703888
-0.00534388575567053,-0.43762818058919695,-0.07413819032307782,-1.5445016789769712,0.09472446410753141,1.1573352944977278,-0.055132587785610594
-0.0050168961386478274,-0.4377008648258962,-0.07487719752587418,-1.5440156587764147,0.09543162928347161,1.158041584849197,-0.05584576902421596
-0.004346139054503001,-0.43784539466858924,-0.07638229627804859,-1.543025881684944,0.09684634308418869,1.1594482331780078,-0.05725781031133253
-0.0040131573949089665,-0.43791933728767923,-0.07715078470990501,-1.5425179302224221,0.09754516715710068,1.1601759153756204,-0.057949000510445846
-0.003673104970182791,-0.4379953172514217,-0.077928441138156,-1.542007522099895,0.09824638809067444,1.1609006613840156,-0.05864935859687065
-0.0033228660403604284,-0.43807417351777145,-0.07871131064671653,-1.5414923203214943,0.09894636268462936,1.161631279552679,-0.059336953526807935
-0.002963818651969407,-0.43815464759525474,-0.07949573807980065,-1.5409726244293527,0.09964950121145229,1.1623711856000403,-0.060004954190648475
-0.0025963823385286747,-0.43823745855952334,-0.08029083143810985,-1.5404540669282156,0.10034813364721241,1.1631101929119199,-0.060681403775231756
-0.001854438946515068,-0.4384071551773655,-0.08191619199330984,-1.5394192291442832,0.10173926246468144,1.1646203849711838,-0.06199457521454904
-0.001476336707849242,-0.43849314198637424,-0.08274484116090096,-1.538883054944175,0.10243348462795471,1.1653681407459389,-0.06265718302916708
-0.0010940997841854413,-0.4385826641779491,-0.08358343728714843,-1.5383365143609746,0.10312118728834006,1.166118772605135,-0.06331391846535062
-0.0007030545110360601,-0.4386760212942229,-0.08443192048544229,-1.5377901535466871,0.10380505511129295,1.166859038190322,-0.06395471500938954
-0.00030260169505227284,-0.4387659629102336,-0.08528969134426756,-1.5372465490436211,0.10448806004346364,1.1676154225456499,-0.06460270209178054
0.00010336396154009493,-0.4388562639549871,-0.08615483251035785,-1.5367036038386797,0.10517537942954527,1.1683691104763663,-0.0652492510228679
0.0009318333602182593,-0.4390447159900543,-0.08790596749102586,-1.5356221473286789,0.10655692080436724,1.1699129183406052,-0.06650963192463241
0.0013554757114748258,-0.43913951114854866,-0.08878842592303751,-1.5350830369393536,0.10724817084645728,1.1706795491967221,-0.06714084104784092
0.0017913420215631257,-0.4392340666515201,-0.08967417997300925,-1.5345426083901106,0.10793759946293995,1.1714598420538913,-0.06775023890047031
0.0022338595632646193,-0.4393272439988809,-0.09056556663680947,-1.533999962618219,0.10863287615414727,1.172242651675842,-0.06835436367709713
0.0026817699541886193,-0.43942167972863244,-0.09146731957461884,-1.5334564779974558,0.10933189203874406,1.1730109602297023,-0.06895375468446022
0.0031353728455510766,-0.43951749361399456,-0.0923784801643457,-1.5329055631828177,0.11002419678330108,1.1737960468518283,-0.06955008972938614
0.004070441937119455,-0.4397113983848942,-0.0942199761854603,-1.5317843790520504,0.11140056098796286,1.175344768254244,-0.07072124809079178
0.004552866977583191,-0.4398099086948676,-0.0951415631539724,-1.5312262736990603,0.11209229047199842,1.1761267389182397,-0.07129900759648873
0.0050369098291804465,-0.4399056026979267,-0.09607070008957941,-1.5306649925013298,0.11278286943499108,1.176895586887922,-0.07186921702600771
0.00552586621895438,-0.4399996788898523,-0.09700511010118901,-1.5300928057228513,0.113473160767723,1.177680194089919,-0.0724336739593952
0.006023511075910896,-0.4400954927752144,-0.09795012615141373,-1.529517143448417,0.11416393154240044,1.1784586293713488,-0.07298279119398692
0.0065326010385204445,-0.4401923852740543,-0.09890341135346825,-1.5289374664803705,0.1148570031846308,1.179239161993124,-0.07352501743235942
0.00755497520809824,-0.4403922222009153,-0.10083832437746659,-1.5277594771184386,0.11623260049161924,1.1808072378970305,-0.07458556140726295
0.008078685902934823,-0.44049606547350123,-0.1018174355437121,-1.5271563110729867,0.11690630578593654,1.1815904069477239,-0.07509207471848116
0.008613841376175203,-0.44060602078004457,-0.10280865078648636,-1.5265499691827944,0.11757636770544029,1.1823657263801064,-0.07559073830230545
0.009148038227323924,-0.44071855262889614,-0.1038143069925747,-1.5259342197497678,0.11824211534556604,1.18313397515644,-0.07608436846565007
0.009681995422949731,-0.4408333015913131,-0.10483626173771662,-1.5253063062445193,0.11890268581553161,1.183903602088384,-0.07656086124106935
0.01022757716589229,-0.4409512263984703,-0.10587032055938728,-1.5246771344659633,0.11956613258810446,1.1846597466791058,-0.0770127264389953
0.011353914599442084,-0.4411946259798796,-0.10796366508265386,-1.523427299716204,0.12087605629693302,1.1861736539989318,-0.0778953646399199
0.011923165297786328,-0.4413159062916068,-0.10901588001911762,-1.5227997457487814,0.12152828566387038,1.18692830055174,-0.07833530553023006
0.012507216497270563,-0.44143730648563695,-0.11006755564884253,-1.5221765660127968,0.12217898123546107,1.187698047365987,-0.07875421411222291
0.013101034777415116,-0.44155900633088313,-0.11112498377469893,-1.521553805810331,0.1228311147838225,1.188465397297756,-0.07914807569228655
0.013691257897466716,-0.44168148513839106,-0.11219649332604349,-1.520931285263388,0.12347346925238499,1.18924976484423,-0.07952414069538298
0.014288072253438472,-0.44180030868102993,-0.11327788984035136,-1.5203163146835401,0.12411179689729729,1.1900329937815333,-0.07990020558939634
0.015530117380580013,-0.442022196643076,-0.11544301986483554,-1.519087811784231,0.12538893180360033,1.1915913026047795,-0.08061362659260769
0.016158630079177255,-0.4421310133404486,-0.11652669337931881,-1.5184632540017189,0.12602495858095972,1.1923527202715036,-0.08094109552067623
0.01679439320273652,-0.44223965037799123,-0.11761953489019664,-1.5178354603787734,0.12665916375817882,1.1931235456992286,-0.08125687979665189
0.017439144444694316,-0.4423446321506649,-0.11872154428838597,-1.5172043710287848,0.12729260203772455,1.1938944309044803,-0.08157176533714586
0.01808647233804345,-0.4424481758811179,-0.11983733556993058,-1.5165741806324442,0.12791846611191543,1.1946529124910703,-0.08189509968929949
0.018737994803000518,-0.4425563934942247,-0.12096559035674677,-1.5159425519757166,0.12853761922059947,1.1954342839617174,-0.08222568457549823
0.020068543394849123,-0.4427867302679305,-0.12325919123131021,-1.5146803733848226,0.12977161080952368,1.196957179399942,-0.08280757854802699
0.02073852140764909,-0.4429086097730065,-0.12442735362597172,-1.514041913836652,0.1303801217730937,1.1977481381823363,-0.08307320893353427
0.021419704761496097,-0.4430350433875164,-0.12560821918142773,-1.5134046526751792,0.1309874823901537,1.1985135107651457,-0.0833303903982988
0.02210795877139217,-0.4431641134309445,-0.12680017019562775,-1.5127602009753542,0.13158861113458653,1.1993108811236302,-0.08357858374466479
0.0228065192777705,-0.44329282404562975,-0.12799619579004964,-1.512113532271047,0.13218878099512835,1.2001054951708936,-0.08382491940620819
0.023514607209286234,-0.4434259088917528,-0.1291936595357752,-1.5114646463440913,0.13279345712126586,1.2008927389108919,-0.08407940444636147
0.02495726822555056,-0.44369315708839363,-0.13159397998553182,-1.510144284366422,0.1339981114707933,1.202472799009024,-0.08456890014287427
0.02568548962081883,-0.4438275602035173,-0.13280330815226318,-1.5094786205893667,0.13460134927109424,1.2032602824045453,-0.0847708343009977
0.02642443693700523,-0.4439613041295992,-0.13401101839877796,-1.5088139155434863,0.13520573776697103,1.2040482452201955,-0.0849546124534111
0.02717057479154369,-0.4440921119755469,-0.13521507348950673,-1.5081438775349933,0.13581223549324886,1.2048186511144015,-0.0851414464591786
0.027926539722435507,-0.4442219609812368,-0.1364152336598435,-1.5074656902569734,0.1364219927964377,1.205586240701693,-0.08533241504086098
0.02869179242294181,-0.4443498327470503,-0.13762156575074766,-1.5067835481719516,0.13703395532313645,1.2063480779019364,-0.08551655273110029
0.030231345828962912,-0.4446009021778574,-0.1400544832786115,-1.5054140509215987,0.1382522235898953,1.2078736097690792,-0.08586283685392071
0.03101493441317528,-0.44472541833001783,-0.14128688098922956,-1.5047327476854486,0.13885766661370616,1.2086395216586274,-0.08603511012315421
0.031800140808521164,-0.44485544710462066,-0.1425308435787206,-1.5040543806385158,0.13946464360739658,1.2094163391289237,-0.08620492662329936
0.0325946948600915,-0.4449886518330467,-0.14379092493835224,-1.5033685235110983,0.14006558071467753,1.2101740417532518,-0.08636851120718411
0.033390926827571464,-0.44512856767969594,-0.1450673047279544,-1.502680988467771,0.140664983677546,1.21094330914737,-0.08651717551670896
0.03419620680005993,-0.44527189891752517,-0.14636124154808391,-1.501995730533702,0.1412621815914375,1.2117038279695296,-0.08664678497595898
0.03584961043301634,-0.44556844857431305,-0.14895846273548433,-1.5006270721322208,0.14243903249691484,1.2132261242144053,-0.08684290675134096
0.0366893450593515,-0.44572010895966513,-0.15025593482909685,-1.4999488248585078,0.143031244877798,1.2139841863765597,-0.08691241525238319
0.037535431266083906,-0.4458720090005401,-0.15155766138092727,-1.4992573351172618,0.14362336144010526,1.214757228808767,-0.08697293563502687
0.03838810892690262,-0.44603038050411525,-0.15286502043750308,-1.4985633886069272,0.1442197922817905,1.215526915627321,-0.08702998052171444
0.039250793323904576,-0.4461889318856865,-0.15417184029642314,-1.4978702210588544,0.1448216880984296,1.2162927076345662,-0.08708882309753158
0.04011940998595097,-0.4463432886956498,-0.1554776414284754,-1.4971783117840893,0.14541936527973368,1.2170914561486612,-0.08715215967800644
0.04187743585375509,-0.4466382204322211,-0.1580902624194477,-1.495813787958523,0.14662517015030405,1.21865186220317,-0.08727661594355687
0.04276330967694674,-0.44678047316565567,-0.15940247501850718,-1.495139016180766,0.1472252441922699,1.2194557640200476,-0.08733396037237733
0.04366104803022729,-0.44691949016774013,-0.16072115929843303,-1.4944629860206187,0.14781736075457713,1.2202267092209924,-0.08738615171658126
0.044559805001292536,-0.4470573686697369,-0.1620524268568504,-1.4937810835911198,0.14839998586734618,1.2210231208483022,-0.08743115252243314
0.04546071909023017,-0.44719950162995153,-0.16340149110131802,-1.4930895339632637,0.1489777214402158,1.221786396090766,-0.08747076036997942
0.046371340373218155,-0.4473468476704757,-0.16476547562014554,-1.492395946881672,0.14955363523841214,1.2225440388284845,-0.08750773167952441
0.04821930785703299,-0.4476465731720038,-0.16752724023168852,-1.491001162864784,0.1507052713721859,1.2240539912322257,-0.08756753298651627
0.04916066875147172,-0.44780308709983946,-0.16891087890322276,-1.4902959512358753,0.15128032245413298,1.2248034847004172,-0.08759108195053189
0.05011401384013621,-0.44796523364150365,-0.1702942779192341,-1.4895902600777549,0.1518572909547963,1.2255549555175682,-0.08761271345219804
0.0510787439296776,-0.4481345707215199,-0.17168055312876962,-1.4888839698353689,0.15243445126714444,1.2263097818392892,-0.0876324274915147
0.05205204282226474,-0.44830942064214474,-0.17306760740965002,-1.48817246640359,0.15301103631897112,1.2270852810405848,-0.08765016418187194
0.05303031503055544,-0.4484855887226871,-0.17445562031262207,-1.487454131971285,0.15359049749887213,1.2278459198541303,-0.0876658635275767
0.054013081461670026,-0.4486604984208388,-0.17584375309789713,-1.4867336403120246,0.15416919178109983,1.2286307667116503,-0.08767922598649613
0.056003481447832376,-0.4490069025350453,-0.17863038494245637,-1.4852836689841882,0.15532073192176474,1.230164507844013,-0.08769858048798689
0.0570046435401799,-0.4491743221527121,-0.1800252888416476,-1.484565993631842,0.15588725026353176,1.2309323970825206,-0.08770613056416486
0.05800718389722111,-0.44934114257703,-0.18142660420784604,-1.4838424461192277,0.15644264719277215,1.231671763823143,-0.08771212260673619
0.059015956061439646,-0.44950790300565496,-0.18284242053305158,-1.4831171608040934,0.15699372984263452,1.2324159242196389,-0.08771607741373813
0.06002820361253121,-0.4496768206612353,-0.18427393620396193,-1.4823949913380066,0.15753378689854622,1.2331581672628684,-0.08771871395173943
0.061047521819671845,-0.4498465172790775,-0.185725046140969,-1.4816723426699567,0.15806818734235217,1.233889085082748,-0.08772039175856598
0.06311336246283779,-0.45019507851115637,-0.18864386398708652,-1.4802452611170942,0.15912366211752635,1.2353853754854367,-0.08772165014095666
0.06416545762608164,-0.45037771805439897,-0.1901022243490556,-1.4795288441471388,0.15965077616077109,1.2361303748398875,-0.08772254887643836
0.0652248032142875,-0.45056838709394853,-0.19156855421163854,-1.4788084124835714,0.1601684947475865,1.2369046756544855,-0.08772338783439318
0.06629625276993903,-0.4507650481760693,-0.1930376403854427,-1.4780916958624,0.16069378736522386,1.2376674714768203,-0.08772434656556792
0.06737531239746157,-0.45095895294696897,-0.1945103818241159,-1.4773759380814864,0.16122301063886962,1.2384456072161172,-0.08772554495226557
0.0684610232565973,-0.4511448882172548,-0.1959858195783173,-1.4766629366117938,0.16174907015418033,1.2392216457241516,-0.0877266235657433
0.07065060108966187,-0.4515070514546929,-0.19895341326837568,-1.4752464012109365,0.16279361515397975,1.2407773180093964,-0.08773135733500703
0.07175662518146309,-0.4516855565311037,-0.2004440711663191,-1.4745384331617237,0.16330884106155744,1.2415284891753313,-0.08773381410409536
0.07286372788674204,-0.451858668649209,-0.2019450353425786,-1.4738246527297696,0.1638169722057258,1.2422800798747855,-0.0877372894909684
0.0739738266678482,-0.45203423753640254,-0.20346032081801535,-1.473101344763595,0.1643157077189319,1.2430189671952787,-0.08774088476014442
0.07509123576052634,-0.45221933384873353,-0.20499166506789968,-1.4723774377131544,0.1648082113595108,1.243739998161278,-0.08774501933605933
0.07621709377394723,-0.45240544888793227,-0.2065274434358318,-1.4716523920535434,0.16529956465357973,1.244454797211017,-0.08774903402967123
0.07850050803433141,-0.45279433704320926,-0.20958096404828902,-1.470202001301271,0.16626664356359522,1.2458525773037323,-0.0877595801816764
0.07965836393251066,-0.45299195685650484,-0.21110284075964592,-1.4694815696377037,0.16675828448792487,1.2465621032774687,-0.08776617152667963
0.08082724529374091,-0.4531860413963174,-0.21262226070191448,-1.4687596399362228,0.16725423969163256,1.2472626412418895,-0.08777294253151274
0.08200229857553852,-0.45338006604952,-0.2141438378711385,-1.4680269843138236,0.16775460499329414,1.2479816946407631,-0.0877800132966449
0.08318526147134002,-0.45357756598051263,-0.21567308488976042,-1.4672873779176785,0.1682602434582248,1.2487030251488953,-0.08778744349051987
0.08436978218258201,-0.4537781219830254,-0.21721401645139213,-1.4665384836428357,0.16875936242026754,1.2494025443864485,-0.0877955328734367
0.08674913021063131,-0.4541794737526571,-0.22032566056401465,-1.46504231312245,0.16973468661473531,1.2507824080198937,-0.08781386875714275
0.08794659395635684,-0.45438775960026084,-0.2218987098927077,-1.4643022871927858,0.1702065773932494,1.251448431334775,-0.08782495410680373
0.08914537597108303,-0.4546011986415642,-0.22348733879388563,-1.4635563889937702,0.17066763456403053,1.2521203269190073,-0.0878375374943783
0.09035009025085367,-0.4548227269567013,-0.2250954419697742,-1.4628151647864915,0.1711190082990557,1.252776822699668,-0.08784988133551302
0.09156433184667861,-0.45504755110796463,-0.2267036650279658,-1.4620781948192645,0.17156376688715,1.253432659509453,-0.08786366310978523
0.09278762166567822,-0.45526464530505395,-0.2283078733925455,-1.4613522504241716,0.1720074707727773,1.254098203404205,-0.08787822395540232
0.09526883561735403,-0.4556857710006122,-0.23150604362091562,-1.459903177831817,0.1728681299769817,1.2554115546124354,-0.08790920322237598
0.09651950932506818,-0.4558915400834346,-0.23310030502683896,-1.4591659682090672,0.17330052081293051,1.256078716427404,-0.08792634061030132
0.09777971045791975,-0.4560968897418211,-0.23468875415910392,-1.4584367281960142,0.1737317611278364,1.2567476159358095,-0.0879443769518745
0.09904686247360046,-0.45629804504676585,-0.23628391440959204,-1.4577125813809677,0.17416674063613174,1.257415436830737,-0.08796391122227822
0.10031527287167187,-0.45650201654954176,-0.2378887818541305,-1.4569922096040104,0.17460143233963346,1.2580840966836193,-0.08798392480372776
0.10158374315635323,-0.4567154555908451,-0.23950743118202428,-1.4562734557472694,0.17502538625397812,1.2587501199985005,-0.0880063952633487
0.10413344688220347,-0.45715635521232995,-0.24279907829988812,-1.4548359479247048,0.17584309395248848,1.2600563405549887,-0.08806589691912461
0.10541090539436646,-0.4573815986789461,-0.24447447297233657,-1.4541177932613127,0.17623090349428774,1.2606928826408097,-0.0881011305352331
0.10669723214262497,-0.457604385485557,-0.24615591968304942,-1.4533937064419593,0.17661190590293838,1.2613109091830947,-0.08814007930282061
0.10799710111871585,-0.45782591380069404,-0.24783047539754305,-1.4526657247022141,0.17699233322560048,1.2619225840358996,-0.08818184437732236
0.10930877452011954,-0.4580466033760425,-0.24949610288024812,-1.451936304811165,0.17737132222242602,1.2625314425817902,-0.08822444830069585
0.11062883684657293,-0.4582702889181351,-0.25115388074464234,-1.4511986158773693,0.17775405041264103,1.2631307137068502,-0.08826908945963874
0.11329586618623153,-0.4587228131960198,-0.25444834416942047,-1.4497204815894735,0.1785289025985662,1.2643204476074847,-0.08837023630761341
0.11463917793456765,-0.45895626592785577,-0.25610330572690043,-1.4489758417728487,0.17890789159539175,1.2649104909586235,-0.08842033042055492
0.1159806921028573,-0.4591892392395628,-0.2577656974782554,-1.4482250899222664,0.17928151178490523,1.2655065862389434,-0.08847066418901933
0.11732286535110574,-0.4594250288581841,-0.25943575907900823,-1.4474767949498557,0.17964544888772865,1.2660996855525193,-0.08852369438209501
0.11866653663726778,-0.45966111812802135,-0.2611192431343735,-1.44672430551492,0.17999634698477626,1.2666830776720446,-0.08857912134856599
0.12001104688138464,-0.459895769246555,-0.2628192053886223,-1.4459718759665943,0.18033794526943753,1.267259578795351,-0.08863628611755656
0.12271295029932579,-0.4603664496392328,-0.2662612545094475,-1.4444776227994747,0.1809930509389822,1.268385436808772,-0.08875966376962927
0.12407699481384636,-0.46060457625372253,-0.2679799721809213,-1.443732144133978,0.18130905100310324,1.2689210118155312,-0.0888180269253175
0.1254477504465901,-0.4608479159485218,-0.2696956337808748,-1.4429937960111405,0.18161670996419607,1.2694531114354175,-0.08887087734948021
0.12682851292460012,-0.4610945512612812,-0.27140542322056005,-1.4422516729592971,0.18192187624605125,1.2699930606736145,-0.08892169042899047
0.12821946190770633,-0.4613410068051276,-0.27310778235728717,-1.4415127855297207,0.1822340414727398,1.2705148537970186,-0.08896998685280241
0.12961736188272477,-0.4615879417691029,-0.2748115196496249,-1.4407763548692325,0.18254189207098453,1.2710449759588625,-0.08901744442774262
0.13241729629959348,-0.4620821712348794,-0.27824697753453,-1.4392990595392916,0.18313746019642052,1.2721293685489974,-0.08911721312010669
0.13382292601061976,-0.4623249716229398,-0.2799907420988499,-1.4385630483032394,0.18341904149502763,1.27267153490076,-0.08917713420031848
0.1352284958350361,-0.4625677720110002,-0.2817558986183961,-1.4378311717521852,0.1836910355255206,1.2731924292886823,-0.0892481407392743
0.13663580335288897,-0.462812849399236,-0.2835389116015195,-1.437102351054485,0.18395334629479057,1.2737200946814378,-0.08933598512402258
0.13804928279130918,-0.4630587657454266,-0.2853313322365604,-1.4363772455082637,0.18420118008151404,1.2742385921868817,-0.08943821058547498
0.1394725293103897,-0.46330444232701123,-0.287120576917778,-1.4356575329203483,0.18444374070496847,1.2747359973883154,-0.08955265989667605
0.1423421519972136,-0.4637995706373525,-0.2906607769198337,-1.434222062442436,0.18492013757454534,1.2757167863613874,-0.0897870113639937
0.1437907451694393,-0.46404662537454777,-0.2924114324803728,-1.4335016307788686,0.18515924680940396,1.2762207230212144,-0.08991524266763314
0.14524275384192806,-0.4642887066869563,-0.294158193229603,-1.4327788621194328,0.18539941074672953,1.2767202255629935,-0.09004491190441005
0.1466971593968952,-0.4645339039574951,-0.2959112456726205,-1.4320502811863387,0.18563689019313262,1.2772113390706397,-0.09017110586339702
0.1481542613764736,-0.4647816777703422,-0.29767124888938407,-1.431316127635109,0.1858759994279912,1.2777132983815072,-0.09030065532695401
0.14961447920509913,-0.46503112949909886,-0.2994452737541089,-1.4305842509749718,0.18610475432252943,1.27821777423899,-0.09043481867747175
0.1525386301229123,-0.4655433951973655,-0.30304964918551125,-1.4291031804978587,0.1865294751345474,1.279194728287363,-0.09073040960308491
0.15400969375475895,-0.4658132199363145,-0.3048810184790565,-1.428354286332099,0.18672055168666066,1.2796710412938692,-0.09088668387539768
0.15548998516052706,-0.4660899956671758,-0.3067102906504225,-1.427603055170471,0.1869132580272294,1.2801454368380263,-0.09104565468140478
0.15697902513825385,-0.46636533324673346,-0.30853015506078785,-1.426852003777756,0.187107210707417,1.280601736263083,-0.09120294757150225
0.1584762742721174,-0.4666377346370738,-0.3103382150458404,-1.4261085624569116,0.18729464405924962,1.2810405985399154,-0.09135484761237722
0.15998119325537885,-0.4669091772962395,-0.31213153452544606,-1.4253616456401115,0.18748984307905606,1.2814891681198812,-0.09151975057434569
0.16300792917247034,-0.4674413967984288,-0.3157010957651758,-1.4238615203127236,0.1878911707195108,1.2823883445153823,-0.09189054250143953
0.16451848076956027,-0.46770756638159183,-0.3175014859008305,-1.4231204157695818,0.1880896294907612,1.282837213637481,-0.09208001304520833
0.166029931211215,-0.4679809864988,-0.3193197924957554,-1.4223803899490006,0.18828569140134982,1.283277573952227,-0.09226540900875525
0.1675474336911341,-0.46825770223396823,-0.3211558955585644,-1.4216424612505991,0.18847408346254058,1.283718413687102,-0.0924447529340378
0.1690687112091422,-0.46853417831361355,-0.3230123718497319,-1.4209056711613681,0.18865164174146543,1.2841509243835372,-0.09262883062858408
0.17059801811437406,-0.46880969566208414,-0.32487442075903494,-1.420176970345971,0.18882229706866568,1.2845650991962665,-0.09282776881996338
0.17368713188076565,-0.4693634267836366,-0.32857928395845315,-1.4187451550238446,0.1891514319571385,1.2854011785577324,-0.09326177755431217
0.17524268428370748,-0.4696386444808912,-0.3304138290967386,-1.4180301762051928,0.18931806046068855,1.2858116982146757,-0.09347707406227194
0.1768059065360472,-0.4699174574473219,-0.33223189592705754,-1.4173122611973237,0.1894888117809977,1.2862163456022673,-0.09368703771670225
0.17837206497760413,-0.4702026221032329,-0.33404433025263097,-1.4165947656138904,0.1896622474176964,1.286620213918514,-0.09391497771701272
0.17993504757442094,-0.4704895244525804,-0.33585868193147084,-1.415874573605846,0.18983261528916887,1.287020546961278,-0.09414261806610723
0.18149946832254138,-0.47077397003283955,-0.3376799844931399,-1.415156119400321,0.1900047087676728,1.2874381372742703,-0.09436426626354733
0.18462896889874103,-0.4713476548492316,-0.3413752003851177,-1.413712020232753,0.19031850360828395,1.2882407808178404,-0.09478922688380453
0.186195127340298,-0.47163671442553456,-0.3432627758255619,-1.4129867350267022,0.19045569905386134,1.28862349705255,-0.09502483673351289
0.18776955482460167,-0.47193050766201816,-0.34515862019966975,-1.412258273866828,0.19058426576614976,1.28899800402204,-0.09527494754222834
0.18935572695669123,-0.4722319108612897,-0.3470439785265485,-1.4115368234763928,0.1907091894526905,1.2893858135638392,-0.09552895316225272
0.1909507074382664,-0.47254146343917114,-0.3489178318611643,-1.4108249606158711,0.1908373727161423,1.2897693686474205,-0.09576815828113709
0.19255587453402082,-0.472845443289834,-0.3507751471102867,-1.4101135170707022,0.19096776102857102,1.2901294346535963,-0.09601053924476163
0.19577825280636535,-0.47343500722084375,-0.3544517274673425,-1.408655276591036,0.19125567001838123,1.2908362043161115,-0.09648517444444141
0.19738857309581936,-0.47373161687332466,-0.35629196521514944,-1.4079136328502384,0.19140178165297533,1.2912139471260344,-0.09671449260036247
0.19899200249813728,-0.4740310427236368,-0.3581472430105363,-1.4071653977644376,0.1915489479900364,1.2916016367855305,-0.09694914371889608
0.20059435328697744,-0.4743356217676485,-0.3600228940342816,-1.4064203984099868,0.19168643106587452,1.2919723688260145,-0.09720986056622669
0.20220101842064547,-0.4746494885812747,-0.3619175401307749,-1.4056771367489727,0.1918164359294666,1.2923162561754395,-0.09748885330157031
0.2038121776680543,-0.4749647935462045,-0.36382920373289046,-1.404938608857222,0.19193589464105348,1.292650855646167,-0.0977685052259558
0.20706313832489412,-0.4755931264758888,-0.3676449809700268,-1.4035148230314027,0.19216138978414776,1.2933628983846848,-0.09830827469523998
0.20870311961232116,-0.4759077722517768,-0.36953435388143435,-1.4028048775241473,0.19227404153711897,1.2937339899629947,-0.09857150819826888
0.21035142982910487,-0.4762229574434867,-0.3714034735558695,-1.4020903781256244,0.1924007866492671,1.2940867456575984,-0.09882617300733511
0.21200285600401877,-0.4765445541022038,-0.37326480349860375,-1.4013696468108412,0.19253136677338062,1.2944363253983788,-0.09908623066562385
0.2136529640190151,-0.47687064487466174,-0.3751265527566908,-1.4006474774538373,0.19266712406765435,1.2947790143611064,-0.09935983055174497
0.2153000159624912,-0.47719176211325,-0.37699375496877646,-1.3999310604838817,0.1928096884950767,1.2951451324055465,-0.09964427613200413
0.21859453927387926,-0.4778215930808479,-0.38077244101406477,-1.3985153040452862,0.19308503792105663,1.295906010874615,-0.10019890598903826
0.22023745664144045,-0.47814295008404206,-0.3826983059239715,-1.3978105117317305,0.19320056597663512,1.2962702713433156,-0.10046267879880602
0.22188960189200618,-0.4784685015497611,-0.38462896459883505,-1.3971067980316525,0.19331446406922517,1.296616555575219,-0.1007334623780129
0.22355091513896647,-0.4787987268981339,-0.38655476962213187,-1.3964085971721831,0.19341493970720275,1.2969694910387357,-0.10101155626879174
0.22522055731528345,-0.47913284705781567,-0.38847056780016237,-1.3957198038555483,0.19351541551971327,1.297327160162433,-0.10130085550061763
0.22689792933669134,-0.4794636715995373,-0.3903699475568363,-1.3950342462702634,0.19362039724875366,1.2976912409713037,-0.10160777154049776
0.23026196114912162,-0.48011962818254217,-0.3941314362185062,-1.3936432372914642,0.1938541376763002,1.2983905204442507,-0.10223694331905378
0.231941430510875,-0.4804505724974837,-0.39601811281438565,-1.3929334115574288,0.19397493854608186,1.2987326101045464,-0.1025237257860983
0.2336162258808916,-0.48078583115725315,-0.3979192902601891,-1.3922171144697764,0.19409113768075775,1.2990837479880166,-0.10281008882870693
0.23528832493537996,-0.4811255839307634,-0.3998363467115272,-1.3915002780753851,0.19420839134336768,1.2994460909943677,-0.10310460114084236
0.23696425880548422,-0.4814664153177513,-0.401773416962481,-1.3907913512949976,0.19431155147226775,1.2998063966560662,-0.10340666352915577
0.23864258955806686,-0.4818061082046516,-0.4037186363738785,-1.3900814057877424,0.1944051243330537,1.3001480070053162,-0.10372939879704365
0.24202765378789753,-0.482496938865939,-0.40758930137983,-1.3886582191552717,0.1945917906126801,1.3008163672069826,-0.10438757238453084
0.2437276160421463,-0.48284274367771357,-0.40950539920907647,-1.3879400044961867,0.19468948594115923,1.301144734979616,-0.10469652565998036
0.24543434941031125,-0.4831932822587519,-0.41140597746153107,-1.3872214902949689,0.19479600181461212,1.301481491786382,-0.10501386796956266
0.2471424610431699,-0.4835462776088785,-0.41330451836933324,-1.3865124436322784,0.1949163234169812,1.3018159714838895,-0.10533678289728042
0.24884811579785712,-0.48389483873187433,-0.4152013214746158,-1.3858046553519785,0.19503578212856812,1.302139305836043,-0.10566586974556555
0.2505469396611013,-0.48424196181264956,-0.41710429660954884,-1.3850964475381597,0.1951599387429026,1.3024613819148891,-0.10600742009912226
0.25394254993385407,-0.4849520272022078,-0.42095992134975435,-1.383685185213305,0.19537996908557595,1.3031236301916813,-0.10666721160682603
0.25564263207040583,-0.485310355514947,-0.4229143686441564,-1.3829831493200537,0.19547929437704356,1.3034573309269273,-0.10699006664793384
0.2573512230143103,-0.4856709008321686,-0.42486725801403485,-1.3822907008476328,0.19557181253536252,1.3037852791660416,-0.10732412692100561
0.2590634092273908,-0.4860332439476027,-0.4268112191521248,-1.381601188455346,0.1956578113653265,1.304105557664841,-0.10766609680808126
0.2607859018278705,-0.486395107642908,-0.4287397805957259,-1.3809149716810194,0.19575665721484858,1.3044184058606827,-0.10801405873772824
0.26251432669339464,-0.48675876891825975,-0.430649346966579,-1.3802372638231284,0.19586125566958523,1.3047386842503992,-0.10836831247024557
0.26596704184852804,-0.4874819570021314,-0.43446512420371536,-1.3788870011919632,0.19610132361380195,1.3053899070641402,-0.10906333759405784
0.26768881537335587,-0.4878504718199668,-0.4363837386886601,-1.3782079150693785,0.19622816454452602,1.3057073092603324,-0.10942262463797177
0.26940783258696255,-0.48822132374275373,-0.4383143373678306,-1.3775279900979223,0.19635452620783747,1.3060226741118723,-0.10978862290919195
0.27112708956517517,-0.48859163624971863,-0.4402629722794912,-1.376855495320341,0.1964739850939573,1.3063372600011502,-0.11015318302910847
0.27284850366126023,-0.48896122979011486,-0.4422266474568977,-1.3761912696945893,0.19657484435530448,1.3066653281225675,-0.11052253680489867
0.2745759097999166,-0.4893299843725562,-0.44418600828947646,-1.3755242276528405,0.1966801137146056,1.3069978903577257,-0.11089189058068888
0.27805499022597985,-0.4900876270011915,-0.44806608094734546,-1.3741794178665907,0.19688355784433137,1.3076363500149795,-0.11163467282157422
0.2797997735171675,-0.49046507015989854,-0.4499808005118982,-1.3735093199714878,0.1969937169180649,1.3079291845202883,-0.11200732232440758
0.28154815207753126,-0.4908372403516861,-0.4518831763443993,-1.3728437760767356,0.1971211331093104,1.308219682138812,-0.11237236186445301
0.28329005917519473,-0.49120905089656464,-0.453783694710244,-1.3721820669975993,0.1972502752566532,1.3085301334521748,-0.11274543079172224
0.285028970197031,-0.49158463647953216,-0.4556894261563982,-1.3715217362922396,0.19739044264888086,1.3088541269933704,-0.11312101637468977
0.2867635668740394,-0.49197058844559194,-0.45760702202355824,-1.3708457660187021,0.19752543304548129,1.3091874083041803,-0.11348953130160823
0.2902255099121773,-0.4927576524166773,-0.4614987791153539,-1.3694674004231706,0.19778410043993772,1.3097966862745067,-0.11422086854592363
0.2919601664757957,-0.4931491771099556,-0.4634595780992363,-1.3687934076076755,0.19790125828397173,1.310088262506508,-0.11457829812318113
0.29370297241802396,-0.4935360878071901,-0.4654054566996757,-1.3681196544477037,0.19802263458880778,1.3103831343564694,-0.11495166659258324
0.2954543470542149,-0.4939265337779076,-0.46733797295027873,-1.367444403358901,0.19814659939145748,1.3106947241699203,-0.11532293793980598
0.2972066205349706,-0.49432273224475654,-0.4692520334348727,-1.3667710696233648,0.1982762208062129,1.3110142834839849,-0.11568480163511126
0.2989555982886831,-0.49471521566920956,-0.4711550683473326,-1.3660946800344747,0.19841121102828038,1.3113376778318315,-0.11603875571641264
0.3024460038290133,-0.4954832846766301,-0.47496665112194403,-1.3647620342113636,0.19870678986748846,1.311943480415285,-0.11671574449865173
0.30418251796837126,-0.49587169330269515,-0.4768933549898056,-1.364101823279224,0.1988553943558532,1.3122436852278587,-0.11707473200043278
0.305916036140985,-0.49626891049641186,-0.4788379752078543,-1.3634414325781714,0.1990010267230347,1.3125549754991768,-0.11743593650669619
0.3076488351288639,-0.4966704419258734,-0.4807990138472596,-1.3627849366884277,0.19914445386670632,1.3128889757765554,-0.1177837187765133
0.3093869671884384,-0.497068078544026,-0.48275855444875126,-1.3621335341057736,0.19928337491931514,1.313231904394806,-0.11812035559189332
0.3111369037824087,-0.4974621198930026,-0.48470808820497663,-1.3614823114011154,0.19942680223751968,1.3135612908943068,-0.11844686578878712
0.3146431883282736,-0.4982481651372202,-0.48855544390243544,-1.360188494463289,0.19973311904041774,1.3141804558275967,-0.11910192352722718
0.31640073488503184,-0.4986358547967165,-0.49045368515902166,-1.359547458263727,0.19990070642785887,1.314493363910048,-0.1194420358385633
0.3181524690590487,-0.4990233647963829,-0.49234767206647306,-1.3589157098337799,0.20007471732507903,1.314837850452822,-0.11975907849692966
0.31990096739263235,-0.49940644045983534,-0.4942443555076188,-1.3582861785173979,0.20025237142257982,1.3151956994545155,-0.12006102111202314
0.32164275471707593,-0.4997912539258074,-0.4961491281135152,-1.3576550292807994,0.2004306967737109,1.31555630476743,-0.12036080650016118
0.3233781303563461,-0.5001829583879986,-0.4980734950945914,-1.3570225018885902,0.20060691271990802,1.3159005516546811,-0.12066029223708324
0.3268513983996679,-0.5009868602048765,-0.5019831087590474,-1.3557674539494382,0.20094151240880173,1.3165913823159685,-0.12128760654898284
0.3285962416865486,-0.5013850360206848,-0.5039301258595744,-1.3551365444774457,0.2011040184446586,1.3169537253223196,-0.12162190647757752
0.3303491143606532,-0.5017817737942727,-0.5058627019967874,-1.3545082115477614,0.20127237290430597,1.3173305692876778,-0.12193445502220306
0.33210264611471646,-0.502176713878731,-0.5077759235234266,-1.3538807174669487,0.20145031463206747,1.3176969869833337,-0.1222278288342508
0.33386067198252056,-0.5025653623784851,-0.5096690116953962,-1.3532458531879543,0.20164052829339854,1.3180640637589487,-0.12251994437299094
0.3356153422366716,-0.5029522130800266,-0.5115553286443667,-1.3526115881023086,0.2018498206723819,1.3184310207613434,-0.12280798522242614
0.3390986171252597,-0.5037298095125845,-0.5153411453413971,-1.3513424586285854,0.2022740622169873,1.319224316430523,-0.12340539877174672
0.3408358503402694,-0.5041225924791705,-0.5172541272125134,-1.3506941121174516,0.20248997009196743,1.319621114199804,-0.12371555054297696
0.34256864943723137,-0.5045218470175397,-0.5191869430052493,-1.3500438480348853,0.20269744104534343,1.3200106614350398,-0.12400413069915103
0.3443004898030186,-0.5049270934893971,-0.5211342596479092,-1.3494019729864517,0.202900118102863,1.3204053618639753,-0.12427623254735855
0.3460400000182037,-0.5053367742974685,-0.523078580323825,-1.3487581204799755,0.20310059028593846,1.3207997626416945,-0.12455582447605099
0.34778544249843324,-0.5057423803071519,-0.5250083401541238,-1.34811223073793,0.2033027880760454,1.3212050692183281,-0.12484027005631015
0.35128633419507554,-0.5065399305436324,-0.5288117736592084,-1.3468338134945923,0.20371725054085188,1.3220103491908166,-0.12541431441052808
0.353032076217438,-0.5069345110902649,-0.530693776263351,-1.3461861859500273,0.2039358429067545,1.3224183520829784,-0.12571044464288011
0.3547744627352304,-0.5073307695528069,-0.5325712249762259,-1.3455387981700682,0.2041622967592069,1.3228331860847493,-0.12599183426070212
0.35650636298762756,-0.5077287057130924,-0.5344556844585399,-1.3448975223149835,0.20438453215085722,1.3232550906334863,-0.12625344984351441
0.35823400878180683,-0.5081274208356397,-0.5363553638664298,-1.3442549880775079,0.20460858931718076,1.3236807703293954,-0.12650769522814478
0.35995823918480613,-0.5085330868410161,-0.5382766148893758,-1.3436210825296881,0.20482622279919235,1.3241089666810026,-0.1267685318486953
0.3634010073812831,-0.5093571222307295,-0.5421689712836034,-1.3423622595524471,0.2052422192338784,1.3250022109205426,-0.12730812154906654
0.3651324283226345,-0.5097766300060712,-0.544106281080997,-1.3417275749332827,0.20545726421807634,1.325448743155856,-0.1275776467458827
0.3668677440752947,-0.5101921829744109,-0.5460259741794194,-1.3410960062722481,0.2056727884696869,1.325892578857475,-0.12785394305661507
0.3686062356726951,-0.5105970101309156,-0.5479202607380869,-1.3404719278007817,0.20590461130398427,1.3263465412866633,-0.1281280223628651
0.37034526646775134,-0.5109962645602018,-0.5498019038044035,-1.3398510850606655,0.20614391235052765,1.326818120632989,-0.12838724106319901
0.3720749497156662,-0.5113971967963145,-0.5516791727483654,-1.3392216136308936,0.20639078725336008,1.3272777155669229,-0.1286417261033523
0.37551202541170475,-0.5122045141134554,-0.5554709814879671,-1.3379488290013843,0.20688405796614523,1.3281900147658203,-0.12917304676097682
0.3772189984353926,-0.5126037086561315,-0.557389655968605,-1.3373269675344004,0.20712450953373154,1.328661833658586,-0.12943747865070335
0.3789299263751655,-0.5130063785856808,-0.5593238499169515,-1.336713375219246,0.20736313932664463,1.3291440789301368,-0.1296953791911197
0.3806439700549024,-0.5134112656287954,-0.56126193878569,-1.336095288899434,0.20759323655391054,1.32960229570846,-0.12995190146684238
0.38236077026402676,-0.5138245415969597,-0.5631937958472512,-1.3354685737808834,0.2078220872670247,1.330065126482827,-0.13021118016286934
0.38407918828428456,-0.5142385366407759,-0.5651153464123301,-1.334843776233765,0.20805496480378904,1.3305480308343365,-0.1304632684296273
0.38752926679233357,-0.5150395622641295,-0.56889157568853,-1.3335978362953147,0.20855628881480875,1.331519472151184,-0.1309397612050466
0.38925032135059273,-0.5154319258062796,-0.5707663878634036,-1.3329756153995878,0.2088241602030756,1.331985298892295,-0.13118555755985112
0.3909604103324108,-0.5158310004666528,-0.5726444357696273,-1.3323443462806863,0.20909404500316756,1.332459994087668,-0.13141924994721
0.3926622901580921,-0.5162329514296332,-0.5745279364116835,-1.3316991156185995,0.20936316273105324,1.3329551822846193,-0.13164017917808135
0.39436039483660135,-0.5166366999726602,-0.5764296531642259,-1.3310450166113341,0.2096274867376154,1.3334332329845622,-0.13184750629451036
0.3960493916234922,-0.5170430849446053,-0.5783553983009126,-1.3303965502178974,0.20987445763355667,1.3338995391458022,-0.1320618441803785
0.39943547447110755,-0.5178770072972821,-0.5822288196180854,-1.3291163353945132,0.21036303061812717,1.3348753546940875,-0.13250394218856104
0.40113399868313576,-0.5182942380724483,-0.5841534262546846,-1.3284704455433847,0.21060118114362764,1.3353747373535636,-0.13271354630516544
0.40283581851312406,-0.518706555309438,-0.5860595771252747,-1.3278319261086042,0.21084642625800457,1.3358664500545587,-0.13290787050050093
0.4045421324568531,-0.5191167154285552,-0.587945894074245,-1.3271948447160442,0.21109799906358456,1.3363748808281266,-0.1331065090406643
0.4062452106692321,-0.5195253775097588,-0.5898200470600768,-1.3265520708230458,0.2113644324750807,1.3369018271452302,-0.13330394908504692
0.4079374430783899,-0.5199302645528735,-0.5916980350796905,-1.3259079186653537,0.21163067390035908,1.3374390200722062,-0.13348592954833077
0.4112954229616389,-0.5207514236399796,-0.5954975736643833,-1.3246211126060494,0.21216718374909901,1.3385084323922882,-0.13378685343655647
0.41297015844504553,-0.5211630218013175,-0.5974225997254182,-1.323978098948445,0.2124281521856413,1.3390599464002753,-0.13392437240072733
0.4146432761173186,-0.5215750394961742,-0.599363265136465,-1.3233435342115836,0.21267665705146216,1.3395957011759474,-0.13406512720533137
0.4163153750627239,-0.5219887348887744,-0.601306986619032,-1.322708669932589,0.2129149993886474,1.340137388107581,-0.13421600851933854
0.4179962224710049,-0.5223993744280205,-0.6032407611429427,-1.3220753635781182,0.2131574641935259,1.3406836890352587,-0.13437575828760742
0.4196798862952831,-0.5228107329338354,-0.6051610534347139,-1.321449427530912,0.21339379311888607,1.3412274133115447,-0.13453239209774612
0.4230487118726701,-0.5236164323307597,-0.6089589142125801,-1.3201994728988498,0.21390374586319472,1.342325707667338,-0.1348079094462167
0.4247275219362986,-0.52401526733561,-0.6108514629687278,-1.3195711399691656,0.214165769002204,1.3428751244440627,-0.13491534798797866
0.4263968645704827,-0.524411645571372,-0.6127479066452676,-1.3189420280772195,0.21443411965788342,1.3434317916457492,-0.1350118809489926
0.4280602150530124,-0.5248177311102673,-0.6146577127807267,-1.3183154328409716,0.21469067799647176,1.3440040384199208,-0.1351133873347932
0.42971985049314615,-0.5252307674229088,-0.616592805573638,-1.3176944702185525,0.21494378477193135,1.3445779628918357,-0.13521387510280908
0.43137559101288786,-0.5256446425844219,-0.6185501889481743,-1.3170750656297399,0.21518701664901607,1.3451533255150543,-0.13531274495060835
0.4346954609774211,-0.5264730520964901,-0.6224681317601529,-1.3158281069644215,0.21565190865722966,1.3463076461397505,-0.13547962526153626
0.43635827215321193,-0.5268905226362623,-0.6244108345158522,-1.3152028899928674,0.21588497800567882,1.3468931353814553,-0.13554469953544765
0.43802671594283127,-0.5273073938736028,-0.626332984383363,-1.314571501100746,0.21612427887768929,1.3474516002722714,-0.1355979694931293
0.43969042596318686,-0.5277155166480675,-0.6282446479854786,-1.3139377153261462,0.21636626441515516,1.3480224088951394,-0.13564398891676588
0.441344608558405,-0.5281243584981841,-0.6301574500876819,-1.3133037498917166,0.21661496109266082,1.348597172325009,-0.1356832971130962
0.4429898628127516,-0.5285336796593465,-0.6320785213417149,-1.312664930696637,0.21686864312864187,1.3491604908673918,-0.13571409661115694
0.44625844038672874,-0.5293792266684231,-0.6359641666177194,-1.3113457672147484,0.21736402307182806,1.3503012692642558,-0.1357561013411816
0.4478844600218875,-0.5298146734449924,-0.6379391669093929,-1.3106826200933914,0.21759143563363859,1.3508907133129624,-0.13577084195571162
0.44951173793035387,-0.5302456262169041,-0.6399197997058119,-1.3100188737786858,0.21780628880615174,1.3514574473556085,-0.13578174753645963
0.45114590683503947,-0.5306747214130763,-0.6418910249593964,-1.3093470381901462,0.2180211419786649,1.3520219042889958,-0.13578947738155056
0.45278301192894227,-0.5311056740759047,-0.6438492472918875,-1.3086805354551363,0.21823436536272253,1.3525981058701693,-0.13579373173068537
0.45604619654461387,-0.5319627858547712,-0.6477274023783239,-1.3073439948207164,0.2186626335564452,1.3537315738463782,-0.13579726711325144
0.45767341456647026,-0.5323774999742392,-0.6496600384021468,-1.3066736571610074,0.21888506093431323,1.3543066968140738,-0.13579726711325144
0.4592905059698405,-0.5327953899384473,-0.6515987864599272,-1.3060152439179973,0.21910394075594367,1.3548961408627804,-0.13579726711325144
0.460899088565858,-0.5332238259455776,-0.6535526944475903,-1.3053528757589021,0.2193241629103018,1.3554856449071804,-0.13579726711325144
0.46249934212343574,-0.5336611901844964,-0.6555328479329635,-1.3046815194814085,0.21953335947070926,1.3560741302247123,-0.13579702745772854
0.4640971389119251,-0.5340996930325861,-0.657541344147309,-1.304013578704178,0.2197280792231031,1.3566735212320753,-0.13579690757542554
0.4656987706251135,-0.5345344807291966,-0.6595559521774458,-1.3033528284652993,0.2199143618793599,1.3572600891963411,-0.13579702745772854
0.46892444462450117,-0.5354057938158543,-0.6635571253781289,-1.3020262945670626,0.22027801135192257,1.3584229185193069,-0.1357967878022056
0.47054135625895843,-0.5358356678652051,-0.6655325450942384,-1.3013639864036606,0.22046458163844007,1.3590010974494398,-0.13579690757542554
0.4721574889311539,-0.5362551157539368,-0.6674981377339945,-1.3007017981225615,0.220659205572258,1.3595723854924364,-0.1357964282643797
0.4737646333758677,-0.5366664742597517,-0.6694647491006183,-1.3000391903079436,0.22085325407102152,1.360147867888875,-0.13579660803329266
0.4753619507442282,-0.5370833456061751,-0.6714422660479901,-1.2993719086106716,0.2210552602239766,1.3607223317766117,-0.13579624849546676
0.4769552535280599,-0.5375062089951699,-0.6734371001522002,-1.29870444725357,0.22125582822562803,1.361292241554915,-0.1357960687265538
0.48011747095558666,-0.5383636203161692,-0.6774974154708334,-1.2973879202005996,0.2216212991237981,1.3624080328364594,-0.1357959488442508
0.4817042422810251,-0.5387976290505181,-0.6795403663390256,-1.2967205187301079,0.22178831125071777,1.3629571499619682,-0.1357959488442508
0.48330060091821087,-0.5392348135205239,-0.6815692356726466,-1.2960476644147008,0.22195072146799869,1.3635005148095114,-0.1357959488442508
0.4849001953958298,-0.5396687023725697,-0.6835803084293003,-1.295380562486342,0.22211274823644295,1.3640469953970187,-0.1357958289619478
0.4864982917264521,-0.5400957003374793,-0.6855734048400739,-1.2947151384738926,0.22227285741163805,1.3645917982867826,-0.1357958289619478
0.48809411116598206,-0.5405203613065206,-0.6875602695527533,-1.294043782196399,0.22244063661076396,1.3651371404832853,-0.13579576907533786
0.491259624320552,-0.5413641107355508,-0.6915417886007298,-1.2926790186062267,0.22279220578690898,1.3662279445404275,-0.13579546953320498
0.4928248240309342,-0.541789071355808,-0.6935583142022991,-1.2919808776333672,0.22296372400489145,1.3667562691222248,-0.13579546953320498
0.49437708070683284,-0.5422264355947268,-0.6956028828816248,-1.291278362319987,0.22311913545187187,1.3672678157448397,-0.13579534965090198
0.4959296970296405,-0.5426739864478249,-0.6976684239826578,-1.2905810003093894,0.22326438419568378,1.3677665992109669,-0.135795289764292
0.4974896835506301,-0.5431213576410931,-0.6997349837014757,-1.2898796834917898,0.22340042912021824,1.368265502450314,-0.135795289764292
0.4990535649920117,-0.5435667512672357,-0.7017897389949806,-1.2891742320982753,0.22352755785573597,1.368743972683776,-0.135795289764292
0.5021930724134777,-0.5444438767366349,-0.7058502340825268,-1.2877675836603812,0.22378862211085418,1.3696907264274372,-0.13579546953320498
0.5037591109727316,-0.5448799228156361,-0.7078656810706183,-1.2870657275360429,0.22392811859851738,1.3701901090869133,-0.135795289764292
0.5053172400270648,-0.5453129128231171,-0.7098862813614926,-1.2863695639121429,0.22407087466309158,1.3706851175149517,-0.13579546953320498
0.506867399471701,-0.545743026637074,-0.7119267154649034,-1.2856677077878045,0.2242156441394909,1.3711665837151576,-0.135795289764292
0.5084094096468105,-0.5461787730648592,-0.7139882418723246,-1.284959260318463,0.22435638679224004,1.3716451138352292,-0.13579534965090198
0.5099445289347838,-0.5466263239179573,-0.7160730774791554,-1.284259261769864,0.22448802161882056,1.3721304150692173,-0.135795289764292
0.5130326839700007,-0.5475274777715009,-0.7202578489542559,-1.2828714885224148,0.22472243295093156,1.3730590725846954,-0.13579558930642488
0.5145862589149,-0.5479692162418576,-0.7223315393248159,-1.2821848523236523,0.2248345094433813,1.3735070429713123,-0.1357959488442508
0.516148043125019,-0.5484092171278607,-0.7243850363450132,-1.281501272087327,0.22494850335454727,1.3739683757077659,-0.13579636826868666
0.5177061122927423,-0.548848738484652,-0.7264285862974711,-1.2808149955354733,0.22506642827078752,1.3744348017513088,-0.13579624849546676
0.5192535753127673,-0.5492849643325662,-0.7284766903593629,-1.2801168544535309,0.22518981781291578,1.3748834911044945,-0.13579624849546676
0.5207920501053106,-0.5497159769910878,-0.7305330035773915,-1.2794194325563233,0.2253129197247833,1.3753174398431502,-0.13579612861316376
0.5238527612561199,-0.5505869904265295,-0.7346926081682599,-1.2780469991167531,0.22555902772994238,1.376229319508529,-0.13579636826868666
0.5253757764675645,-0.5510397544690202,-0.7368041088063195,-1.2773597037289486,0.22567436397383608,1.3766793272397986,-0.13579636826868666
0.5269058624441413,-0.5514973121673846,-0.7389171073732097,-1.2766610234493503,0.22578068803560417,1.3771093211714522,-0.1357966679199026
0.5284417006986833,-0.5519444435960468,-0.7410161443969148,-1.275962762594188,0.22588749136478486,1.3775314055981853,-0.13579738699555444
0.5299862276385742,-0.5523854630998347,-0.74309211176765,-1.2752740891598562,0.22600234816673304,1.3779596618364025,-0.13579726711325144
0.5315358478855546,-0.5528259432968837,-0.7451498031412892,-1.2745813410362192,0.22612794293237115,1.3783890566837906,-0.1357974468821644
0.5346018919989765,-0.5537035480773287,-0.7492711781493049,-1.273167801711189,0.22638708976877314,1.379213451502247,-0.13579786630660026
0.5361195742478084,-0.5541373170470715,-0.7513539165248733,-1.2724486882075392,0.22652351814214425,1.3796208552010598,-0.13579804607551324
0.5376289873448107,-0.5545804337821217,-0.753454092048666,-1.2717242418503598,0.22665467352677923,1.3800416213587923,-0.13579804607551324
0.5391348650592469,-0.5550345759802231,-0.7555738617294724,-1.2710033907623566,0.22677796725033156,1.3804529199779971,-0.1357983457267292
0.5406443381519421,-0.5554950698678047,-0.7576977060995838,-1.2702784649850485,0.22689541272462627,1.3808440251377565,-0.13579936434451387
0.5421624398252101,-0.5559550243395645,-0.7598098059309922,-1.2695531197833043,0.22701055715683516,1.3812247639144237,-0.13580050284460157
0.5436899491503955,-0.5564098257267076,-0.7618988959960409,-1.268836702813349,0.22712934478932467,1.3816041845311733,-0.13580301950029985
0.5467498213432499,-0.5573130767024306,-0.766026143164325,-1.2674018914153955,0.2273859029533801,1.3823727328496396,-0.13580793303847655
0.5482664250876873,-0.5577605676689187,-0.7680937216100105,-1.266685294676527,0.22752233150128412,1.3827526327774349,-0.13580895176534433
0.5497702654574711,-0.5582029653283173,-0.770173044594399,-1.2659697765511364,0.22766508756585835,1.3831458951641498,-0.13580913153425728
0.5512685932048124,-0.5586471606768453,-0.7722701640466714,-1.2652538390013097,0.2278042962487279,1.3835461682112207,-0.13580925130747717
0.5527555359512767,-0.5591011829926437,-0.7743903532609968,-1.2645437137251416,0.22793573926362362,1.3839433254092444,-0.13580937118978018
0.5542450552400494,-0.5595641336493136,-0.7765268409052926,-1.2638314912177109,0.22805644431482938,1.3843169336432524,-0.135809850500826
0.5572490210463039,-0.5604945888539212,-0.7807674588803831,-1.2624224460064215,0.2282895134887456,1.3850352081889474,-0.13581434461456682
0.558759332987871,-0.5609556219391587,-0.782859784676782,-1.2617252037690438,0.22840954763538687,1.3853964126952107,-0.13581782011052293
0.5602738993876559,-0.5614081463261265,-0.784936411236559,-1.2610225087958338,0.22854175754795591,1.3857649875087392,-0.13582129549739597
0.5617812152533957,-0.5618592924484006,-0.7870156742252543,-1.2603161585577545,0.22867866536327255,1.3861185221656047,-0.13582411180431023
0.5632776854249975,-0.5623100790328488,-0.7891044647481702,-1.2596134635845444,0.22882688622826772,1.3864568967835043,-0.1358252503043979
0.5647622911755934,-0.5627580494194658,-0.791211291503576,-1.2589164610026895,0.22897654524456648,1.3867937133677972,-0.13582590938435668
0.5662440806192751,-0.5632111728906994,-0.7933361544914721,-1.2582182001475273,0.22912342395136684,1.3871258561785196,-0.13582620903557263
0.5692118540782465,-0.564134497552648,-0.7976141632005435,-1.2568059790914976,0.2294179482626409,1.3877794158790462,-0.13582986419135865
0.5707034107116716,-0.5646023017518016,-0.7997393258396555,-1.2561105345432495,0.22956195066683396,1.3880763849602697,-0.13583357934283766
0.5721992816899245,-0.5650614173746896,-0.8018451338681937,-1.2554192244618332,0.22971486926004378,1.3883430339635618,-0.13583837299871135
0.5736997066685283,-0.5655149004928322,-0.8039299695841075,-1.254723779913585,0.22987833417979167,1.3886061476933709,-0.13584322665027806
0.5751940196131746,-0.5659665260352352,-0.8060100715307577,-1.254024799982771,0.2300493729558286,1.388875972541403,-0.13584718145728
0.5766727532035022,-0.5664225856956859,-0.8080995810202422,-1.2533186895092976,0.2302242469183639,1.38916485223971,-0.13584987788189126
0.5795967242433193,-0.5673394987815443,-0.8123268366454963,-1.251855415609152,0.23057907584595286,1.3897263132063533,-0.13585113615519886
0.5810524480672872,-0.5678064640227432,-0.8144709342525801,-1.2511269545583608,0.2307494435428924,1.3899818767509011,-0.13585209499545667
0.582511647278128,-0.5682861326429026,-0.8166147923132241,-1.2503959767427881,0.23092134520971153,1.3901968138301182,-0.13585413223102608
0.5839760596783614,-0.5687722727257623,-0.8187464863016463,-1.2496636806582149,0.23109516446977982,1.3903808915246645,-0.13585820692033101
0.5854516773105588,-0.5692478667656998,-0.8208643385201032,-1.2489369573008602,0.23126495690619792,1.390545015524371,-0.13586431884520533
0.5869289726404997,-0.5697177082004229,-0.8229591210855903,-1.2482143684103375,0.23144337807590493,1.3907180677558664,-0.135873007421471
0.5898651677482317,-0.5706567322080762,-0.8271306499840745,-1.246787406739778,0.23182044965401422,1.3911320627996826,-0.1358930211120036
0.5913147795382421,-0.5711270530629282,-0.8292361584704797,-1.2460618218825108,0.23201660755771172,1.3913514339969473,-0.13590158980596628
0.5927534857475044,-0.5715896441817723,-0.8313592238783293,-1.2453313833736772,0.23221688792910242,1.3915675694628618,-0.13590949941997016
0.5941929709190287,-0.5720581075699678,-0.8334942134847115,-1.2446114909077657,0.23242081150077373,1.3917673465031128,-0.13591764868949696
0.5956362311286417,-0.5725415511191331,-0.8356338170871376,-1.2438991486271151,0.23262703593999795,1.3919401590790852,-0.13592855427024497
0.5970887791078694,-0.5730349417360379,-0.837764672226688,-1.243187884850859,0.23284073876600112,1.3920819923880838,-0.13594347465368795
0.5985515735878862,-0.573515688860592,-0.8398802474449696,-1.2424821938018218,0.23305587956877502,1.3922048906200277,-0.13596432719309232
0.6014898059311876,-0.5744591469862931,-0.8440498588811043,-1.2410877094361494,0.23352968776600533,1.3924208463170293,-0.1360305999627844
0.602954278218031,-0.5749362989507543,-0.8461233694827512,-1.2403959200436874,0.23379401194710042,1.3925249292451383,-0.13607452215515856
0.6044069460795617,-0.5754060804988673,-0.8482038908538372,-1.2397057484623588,0.2340639925657683,1.3926343452449428,-0.13612413684797114
0.6058508653691336,-0.5758689711598443,-0.8502993326083662,-1.2390165956078978,0.23434097195473666,1.3927614979351044,-0.13617848531004748
0.6072904105363508,-0.5763412095861288,-0.8524122114020365,-1.2383288809047406,0.23462725115609137,1.392892844978708,-0.13624002431047585
0.6087322924812703,-0.5768263310512037,-0.8545401902389796,-1.2376379903568433,0.23491237983640315,1.3930246115558302,-0.1363086339669533
0.6116401448600298,-0.5778050227930134,-0.858766726788582,-1.236273346648974,0.23549203265345606,1.3932721457131545,-0.13646778454187336
0.6131058155335709,-0.5782819948794785,-0.8608518021600188,-1.2356000129134377,0.23578972089759812,1.393384737557699,-0.1365590444268847
0.6145739429762003,-0.5787620829240738,-0.8629159051097482,-1.2349268590558977,0.23610926834342383,1.3934905581792445,-0.13665923254368464
0.6160345204517348,-0.5792446877334505,-0.8649774914037793,-1.2342468142021383,0.23644271733674171,1.393592244333958,-0.1367552860845697
0.6174805969682622,-0.5797257943958305,-0.867048305580815,-1.233552208502762,0.23678958878467204,1.3936862606392735,-0.1368449879359744
0.6189151686016097,-0.5802004895912033,-0.8691315832631222,-1.2328430420668515,0.2371507454034641,1.3937741050240218,-0.13692270570223647
0.6217743050230383,-0.5811732490679685,-0.8733257025035304,-1.2314373523601323,0.2378895488608869,1.3939481758733019,-0.13705776789731897
0.6232076782696881,-0.5816684971515297,-0.8754233013759317,-1.230738552198231,0.23826240197819412,1.394018583218909,-0.13711625093531019
0.6246530357105637,-0.5821636254618711,-0.877506399289326,-1.2300446056878964,0.23864014480993373,1.394080601530383,-0.13717539305326018
0.6261049245007495,-0.5826568960873897,-0.8795699030457066,-1.2293606060271351,0.2390234482606702,1.3941308753031545,-0.1372438829365177
0.6275567535134084,-0.5831495676286427,-0.8816114757582881,-1.22868014174894,0.23943062432491544,1.394188159954448,-0.13732076174482494
0.6290037287654175,-0.5836433176742903,-0.8836434010543462,-1.2280001567817906,0.2398534277182172,1.3942501183793123,-0.13740399213352944
0.6318617866824515,-0.5846249454962341,-0.8877257074124716,-1.2266310789558734,0.2407371924637241,1.3943855999988306,-0.13755577240118447
0.6332783220833089,-0.5851173773819641,-0.8897808222438025,-1.2259383907188466,0.24118540244041423,1.3944462402637774,-0.13762084667509586
0.6346894046392507,-0.5856213140417911,-0.8918514566519251,-1.2252553498983432,0.24163284551943098,1.3944983716122883,-0.13768046821317476
0.6360998880018438,-0.5861363360512789,-0.893936352254449,-1.2245787205448468,0.2420756865142761,1.3945342044217455,-0.13773763298216532
0.637520677751836,-0.5866515378296797,-0.8960165140877091,-1.2239070047295273,0.24251536375078614,1.3945524204231485,-0.13779821325141897
0.6389505755025296,-0.587161406754551,-0.8980810964575674,-1.2232476925328695,0.2429656829578773,1.3945634459952827,-0.13786148994528388
0.6418282875722704,-0.5881797063439069,-0.902154774126037,-1.2219484827458202,0.24390802653813476,1.3945823210766446,-0.13798882229527545
0.6432580055540512,-0.5886856203526932,-0.9041837034553509,-1.2212879122758549,0.24439985909961628,1.39459106953952,-0.13805275817818222
0.6446786155351304,-0.5891808085496445,-0.9062205422895858,-1.2206277612303251,0.24490127910374485,1.3945961628466097,-0.13811531579639527
0.6460908965868529,-0.5896762962887286,-0.9082659498177832,-1.2199737222187528,0.24541631319963778,1.3946013760360023,-0.13818086949043556
0.6474993426047935,-0.5901849068312093,-0.9103190873001547,-1.2193243569807513,0.24593518213296317,1.3946049114185683,-0.13825391337404386
0.6489085675849958,-0.5907020261810426,-0.912387145056886,-1.2186791263186645,0.24644906570781316,1.3946049114185683,-0.13833522630039885
0.6517369046174468,-0.5917208050814444,-0.9165158303764738,-1.2173878859231462,0.2474904469492775,1.3946041323472236,-0.13853242679834166
0.65316536432592,-0.5922396022381043,-0.9185530886351445,-1.2167577554134155,0.24803050400518917,1.3946041323472236,-0.1386487935718922
0.6545950224210908,-0.5927631929415548,-0.9205733892748027,-1.216126486403597,0.24858695563689653,1.3946037129227877,-0.1387688156103118
0.6560176697468225,-0.5932709646351637,-0.9225857204138472,-1.2154836525149055,0.24915289871814209,1.3946034732672647,-0.1388924329179074
0.6574340852653769,-0.5937704071812497,-0.9245996094774152,-1.2148338079658583,0.24972910014659916,1.3946033533849618,-0.13901742838111364
0.6588394154342704,-0.5942779391102527,-0.9266123001542855,-1.2141833641143789,0.2503262022419147,1.3946037729184808,-0.13912552611191745
0.6616371327375736,-0.5953191285836654,-0.9306502648956008,-1.2128609649011401,0.2515337327195165,1.3946029938471358,-0.13929947707889442
0.6630317968721589,-0.5958403225137207,-0.9326883621122263,-1.212209981742922,0.25214588688336714,1.394602694305003,-0.13937989126976774
0.6644323932717886,-0.5963743395959564,-0.93472562047998,-1.2115573807735702,0.2527607255381403,1.394602214884874,-0.13946905381443359
0.6658397007896414,-0.5969178841033296,-0.9367472992752489,-1.210899207186083,0.2533907122545573,1.3946019153427411,-0.13956714469997109
0.6672494650765826,-0.5974545976101766,-0.9387525596491612,-1.210251339985995,0.25402942352283914,1.3946020351159611,-0.13967308531290254
0.6686616861326121,-0.5979810646162345,-0.9407388850551017,-1.2096124010176956,0.25468951472539214,1.39460251453609,-0.13978280085483988
0.6714656951297027,-0.5990332195570052,-0.9446890652982787,-1.2083277520762636,0.2560690428629219,1.3946020351159611,-0.13999606012723026
0.6728597001843292,-0.5995613044832795,-0.946668140279257,-1.207681742342832,0.25677812545757833,1.3946023347671772,-0.14010535624473172
0.6742471138939524,-0.6000909473340775,-0.9486581207319005,-1.2070372307563972,0.2574942068225353,1.3946016156915253,-0.14022346082080184
0.6756294344055691,-0.6006308965722746,-0.9506600256012427,-1.2064007485571862,0.2582142190180336,1.394602214884874,-0.14034186493900486
0.6770187655775417,-0.6011819311601327,-0.9526737348958978,-1.205779246628028,0.2589372033347151,1.3946010763847865,-0.14046931717129943
0.6784159463678253,-0.6017372203152919,-0.9546818116858075,-1.2051639166194372,0.25967571916187715,1.3946013760360023,-0.14061450609395124
0.6812358344795336,-0.6028337768685655,-0.9586430173920354,-1.2039520119103975,0.26119675702436235,1.3946011363804796,-0.14094233455984567
0.6826474563422142,-0.6033788194138524,-0.9605927909128668,-1.2033530403274704,0.2619968239819911,1.3946014359226124,-0.14111964114047576
0.6840569210870227,-0.6039212254211378,-0.9625367520509567,-1.2027439421260568,0.2628192294087161,1.3946010763847865,-0.14128322583344358
0.6854600940289606,-0.6044569203102002,-0.9644798742310917,-1.2021277731595112,0.2636595632065835,1.3946010763847865,-0.14142691671818178
0.6868546982769358,-0.6049916563590046,-0.9664231162935298,-1.2015136415376182,0.2645082381074791,1.3946010763847865,-0.14154837679882196
0.6882472651802587,-0.6055380171732921,-0.9683751069279266,-1.2009126926057314,0.2653717734397578,1.3946013161493924,-0.14166851861046148
0.6910291034780273,-0.606656624761751,-0.9723245680954518,-1.1997406953954541,0.2671045963604641,1.3946005370780477,-0.14193900264753548
0.6924308382686616,-0.6072194638840049,-0.9743004672316901,-1.1991681489700667,0.26797982836579093,1.3946006569603506,-0.14207921803631757
0.6938356890174261,-0.6077920701960022,-0.9762640225267936,-1.1985950034604136,0.26886771557899103,1.3946003573091346,-0.14222620453901585
0.6952395211484059,-0.6083658148990042,-0.9782129570896702,-1.198015386378977,0.26976998395616175,1.3946006569603506,-0.14237498873084367
0.6966472481997777,-0.6089251186386921,-0.9801454133445802,-1.1974331927552324,0.2706916186812455,1.3946005370780477,-0.14252581015824092
0.6980500017172798,-0.609477351722331,-0.9820655858631315,-1.1968524971694012,0.271631853031102,1.3946006569603506,-0.14268454119964202
0.7008379518308397,-0.6106095614252322,-0.9858959238368018,-1.1956842748881298,0.2735746397589548,1.3946004771914375,-0.1430465247772503
0.7022259647338117,-0.6111685056270941,-0.9878194518599233,-1.1950923740703348,0.2745529360746058,1.3946003573091346,-0.14323803266567153
0.7036141574056968,-0.6117378163211314,-0.9897546645351375,-1.1945041882949357,0.2755342043369071,1.3946001776493047,-0.14342702389839448
0.7050003128420124,-0.6123323536769278,-0.9917013220978387,-1.1939193581331895,0.2765263063814743,1.3945995184602629,-0.1435941439739284
0.706386348396025,-0.6129291081462896,-0.9936487586228017,-1.1933386025516655,0.27752051765644253,1.394598799384611,-0.14375323455315542
0.7077801736817385,-0.6135132792280769,-0.9955843907224519,-1.1927612025837944,0.27851875575506096,1.3945970616911745,-0.1439166393681272
0.7105711198711255,-0.6146874935519197,-0.9994031040397223,-1.1915859096464738,0.28056105941153325,1.394594604922086,-0.1442843753327839
0.7119666229636656,-0.6152689082134026,-1.0012870242152974,-1.1909798075208877,0.28160272828325833,1.3945928672286496,-0.1444740257545487
0.7133552949465964,-0.6158481057613201,-1.003169206697436,-1.1903738251685212,0.28266146263534353,1.394592148152998,-0.1446639757184464
0.714738154655869,-0.6164375499191099,-1.0050543252597088,-1.1897685618918068,0.2837270999391533,1.3945902905772583,-0.14485728118691413
0.7161198159784438,-0.617033225774994,-1.0069500498605968,-1.189168811346618,0.28479944838300286,1.3945884929972119,-0.14506448842104014
0.7174964438805389,-0.6176332759713989,-1.0088655483874112,-1.1885809252224346,0.2858676741846262,1.3945851972701686,-0.14527595011338407
0.7202542536850799,-0.6188774182207198,-1.0127459205874132,-1.1874050929783753,0.28800594756254627,1.3945704567647217,-0.14567862004293328
0.7216365142010036,-0.619502695187967,-1.0146750213377531,-1.1868146302028006,0.28907187249661676,1.3945633261129797,-0.14585958188843243
0.7230273434108898,-0.620117246234296,-1.0165912988268293,-1.186232556461359,0.29014076937733757,1.3945543978811912,-0.14603976466258672
0.7244226667345169,-0.6207256254691407,-1.0184872631923232,-1.1856506024931373,0.2912242392337137,1.394547147456229,-0.14623870285396603
