AdrianPrados/GaussianPathwiseLfD/ExpJointIiwa/joint_gaussian_4_joints.csv
joint_0,joint_1,joint_2,joint_3,joint_4,joint_5,joint_6
-0.004266443939281514,-0.42106286588685854,-0.002872438993738131,-1.5750287356138504,0.0032731314870614483,1.1330423118936217,3.5772922847345277e-05
-0.004266324166061596,-0.42106190704660074,-0.0028722592248251757,-1.5750370646522902,0.003285978681152453,1.1330624453573743,3.565304054434892e-05
-0.004267702321672202,-0.4210544768527258,-0.002873397724912867,-1.5750497679221678,0.0033028523498278093,1.133078144703079,3.565304054434892e-05
-0.004269440015108718,-0.4210374592380204,-0.0028757944983081683,-1.5750694220748744,0.0033284507449009596,1.1330876122416065,3.553326732443081e-05
-0.004269320241888801,-0.42102170000570566,-0.002875614729395213,-1.5750847018870602,0.003355774747005557,1.1330919864730442,3.565304054434892e-05
-0.004270638510889447,-0.42098095365807164,-0.0028743564560876032,-1.5751017195017656,0.0034198183821770125,1.1330919864730442,3.553326732443081e-05
-0.004272735742151875,-0.42095800388740484,-0.002876154036134079,-1.5751143628850333,0.003464399676326554,1.1330916869309113,3.5233616108479026e-05
-0.004275252397850173,-0.42093475446552214,-0.002877771956350678,-1.5751305415417838,0.003510802570616402,1.1330913872796955,3.553326732443081e-05
-0.004278368246897295,-0.42091030665694174,-0.0028784310363094623,-1.5751473793875763,0.0035565343858088585,1.1330910277418695,3.5233616108479026e-05
-0.004282442936202233,-0.42088501989040655,-0.0028789104564383695,-1.5751625994222351,0.00360533414076047,1.1330904285485206,3.505384719552361e-05
-0.0042879556677277355,-0.42086093161965205,-0.002880408494351972,-1.5751768007300264,0.003657202010004163,1.1330899491283917,3.529350271843808e-05
-0.004301437899867078,-0.42081197611588134,-0.002885082267922656,-1.5752034056564792,0.003768511430247652,1.133088930510607,3.505384719552361e-05
-0.00430940740048092,-0.42078423258025777,-0.0028870597259651656,-1.5752170676575314,0.0038296789373447465,1.1330882714306483,3.48740782825682e-05
-0.004318755165788444,-0.4207545116956748,-0.002888437881575772,-1.5752327670032362,0.0038961194331779657,1.1330874923593035,3.48740782825682e-05
-0.0043292413221005825,-0.4207223340420035,-0.002889995806099333,-1.5752495449624186,0.003965532050194406,1.1330868332793447,3.469430936961278e-05
-0.004340746205280494,-0.420687220308198,-0.0028914339574029765,-1.575266442694821,0.004037820969818133,1.133085994430473,3.469430936961278e-05
-0.004353329592855061,-0.4206485711918264,-0.002892991881926538,-1.5752832805406136,0.004115670508438715,1.133085155472518,3.469430936961278e-05
-0.004382271515176257,-0.4205627041560376,-0.00289850461345204,-1.575318813698855,0.004283641344716499,1.1330837174302975,3.445465384669831e-05
-0.004397791091968068,-0.4205138085388768,-0.0029020998826280705,-1.5753382281960386,0.004376255496144326,1.1330827585900398,3.403522941082842e-05
-0.004414269399934617,-0.420461197770237,-0.002906054689630011,-1.5753581818908784,0.00446839020562663,1.133081799858865,3.409511602078748e-05
-0.004431946094598815,-0.42040684941724377,-0.002910309147847904,-1.57537867500154,0.004566085534105788,1.1330812606612093,3.403522941082842e-05
-0.004450701402740747,-0.4203482464969496,-0.002914982921418588,-1.5753998870787702,0.004665506644149319,1.1330805415855574,3.3795464804835704e-05
-0.0044705353243604095,-0.42028844518995767,-0.0029204956529440907,-1.575422716967134,0.004769625656940443,1.1330797626232956,3.3915347107832064e-05
-0.004511581323210343,-0.42016734464714345,-0.0029325398428628685,-1.5754705340799,0.004982465417628497,1.133078204589689,3.361580497495853e-05
-0.004532493749224661,-0.4201047270332373,-0.002939011305563107,-1.5754944425817416,0.005093583200720118,1.1330771260852943,3.3376040368965813e-05
-0.004553526057541975,-0.42004121068384953,-0.002946081961612171,-1.575518950276932,0.0052092070748745375,1.1330767065517753,3.349592267196217e-05
-0.004575277441511111,-0.41997901249437924,-0.002954111457919049,-1.5755438176190313,0.0053278028956792525,1.1330759275895135,3.307649823609229e-05
-0.004597508245609154,-0.4199141778759908,-0.0029633393409235777,-1.5755683253142216,0.005447645230635742,1.133074908971729,3.307649823609229e-05
-0.0046197389406241185,-0.4198492832619093,-0.002973885383845675,-1.5755930127783249,0.005569213172623679,1.13307424989177,3.307649823609229e-05
-0.004663481364085305,-0.4197112249909996,-0.002998812612554971,-1.5756429870089634,0.005824812627320969,1.1330728117404665,3.253719149722604e-05
-0.00468571205910027,-0.4196383009896943,-0.003012414726997311,-1.5756685134310215,0.005957501981835539,1.1330721525514247,3.229753597431157e-05
-0.0047083024010242235,-0.4195619614881259,-0.003026795803701431,-1.5756945791598185,0.006095176869358431,1.133071014051337,3.229753597431157e-05
-0.004731431940603965,-0.4194814275240327,-0.003041955842667332,-1.5757204650106194,0.006237645303671924,1.1330698755512492,3.217765367131521e-05
-0.004754921018009618,-0.4194001145976777,-0.0030584940372438392,-1.5757456918905448,0.006383756938266031,1.1330686771645515,3.187800245536343e-05
-0.004778649750938185,-0.4193159852553254,-0.0030762906142110342,-1.5757698400479092,0.006529964391436073,1.133067299008941,3.163834693244896e-05
-0.004825807674662445,-0.4191405362504348,-0.0031160782306702793,-1.5758181364717212,0.006831008205598016,1.1330642430465039,3.1039153583623655e-05
-0.0048500158277199204,-0.4190491564831204,-0.0031391478836400623,-1.5758430037047373,0.006982680633721901,1.1330624453573743,3.085938467066824e-05
-0.004874703291823224,-0.41895424144232307,-0.003164015116656321,-1.5758681107023595,0.00713818789927827,1.1330611270883735,3.085938467066824e-05
-0.004899510638229523,-0.4188593862881357,-0.003191159458931041,-1.575892318855417,0.007296763104593793,1.133060048583979,3.061972914775377e-05
-0.00492437798032886,-0.41876345262955367,-0.0032195620745133708,-1.575914909088258,0.007458981510189929,1.1330588500881982,3.037996454176105e-05
-0.004949844406693944,-0.4186649423195803,-0.003248743652357481,-1.57593684024114,0.007627719418673966,1.1330571123947617,3.008042240888752e-05
-0.00500401309985731,-0.4184652251659392,-0.0033108818461346874,-1.5759819009336018,0.007980439115861881,1.1330525583944109,2.93014601471068e-05
-0.0050316367531778585,-0.4183611421287473,-0.0033428197352000097,-1.5760036523175711,0.008157230497113395,1.133048843242932,2.93014601471068e-05
-0.005059500062021322,-0.4182568195451155,-0.0033750573845643624,-1.5760251040503241,0.008332871182789069,1.1330460869317107,2.8882035711236915e-05
-0.005087303484254827,-0.418151358352313,-0.0034072949248456367,-1.5760469153209034,0.008511292352496095,1.133044529007187,2.8882035711236915e-05
-0.005115825982140152,-0.41804403958377095,-0.003440011885255818,-1.5760685468225695,0.008691822752604156,1.1330433905070993,2.9001808931155024e-05
-0.00517634625570076,-0.41782940215576997,-0.0035039476590795005,-1.5761100122458553,0.009068894505246373,1.133041413049057,2.8582384495285137e-05
-0.005207625064807298,-0.4177225028116638,-0.0035341479637913844,-1.5761315838609113,0.009266490385714584,1.1330406340867951,2.8762153408240555e-05
-0.005239443180652703,-0.41761434519425006,-0.0035639886215942792,-1.5761544737449682,0.009470509775961835,1.1330397352422303,2.8702266798281497e-05
-0.00527269944780175,-0.41750181334539843,-0.0035950277751779025,-1.576177603284548,0.009679418706108549,1.1330393158177945,2.882204001819961e-05
-0.005308232606043103,-0.4173859857695037,-0.003627804622198043,-1.5762009725887338,0.009891779199384006,1.1330388365067487,2.8582384495285137e-05
-0.005345204024671177,-0.41726386649982167,-0.0036614204271730017,-1.5762238024770976,0.0101062489230605,1.1330382372043168,2.8582384495285137e-05
-0.005422502257414284,-0.4170097409974943,-0.0037321273149128744,-1.576266286518168,0.01054793957139563,1.133037458242055,2.8702266798281497e-05
-0.005463668029484135,-0.41687539787806366,-0.0037692185067608667,-1.5762852815909159,0.010776790284509778,1.133036859048706,2.8702266798281497e-05
-0.005504893797247024,-0.4167376392583699,-0.0038054707406540407,-1.576303317823406,0.011011009979468914,1.1330367391664031,2.8582384495285137e-05
-0.005547138182794608,-0.41660059960524487,-0.0038413635458043826,-1.5763194964801566,0.011251749002783024,1.1330364396242703,2.8582384495285137e-05
-0.005591659568517575,-0.4164643989100747,-0.0038785146242623337,-1.576333757783641,0.011494501612455158,1.1330362598553574,2.8462502192288777e-05
-0.005636840143282404,-0.41632664018129784,-0.003917043858330891,-1.5763467007090413,0.011735624084605932,1.1330361399730544,2.8462502192288777e-05
-0.005733013457387361,-0.41605501775321924,-0.003996679086942419,-1.5763716279377507,0.01221700648719114,1.1330358404309215,2.8462502192288777e-05
-0.005783347225851782,-0.41592205278939914,-0.004037485321186359,-1.5763827132874115,0.012462539231828778,1.1330356606620084,2.8462502192288777e-05
-0.005835179032229805,-0.41578926759449203,-0.004076913508902772,-1.5763926602460678,0.012708743230096731,1.1330355407797055,2.8462502192288777e-05
-0.005890845763306773,-0.41565971813093505,-0.004115742394187281,-1.5764028468602471,0.012962521084653716,1.1330355407797055,2.8342728972370668e-05
-0.00594615295655783,-0.415530348436291,-0.004154631166081749,-1.5764139322099082,0.013217641271938408,1.1330353610107926,2.8462502192288777e-05
-0.0060028383054194934,-0.4153999001281692,-0.0041932203958433435,-1.5764251974375652,0.013479664410947664,1.1330352412375726,2.816296005941525e-05
-0.006119924263704924,-0.41511994866165086,-0.004269020590672848,-1.5764495852504525,0.014008696047441569,1.1330345820485308,2.8462502192288777e-05
-0.006180144995132658,-0.41496697000729815,-0.004308868093742053,-1.5764614496714584,0.014277622138175388,1.133033862972879,2.8282733279333363e-05
-0.00623886768864679,-0.41480937746598473,-0.004350633168243808,-1.5764707973276828,0.01454453464255118,1.1330332637795302,2.8282733279333363e-05
-0.006300826113511041,-0.41464351577284153,-0.004394016053879083,-1.57647696924825,0.014815569963686033,1.1330328443550943,2.8282733279333363e-05
-0.006362964307288247,-0.41447399892391235,-0.004440275133038567,-1.576481463361991,0.015087468001070147,1.1330323649349654,2.8282733279333363e-05
-0.006426960076804967,-0.4143057403482907,-0.004488691439153515,-1.5764856578245159,0.015359174401302392,1.1330321252794424,2.8342728972370668e-05
-0.006555311153664317,-0.4139686841084748,-0.004588699787040495,-1.5764942265184785,0.01590536733673238,1.1330314661994836,2.8282733279333363e-05
-0.006620565196488646,-0.4138006053017662,-0.0046396327488537415,-1.5764975221364386,0.016183113797907003,1.1330304474726158,2.792319545342253e-05
-0.006685819348396053,-0.41363779957106017,-0.004688947790450389,-1.576499679363394,0.016461914787015683,1.1330290693170053,2.816296005941525e-05
-0.006751732580262245,-0.41347840944970027,-0.004740659714525416,-1.5764992599389582,0.016743592078731644,1.1330276311657017,2.804307775641889e-05
-0.006815129047347062,-0.413319977950432,-0.004794289210032993,-1.5764987206322192,0.01703082998944446,1.133026432779004,2.804307775641889e-05
-0.00687990388820864,-0.41316328425368337,-0.0048501357100229165,-1.576499739250004,0.01731749263963582,1.1330252343923064,2.804307775641889e-05
-0.007007296124810176,-0.4128336580986594,-0.004969258903877738,-1.5765010575190046,0.017900309389556737,1.133019062471739,2.804307775641889e-05
-0.007069074780761471,-0.4126598269049023,-0.005030078828654297,-1.5765001586744398,0.018190519421452774,1.133011512395561,2.804307775641889e-05
-0.007131093201318759,-0.41248162147970746,-0.005091917371215552,-1.5764969829387827,0.018487152963127855,1.1329994683147253,2.8282733279333363e-05
-0.007193650819531836,-0.4123001204365525,-0.0051560929096452265,-1.5764927883671749,0.018785128662997714,1.1329840685111534,2.804307775641889e-05
-0.007255968782221997,-0.41211861939339756,-0.005220927528033686,-1.5764876951691682,0.019082529276879045,1.132967050896448,2.792319545342253e-05
-0.0073182268583022,-0.41193759766128846,-0.0052869606422028745,-1.576481043828472,0.01938932534718971,1.132948715121825,2.816296005941525e-05
-0.00744298266598552,-0.4115709403101095,-0.005423640757501976,-1.5764698385965081,0.020011450577056968,1.1329173164304154,2.804307775641889e-05
-0.007505540284198596,-0.41139297454043755,-0.0054963849898943175,-1.5764654643650702,0.02033320289732675,1.132907729009585,2.816296005941525e-05
-0.007571513402674747,-0.41121470922863274,-0.005570926911416213,-1.5764601912890677,0.020656968803954553,1.1328994599668383,2.7803422233504418e-05
-0.007638924672454542,-0.4110341069209595,-0.00564984295529284,-1.5764566560155846,0.020978337675387673,1.1328939471262298,2.816296005941525e-05
-0.007709392013754578,-0.4108518268064597,-0.005733253221993353,-1.5764566560155846,0.02129433773950873,1.1328901122015307,2.804307775641889e-05
-0.007781417170495097,-0.41066235626269093,-0.005815464992913138,-1.5764566560155846,0.02161158414324864,1.1328863971591348,2.804307775641889e-05
-0.007932837791241152,-0.410269633182715,-0.005979169459100885,-1.5764463495191023,0.02225202119309489,1.1328734541246512,2.804307775641889e-05
-0.00801283255767859,-0.4100703954492028,-0.0060588645743223715,-1.5764363426738361,0.02257674580908082,1.1328624286616003,2.816296005941525e-05
-0.008094684790772464,-0.40987367437138894,-0.006136043033845561,-1.576425377206478,0.022905113450814436,1.1328503245850716,2.792319545342253e-05
-0.008179413217390546,-0.40967857121379164,-0.00621166345976211,-1.5764133330165593,0.023237699727883046,1.1328357038528445,2.804307775641889e-05
-0.008263362790829926,-0.4094831684049784,-0.006288482381459389,-1.5764012888266405,0.023567793151181033,1.1328197648516167,2.804307775641889e-05
-0.008348930175402825,-0.40928764582294525,-0.006367757963161928,-1.5763902633635896,0.02390488551931244,1.1328058630859585,2.7803422233504418e-05
-0.008523899760164492,-0.40890630774384623,-0.00654356661496149,-1.5763697703620112,0.024580891681182642,1.1327849506599441,2.792319545342253e-05
-0.008613661607262247,-0.408711024817336,-0.006636024886670499,-1.576358505134354,0.024921914705322467,1.1327744645036322,2.804307775641889e-05
-0.008705940219141377,-0.408511128003865,-0.006726326040507121,-1.5763472999023902,0.025270032492871648,1.1327631393893651,2.792319545342253e-05
-0.00879666079741387,-0.4083076956987449,-0.0068167469675636605,-1.576336334325949,0.025621410031864782,1.1327506757750105,2.7803422233504418e-05
-0.008887980569035187,-0.4081024659226614,-0.006909984201534449,-1.576322013244938,0.025974896626726023,1.1327356356183476,2.804307775641889e-05
-0.00898025907183124,-0.4078937606506218,-0.007006037851502566,-1.5763045162101037,0.02632905447521758,1.1327167604279027,2.792319545342253e-05
-0.009156487148066671,-0.40747874687993785,-0.007204916047188833,-1.5762701215519501,0.02705242224073575,1.132678171198141,2.7623653320549003e-05
-0.009245589806122565,-0.40727040114572416,-0.0073076208196870655,-1.5762520852103767,0.027418756029687998,1.1326598953101281,2.7084346581682756e-05
-0.009333973497609714,-0.4070603776046839,-0.007411344319053071,-1.5762309331288396,0.027790650612170027,1.1326436566576843,2.6425266622898397e-05
-0.009422237306793866,-0.40685095325699244,-0.007515067709335998,-1.5762072642825211,0.02816292846895579,1.1326280771942827,2.5586308668080372e-05
-0.00951092054041389,-0.4066424876404757,-0.007622086935745161,-1.5761827564782476,0.02853712391899072,1.1326130369285365,2.4387921970429766e-05
-0.00960002330755286,-0.40643018709926004,-0.007733120746683145,-1.5761581289007542,0.028912949332014087,1.1325996745787004,2.330930849269727e-05
-0.009785359275406748,-0.4059908455113818,-0.007954709057513283,-1.5761043197454168,0.02967514596100015,1.1325797807704707,2.0433114968488864e-05
-0.009883330387724336,-0.40576895754933573,-0.008061907943752323,-1.5760720223185256,0.030062092612017227,1.1325693543916855,1.947438379375273e-05
-0.009984057811263138,-0.40554712958298267,-0.008166590174293066,-1.5760352906645034,0.03045258664473898,1.1325580892731115,1.779657696719493e-05
-0.010090477735240397,-0.4053254812764595,-0.008268096560093648,-1.5759946640900895,0.030846627884632487,1.1325454458898438,1.6058883530678074e-05
-0.010198275814828262,-0.4051043123900652,-0.008369842601417142,-1.575951940393496,0.031248147336772017,1.1325317838887916,1.4381076704120277e-05
-0.0103094893946792,-0.4048811062681016,-0.008475423567439584,-1.5759063403942952,0.0316524472729429,1.132519080618914,1.2044189918778119e-05
-0.010533055163551849,-0.40444014665092365,-0.008696173029397984,-1.575804174819453,0.032483289621272074,1.132493494310246,6.411576090279419e-06
-0.010642710818879226,-0.4042159218020922,-0.008807266836029004,-1.5757488676262017,0.03290714754250788,1.1324804913891524,3.175844740160182e-06
-0.010751227974118914,-0.403987382717516,-0.008921776033840022,-1.57568894654599,0.03333647043869752,1.1324667095057972,-2.9965121595177643e-07
-0.010861063398359247,-0.4037534505655511,-0.009036644878560028,-1.5756263889277768,0.03376761493502748,1.1324519090046572,-4.074689304937262e-06
-0.010973175822774963,-0.40351957840927927,-0.009153790614372341,-1.5755585581244782,0.03420221081995325,1.132437048616907,-8.988118398536048e-06
-0.011083310789148171,-0.40328492729074567,-0.009270037614702954,-1.575488809967913,0.03464428491712505,1.1324210496199865,-1.4381076704120277e-05
-0.01130088440636641,-0.40280873416654234,-0.009495820497141027,-1.5753397861205622,0.035546073852350236,1.1323864151972267,-2.5466426365084013e-05
-0.01140646537238885,-0.402573004434531,-0.009607992808166701,-1.575259611694295,0.03600904844184759,1.1323707159606051,-3.09792669736646e-05
-0.01151120759862263,-0.40234188869856347,-0.009724299695107274,-1.5751763213098975,0.0364771043829292,1.132356274888208,-3.697130954499588e-05
-0.01161361271990491,-0.4021120312359035,-0.009843482775572053,-1.5750877578494973,0.036948515894030684,1.1323434518451105,-4.4221843590093324e-05
-0.011715238988008489,-0.4018805559621101,-0.00996488296960226,-1.5749944607289166,0.037425679835813824,1.1323325461552793,-5.303019307567396e-05
-0.011817344567157896,-0.4016449461124017,-0.01008436570128299,-1.5749021821170375,0.03791156815492891,1.132322958734449,-6.327669386489792e-05
-0.012024971225719784,-0.401166176227724,-0.010311047319202762,-1.574707498383876,0.03891383290266461,1.132311693615875,-8.466854000812292e-05
-0.012133428494349511,-0.40092517352879314,-0.010423699050357345,-1.574601198342202,0.03942944225907898,1.1323083380022219,-9.503492310034323e-05
-0.012243263918589844,-0.40068195371629683,-0.010539167088426176,-1.5744845319174354,0.03995070805306614,1.1323053419263946,-0.00010606038615134791
-0.012355675994221512,-0.40044077113936993,-0.010652777550755495,-1.5743630718367951,0.040481465296591496,1.132304143539697,-0.00011888353833190676
-0.012466290380723628,-0.4002070188654011,-0.010764470441652263,-1.5742422109495038,0.04102027618741725,1.1323037241152611,-0.00013488242616954753
-0.012576305573876916,-0.3999744049824369,-0.0108758039038062,-1.574119132948647,0.04157087939533411,1.1323031848085223,-0.00015387749891747132
-0.012791362426313778,-0.39950096827853787,-0.011102485521725972,-1.5738627304461443,0.04270602513473625,1.1323030649262193,-0.00020415127168885497
-0.012897842236900997,-0.39925840754600034,-0.011218253211010755,-1.5737281475621077,0.043285965756582806,1.1323031249219124,-0.00023489077405652685
-0.013002824118657691,-0.39901500785550803,-0.011335518829126064,-1.573586074597586,0.043873192778990586,1.1323031249219124,-0.00026700854111788303
-0.0131104424293326,-0.39876879196718457,-0.011452724560631412,-1.5734386686704518,0.04446262485037533,1.1323031848085223,-0.0003024818127492765
-0.013220996929224755,-0.398522755847774,-0.011570110061049717,-1.5732854503605762,0.04506135673414641,1.1323033046908253,-0.0003423893115115181
-0.01332879500881262,-0.3982801352286266,-0.011688454183559679,-1.5731293557480934,0.045675811940082856,1.1323031848085223,-0.00038733012167035486
-0.01343437608391814,-0.39804482503013416,-0.011805719910758065,-1.5729669695509063,0.046296019576700945,1.1323035443463483,-0.000436825041263036
-0.01363792805317509,-0.3975781592219852,-0.012043007567292971,-1.572634766853574,0.04755033639742926,1.1323038438884812,-0.0005479787345040164
-0.01373985397249462,-0.39734141087218916,-0.01216147157210593,-1.5724617745086886,0.048183391228138354,1.132304083653087,-0.0006096973947622746
-0.013841300362602164,-0.39710184621547884,-0.012281074186089659,-1.5722818912766672,0.048826992036319704,1.132304263422,-0.0006747717777567268
-0.013943465937444608,-0.39686336017224627,-0.012402773922252737,-1.5720916417706368,0.04947682454259529,1.132304802728739,-0.0007478156613650197
-0.014048327827815227,-0.3966249340156237,-0.012526630885371278,-1.5718937821927352,0.05013672393346346,1.1323049225019588,-0.0008315853568083654
-0.01415223109609419,-0.39638758647247885,-0.012649229575182212,-1.5716937056103513,0.050803238645795466,1.1323051022708719,-0.0009279385489093557
-0.014367587599747003,-0.39593056797177023,-0.01289574500563857,-1.57128714076041,0.05216790617740915,1.1323056415776107,-0.0011584550915280717
-0.014476703948335517,-0.3957111967745055,-0.013020141275495977,-1.5710700464542375,0.05286481283160491,1.1323060011154367,-0.0012881843239980278
-0.014588097406182488,-0.3954889493837166,-0.013145316507615168,-1.5708476192945358,0.053564020527886495,1.1323063006575695,-0.0014242052502552668
-0.014697393523683955,-0.39526274707684267,-0.013271390584299134,-1.5706191399874865,0.054266104352242446,1.1323064205398725,-0.0015653194836021383
-0.01480561102770769,-0.3950336686855276,-0.013398842816593709,-1.5703868258648213,0.05497403642585597,1.1323067201910884,-0.0016916932115020572
-0.014912210720597905,-0.39479931710912686,-0.013525036666497592,-1.5701459429391103,0.05569529513550603,1.1323067201910884,-0.0018030266736559929
-0.015118099685723276,-0.39433750495254455,-0.013784015820391677,-1.5696272656647534,0.05716456112185636,1.1323070797289143,-0.0020093949498271937
-0.015222961685176974,-0.39411094321692774,-0.013916920897601793,-1.5693628936616368,0.057908445930863424,1.1323074991533502,-0.0021230054121565123
-0.0153283029956765,-0.39389109259953414,-0.014048088172292313,-1.569095705351606,0.05865913769848619,1.132307918577786,-0.0022460235264033157
-0.015432625688391332,-0.3936757959824913,-0.014177997173675225,-1.5688214463855261,0.05941644478757279,1.1323085776577448,-0.0023757527588732716
-0.01553347299423313,-0.39346523324379523,-0.014308625250709958,-1.5685414349233147,0.06018132608201427,1.1323099559224385,-0.0025033248734708407
-0.015632702379858327,-0.39325131478236297,-0.01444530536600906,-1.5682571092253585,0.060954356493266235,1.132311453960352,-0.0026355707616390945
-0.015826846806280874,-0.3928149691612289,-0.014721302025525478,-1.5676673655254358,0.06251000475841723,1.132315528540574,-0.002921574266421823
-0.01592218127151409,-0.3925956578505741,-0.01485804202743454,-1.56735176090929,0.06330038828029007,1.1323163674985288,-0.0030770096898628556
-0.016018174925789167,-0.3923807806579671,-0.01499598041604125,-1.5670291456327883,0.06410055105649476,1.13231912380975,-0.003252219039230515
-0.016110932848714128,-0.39216931907470626,-0.015134637989382861,-1.5667057512849416,0.06490368595388268,1.132323078616752,-0.003441809465302294
-0.016202612158161357,-0.39196061380266667,-0.015270898571163016,-1.56637816247457,0.06571334017962557,1.132326733772538,-0.0036451817747293683
-0.016295549849999272,-0.3917600578001538,-0.015405301686286734,-1.5660421847391488,0.06653143115243967,1.1323324262729764,-0.0038374087388024416
-0.01648472085163518,-0.3913702109137021,-0.01568459407284631,-1.5653483581111172,0.06818439147176608,1.132337819231282,-0.004165237204696884
-0.016582272430433823,-0.39117492798719183,-0.015828704382020387,-1.5649919472607274,0.06901801412959369,1.1323391973868926,-0.00432780317079694
-0.016677007702318215,-0.39097658909824445,-0.015971196770977865,-1.5646334990656854,0.06985892318798251,1.1323405755425031,-0.004500675633379256
-0.016770604474114915,-0.3907741755199921,-0.016109434810800526,-1.5642739123705554,0.07070366725833675,1.1323433319628076,-0.004677802554179466
-0.016863721934865784,-0.3905700242483033,-0.016246354581622543,-1.5639107304062494,0.07155425957794857,1.132344949883024,-0.004858464748462668
-0.01695360355518346,-0.3903689888256615,-0.01638567123492294,-1.5635418560505883,0.07241117958876349,1.1323468073496805,-0.005037988333575101
-0.017129711749115893,-0.3899845348975154,-0.016672214046444533,-1.5627755247366042,0.07415234361249794,1.1323501030767236,-0.005417169294801737
-0.01721545890260175,-0.38979566354709544,-0.016819320322362736,-1.5623853783080195,0.07503639598826559,1.1323511216945084,-0.005627612260277875
-0.01730174536282647,-0.3896117656214621,-0.01696828428310353,-1.5619981080729592,0.07592274923158615,1.1323550765015102,-0.005839852914883568
-0.017388391251794026,-0.38943206215835363,-0.017118686286064888,-1.561610538295766,0.07681658068715272,1.132363705191166,-0.006041966841919954
-0.017472041174017454,-0.3892557741955083,-0.01726944782685216,-1.561218114757923,0.07771626039197688,1.1323804231546555,-0.006219932611591903
-0.017556769600635534,-0.3890786473837911,-0.017418891098638783,-1.5608164635552413,0.0786230348602104,1.1324024740807574,-0.0063907677295217515
-0.01772406944508239,-0.3887190008020513,-0.017722990831604658,-1.5600058505110572,0.08044281532023875,1.13246359365675,-0.006765873892360373
-0.017805142715914483,-0.38853785918763917,-0.017879744524046337,-1.5595985066988542,0.08136540892921357,1.1325004451930751,-0.0069570223520387916
-0.01788453817992002,-0.388357017224443,-0.018034640640748504,-1.5591860096929517,0.08229826105993283,1.1325372367337072,-0.007148949664895913
-0.01796405352622855,-0.38817947098829003,-0.018187019992669296,-1.5587624272283052,0.08323437276756311,1.1325760057323817,-0.007336083321879354
-0.018040033489971012,-0.3880060592189688,-0.018342814953936238,-1.5583320737588255,0.08417997609926453,1.1326171715044515,-0.007535920357823436
-0.01811757148732011,-0.3878376209835174,-0.018502984146640995,-1.5579013007558267,0.08512922263124655,1.1326589365789532,-0.007739172784947513
-0.018266954763413695,-0.3875005646346184,-0.01882589907435876,-1.5570328039760835,0.08702138782947456,1.1327678731586288,-0.008133813327272924
-0.018338980029237294,-0.3873385378661741,-0.018991640885198974,-1.556593522274815,0.08797935891332145,1.1328401379708923,-0.008308363487598721
-0.01841190403054259,-0.387179806824773,-0.019158461309516924,-1.5561475293462406,0.08894423277435999,1.1329287613179024,-0.008460503293079676
-0.018486266074068454,-0.38702371232137317,-0.019326420233922562,-1.5556995589596234,0.08991073659838696,1.133033743199659,-0.00861503987195593
-0.01856080799559035,-0.3868648015110591,-0.019496296620677676,-1.55524973110635,0.09088155470179192,1.1331616747429993,-0.008777366182533072
-0.018635409803722202,-0.3867064300074839,-0.019666592431868656,-1.5548037980643854,0.09185879631497594,1.1333044667831729,-0.008939932148633128
-0.01878701030246429,-0.386383874508509,-0.02000952105011904,-1.5538902405921802,0.09382325043282767,1.133647934708162,-0.009260210538349599
-0.01886095292155428,-0.3862234656602813,-0.020181674437049536,-1.5534224963887195,0.09481688644727444,1.1338508874840703,-0.009416784461878323
-0.018935315074163222,-0.3860644350767473,-0.02035706355533015,-1.5529484003866956,0.09581991809268348,1.1340761909463795,-0.009566647267183896
-0.01900913781095022,-0.3859095988466551,-0.020534849556089144,-1.5524681925688804,0.09683129084112072,1.134314676989612,-0.009717169043365172
-0.019082780887907335,-0.38575380388538816,-0.020716949792592913,-1.551980494452414,0.09783978728695067,1.1345586758734532,-0.00987080688675973
-0.019151929851123645,-0.3855980090332043,-0.020901866445094005,-1.5514915980583333,0.09886065165945902,1.1348076481820808,-0.010014977082543765
-0.019281838852506557,-0.385284321879408,-0.02127529491018915,-1.5505018208577794,0.10091887027524858,1.1352886349621578,-0.010286959048448284
-0.019343857273063845,-0.38513308102757493,-0.02146158960921777,-1.5499959068489932,0.10196025151671291,1.1355531268475774,-0.010403325931081894
-0.019404018117881623,-0.38498459648696304,-0.021648064186242426,-1.54948519907525,0.10300239965585056,1.1358421863147974,-0.010503214396665876
-0.01946447850483227,-0.3848371305641358,-0.021837774494617202,-1.5489764687595495,0.10405288889801642,1.1361630640069458,-0.0105950135884161
-0.019524519467347047,-0.3846876272966562,-0.022025267689426555,-1.5484655812168935,0.10511114398268903,1.1364960456665398,-0.010682138897512562
-0.01958402112312296,-0.3845393225249572,-0.022211742157368132,-1.547949180942712,0.10617956159599722,1.136820338749868,-0.010774357513698655
-0.019704702241501344,-0.3842457090573866,-0.022605963275257674,-1.5468770721980187,0.10832991492126909,1.137450589141902,-0.010972756289256015
-0.01976516273753507,-0.38410243759708423,-0.02280807720229406,-1.5463264570345965,0.10941424766842744,1.1377802751835357,-0.011064016174267373
-0.01982358577983325,-0.38396282140165094,-0.023018520276853277,-1.5457717072952593,0.11050097710171464,1.1381475917237567,-0.011145089445099466
-0.019881169973259692,-0.38382476313074126,-0.023230461280243017,-1.5452109654042678,0.11158761089095882,1.1385321055385127,-0.01122005079105723
-0.019936597048813745,-0.3836891616289199,-0.02344551813267988,-1.5446492047864084,0.11268210616675275,1.1389329778880155,-0.011288600560924717
-0.019988488741801726,-0.38355236174040086,-0.023663750938939982,-1.544095533660549,0.11378542181298751,1.1393331910484763,-0.011354214250658036
-0.020087718127426924,-0.3832776233541921,-0.02410614859833848,-1.5429804614546563,0.11600844750671976,1.1401885051382132,-0.01145482179189384
-0.020136194320151832,-0.383144478621459,-0.02433259045165226,-1.5424092932939626,0.11712250111664448,1.1406532534840128,-0.011486160487610336
-0.02018550936174848,-0.38301349100659837,-0.024566702372530082,-1.5418353687129644,0.11823118574472422,1.1411286676459544,-0.011507372564840607
-0.020231708554298004,-0.3828869376188686,-0.024806027264634378,-1.5412573096651347,0.11934456810101861,1.1416000072276742,-0.011518877448020519
-0.020277188671195708,-0.38276056400005176,-0.025050805110737297,-1.5406773330458723,0.12046130620186582,1.1420829115791837,-0.011523311566068289
-0.020323268090525315,-0.38263353119219307,-0.025303132923935108,-1.540105086380784,0.12157794830960417,1.1426019482822833,-0.01152361121728424
-0.020409794097189873,-0.3823723949204266,-0.025823547891728537,-1.538960473059221,0.12381295830664524,1.1436606946771404,-0.011523131906238411
-0.02045305720960523,-0.38223972960782243,-0.026085882550192657,-1.5383713884392571,0.1249282582561888,1.144218021067869,-0.0115227723684125
-0.0204950619396299,-0.3821065248793964,-0.02635121328448398,-1.537779966932508,0.12604969408525069,1.1447823582280365,-0.011522652486109505
-0.020536227711699752,-0.3819714027977039,-0.026620139287951337,-1.5371873470390611,0.1271770739821461,1.1453620950826928,-0.011521693754934767
-0.02057745347946264,-0.38183334452679424,-0.02689781386337739,-1.5365923901497458,0.12830665910255137,1.1459378172437373,-0.011521513986021812
-0.020618379596009574,-0.3816976830292798,-0.027179083598896397,-1.5359974333695134,0.1294376823742603,1.146520849825437,-0.01152079491036999
-0.020700351711406446,-0.38142929633255135,-0.02775528507098671,-1.5347983517035713,0.13171027489515041,1.1477317359166919,-0.011519057216933474
-0.020741697252389252,-0.38129669090655716,-0.028045243491854457,-1.5341990205828182,0.13285059780471276,1.148367558926861,-0.011518338141281653
-0.020782683255546146,-0.38116702156069715,-0.02833837753929621,-1.5335993300333222,0.13399149614932945,1.149019560702864,-0.011517499292409913
-0.02082408879222199,-0.38104010863514143,-0.028636904654126622,-1.5329952052566955,0.13513344884734732,1.1496833669041795,-0.011515761598973396
-0.02086747167785727,-0.3809201465924149,-0.0289419031225742,-1.5323804144457605,0.13628211285993785,1.1503695236828133,-0.011514143678756797
-0.020912352601406146,-0.38080455867204305,-0.029253013624979177,-1.5317613693947738,0.13743940560581733,1.151055261037011,-0.011511866678581414
-0.02100247398632981,-0.38058458828142955,-0.029886200097147105,-1.5305156691118462,0.1397595515420402,1.1524630479749929,-0.011507911871579473
-0.02104933225883812,-0.38047451320166625,-0.030204561133597183,-1.52988338137516,0.14092480159304538,1.153161248834462,-0.011507192795927651
-0.02109619064042951,-0.3803658761641236,-0.030528554565709604,-1.529246599633816,0.14208707969740025,1.1538864742629862,-0.011506893253794778
-0.021145026370980327,-0.38025328431957894,-0.030860337838605985,-1.528610057547995,0.14325079595305876,1.1546269795036963,-0.011506294060445952
-0.0211940418704441,-0.3801370973149414,-0.031197394187504956,-1.5279671637726937,0.14441547074354247,1.1553620318994906,-0.011506294060445952
-0.021242158525343096,-0.380020251121262,-0.0315443973859772,-1.5273134243032542,0.1455814878667539,1.1561161392546428,-0.011505934522620042
-0.02133953033522878,-0.3797860194271642,-0.032255960813449044,-1.525992523018846,0.14792013743464055,1.157637776310477,-0.011505754753707086
-0.021386268834517174,-0.37966605738443765,-0.03261968197541075,-1.5253220655859172,0.1490823197204195,1.158414593780773,-0.01150563487140409
-0.02143282745580953,-0.3795489115395423,-0.03299011436467869,-1.5246540648129936,0.15024680287375133,1.1591867373684155,-0.011505455102491135
-0.02147908664405209,-0.3794329641904276,-0.03336815682581763,-1.5239873824181536,0.15140601303834705,1.1599868641472044,-0.011505335329271216
-0.021525944916560402,-0.3793177958035747,-0.033756146027446775,-1.5233169848718346,0.15256838696127786,1.1607867512704704,-0.01150521544696822
-0.021574960416024174,-0.37920574326576895,-0.03414856945620676,-1.5226414341318162,0.15372769294444952,1.1615858594314745,-0.01150521544696822
-0.021675747726172936,-0.37898577287515545,-0.03495259115538761,-1.5212856587691255,0.15603863488686198,1.1632341097616483,-0.011504556257926356
-0.021729377112597436,-0.3788804314555728,-0.035361972312243056,-1.520606332991018,0.15718816179023473,1.164067852236329,-0.011504376489013401
-0.021784624419238532,-0.378776108762858,-0.03577896332280335,-1.5199329393688719,0.15834085245194254,1.1649078865138802,-0.011504256715793484
-0.021841729301619144,-0.37867628018388394,-0.036201227518449314,-1.519254752090852,0.15949239276714036,1.1657428873709517,-0.011504256715793484
-0.021899373381655544,-0.3785783690672594,-0.03663200052144798,-1.5185633222362158,0.16063933099816655,1.1665863371487657,-0.011504076946880529
-0.021957017461691944,-0.3784859706821604,-0.03706864579379806,-1.5178725514615383,0.16178377654995502,1.167421937199186,-0.011504076946880529
-0.022073144688802636,-0.3782983577141311,-0.03795523869264153,-1.5165032339800983,0.16407151713248902,1.1691223788735636,-0.011503777295664576
-0.022128212117447702,-0.378198648908377,-0.038408062621742206,-1.5158239680886008,0.16521414108413718,1.1699806291525179,-0.01150281856448984
-0.022182440806304105,-0.37809630367370467,-0.03886867628254377,-1.515145361386145,0.16635197131446183,1.1708451711252594,-0.011500361795401502
-0.02223463204142496,-0.3779905428296862,-0.039333963825999095,-1.51446489710795,0.16748932210284093,1.1717226561324843,-0.01149640698839956
-0.02228712292776177,-0.3778842427880119,-0.03980530340771879,-1.5137883276410635,0.16863779447827962,1.1725858798362252,-0.011490235176915274
-0.022338954734139792,-0.3777756657461623,-0.04028563110783702,-1.513109241518479,0.16977974717629746,1.1734505416912697,-0.011483763714215035
-0.022449209582815995,-0.37755515593972677,-0.04128655365374471,-1.5117273405403813,0.17204994301105872,1.1751905912131937,-0.011469981830859741
-0.022502419544804624,-0.3774463991289642,-0.04179971808749303,-1.511028899916306,0.1731775147196389,1.176070413107204,-0.011461053599071163
-0.022556588237967988,-0.37734309516311715,-0.04231881478628582,-1.5103259052918798,0.1742971289485605,1.1769335768152518,-0.011451046753804855
-0.022612015313522044,-0.377243506239666,-0.04285091440617211,-1.5096196150494936,0.17541520920760248,1.1778060883976902,-0.011439481984014984
-0.02266971938925148,-0.37714589466517434,-0.04339751487598244,-1.5089139838870662,0.17652935863610314,1.1786892059096605,-0.011427737445312157
-0.022729460700550305,-0.37705295708241954,-0.043952444493315604,-1.5082025403418975,0.1776439873320164,1.1795749599596324,-0.01141563336878342
-0.022851040663493465,-0.37687559050609637,-0.04508812947400676,-1.5067543665941077,0.17985819282984075,1.1813340044452212,-0.011389208102160521
-0.02291725354657561,-0.37679331884856665,-0.045672420438096994,-1.506012003777658,0.1809541260824054,1.1822173017261044,-0.011375426327888304
-0.022985024354181316,-0.3767153614267817,-0.046261205406844946,-1.5052623905362466,0.18204603286038573,1.1830768103874494,-0.011361524562230014
-0.023052016090442162,-0.37663920169412624,-0.04685592253155428,-1.504517511064099,0.18314014468734302,1.1839397345490572,-0.011346903830002978
-0.023121404818264465,-0.3765616636967772,-0.047459508001442226,-1.5037753879031723,0.18422303928319772,1.1847949887521843,-0.011330964828775297
-0.023191692281568466,-0.3764856837330347,-0.048069684816333405,-1.5030315270488093,0.18530209886708704,1.185650722266357,-0.011314366638505753
-0.02333789982200497,-0.37633689954120686,-0.049320718061873485,-1.5015544713743911,0.18743720831213906,1.187379866207533,-0.011278653711351444
-0.023411243247746138,-0.3762632565733328,-0.049959716916782866,-1.5008232539032957,0.18849479214318135,1.188260586837025,-0.011256962213992267
-0.023484047475831517,-0.37618565868937376,-0.050606325843563255,-1.5001027622440353,0.18954633608781418,1.189149157193911,-0.011232694174324834
-0.02355745078818264,-0.37610548426310647,-0.05125988554408971,-1.499378435660076,0.19059509954841566,1.1900400045509725,-0.011207167752266713
-0.023629296285093283,-0.3760239914587554,-0.051924950018713,-1.498645959915673,0.19163590552935852,1.1909285150212485,-0.011180502830120901
-0.023703778210922143,-0.37594429634353393,-0.05260259809907702,-1.497912884868838,0.19266913747947945,1.1918190028404838,-0.011152939172493388
-0.023856756865274838,-0.37577471960799474,-0.05398743515730891,-1.4964474538508197,0.19473761461701344,1.1935636663584517,-0.011092239020936747
-0.023931598328929604,-0.37568687522324645,-0.05468683451255898,-1.4957149779973336,0.1957643272387794,1.194446903643642,-0.011063716632134499
-0.024007218754846155,-0.37560298564550015,-0.0553890501747233,-1.494983580757325,0.19678960153470876,1.195331639075829,-0.011037231478901642
-0.02408289917645574,-0.37552053421905746,-0.05609809683741377,-1.4942526628283626,0.19781171224683597,1.1962136180877119,-0.011012843556931213
-0.024158819253588242,-0.3754365846456181,-0.056815532534237025,-1.4935167115880033,0.19883401442158213,1.197116269979169,-0.010990672748526206
-0.024234619448417746,-0.3753584475640032,-0.05754159670254983,-1.492773929347118,0.19986005596425066,1.1980313254892878,-0.010970359515860714
-0.02438532110259506,-0.3752164943727015,-0.059032134718190236,-1.491274942519818,0.2019075367908832,1.1998718626701446,-0.0109365639419728
-0.024457406145945538,-0.3751514799854001,-0.059788099649082056,-1.490515681970966,0.20292677102587017,1.2007870380625665,-0.010923201592136453
-0.02452793337385553,-0.3750897013294488,-0.06055544958085079,-1.4897548035018975,0.2039401571861325,1.2017041308082548,-0.010913374515783099
-0.024598640261595407,-0.3750285218668463,-0.061332207055453926,-1.4889914083771307,0.2049505710506787,1.2026195458561995,-0.010907142708605775
-0.024670545645116008,-0.3749713570978558,-0.06211567575736329,-1.4882149504446605,0.20596040982923636,1.2035254933656168,-0.010903727208342701
-0.024739814490635316,-0.374914791522214,-0.06290945095575493,-1.4874253098221837,0.20696756411687153,1.2044192169162025,-0.010902049401516142
-0.02488356526198348,-0.3748102890605862,-0.06453121613269582,-1.4858268539537356,0.20897487392184136,1.2061958183232355,-0.010901270439254361
-0.024959065805597033,-0.37475857713651123,-0.0653595058715441,-1.485029663364164,0.20997483762749125,1.2070851077557732,-0.010901270439254361
-0.025034027151554797,-0.3747054870568256,-0.06619660395987796,-1.484236667128034,0.2109701994235024,1.2079781722264,-0.010901569981387235
-0.025109348035338475,-0.37465113859474924,-0.06704251050678049,-1.4834479853458151,0.21195769955843086,1.2088875951226903,-0.010901569981387235
-0.02518269146107964,-0.3745992469017613,-0.0678933305918597,-1.482670748451083,0.21294356973037087,1.2098017517882445,-0.01090216928381914
-0.02525747303812445,-0.3745480142887321,-0.06874948353046836,-1.4818953690230074,0.21393423379816734,1.2107229192232376,-0.010902349052732095
-0.025407515503259898,-0.37444590870958266,-0.0704809044718197,-1.4803556957346833,0.21590156404409344,1.212579994707754,-0.01090294824608092
-0.02548511338721896,-0.37439629401677005,-0.07135922832791647,-1.479583552147041,0.21688580460211088,1.2135178801062365,-0.01090384698156262
-0.025567205384918825,-0.37434715874408636,-0.0722464804158018,-1.4788046973320923,0.21786410074322896,1.214449054386496,-0.010904446283994522
-0.02564785912223197,-0.3743008996649269,-0.07314152223538802,-1.4780239850504873,0.21884680715683388,1.2153774723555344,-0.010905405015169258
-0.025726775275191675,-0.37425733701037867,-0.07404213678219278,-1.4772466282734522,0.21982980120069953,1.2163028342530524,-0.010906663288476868
-0.02580383385241187,-0.3742144334357892,-0.07493969525747729,-1.4764744247991999,0.22081269942598927,1.2172405998783151,-0.010908341095303425
-0.025947884274975984,-0.37413102327817177,-0.07674326123787216,-1.4749358300152704,0.22279604079887438,1.2191161910154504,-0.010912116133392411
-0.02602098804519424,-0.37409105589279956,-0.0776540622897731,-1.4741648848143256,0.2237897726318971,1.2200581509941548,-0.010914513015870791
-0.02609612905098188,-0.37405264643195096,-0.07857588880472505,-1.4733892058441171,0.22479376316119717,1.2209895050433273,-0.010916849902656133
-0.026168933279067257,-0.37401483616445114,-0.07950149046684907,-1.4726063364446398,0.2257967948066062,1.221927510324113,-0.01092062494074512
-0.0262416775114596,-0.3739779247415161,-0.08043416278502213,-1.4718191525912514,0.22679819666355971,1.2228517937172363,-0.010924220209921148
-0.026312923705938338,-0.37394161251192987,-0.0813731267969825,-1.4710225611950285,0.22780573440003155,1.223763733269225,-0.010929613168226732
-0.026446667632020193,-0.37387671800693145,-0.0832714879358717,-1.4694184727127517,0.22982109750323593,1.2255634043292278,-0.010939619904409965
-0.02651246109066647,-0.3738438811642183,-0.08423963352567618,-1.4686130728579603,0.23083649690079044,1.226458925568943,-0.010941657249062433
-0.026576277091270233,-0.3738121230440659,-0.08522192053666186,-1.4677967074267277,0.2318585116198088,1.227351390846221,-0.010941956900278384
-0.026639314129612214,-0.37378437950844234,-0.0862143941618268,-1.4669736907638822,0.2328792799992083,1.2282554806708157,-0.010942256442411258
-0.02669713797856157,-0.37376095031764667,-0.08721555625417432,-1.4661474383696864,0.23390052764602037,1.2291643643694503,-0.010942675866847128
-0.026749389209375463,-0.3737397982361094,-0.08821641880438898,-1.4653275376649708,0.23492215891620208,1.2300613835379959,-0.01094291563145312
-0.026847659863825927,-0.37369785339269473,-0.09021958205612192,-1.463686777415282,0.2369771179550806,1.2318756753302258,-0.010943934249237815
-0.026894038825288406,-0.3736813750847282,-0.09122439930425544,-1.4628737077110927,0.2380116920633963,1.2327851582222091,-0.010944293787063726
-0.026942515018013313,-0.3736640579278899,-0.0922398826957802,-1.4620638137425603,0.23904626617171199,1.2337060860016793,-0.010944293787063726
-0.02699057167721927,-0.37364410412396726,-0.0932663914412729,-1.4612541595386341,0.24008131972197322,1.2346410952066378,-0.01094495297610559
-0.027036830865461835,-0.3736245698535635,-0.09429212122450381,-1.4604454040701895,0.24111742797470143,1.235562502297154,-0.010945192631628504
-0.027080093868794113,-0.37360539512098573,-0.09531701215886298,-1.4596286792102142,0.2421555494647218,1.2365021853847662,-0.010945851711587289
-0.0271638036776275,-0.37356914288709253,-0.0973756023770669,-1.4580026595750555,0.24421549386207572,1.2383969512544792,-0.010948248594065667
-0.02720736633217573,-0.3735474513897334,-0.09841846965730622,-1.4571919267576514,0.24524939689129405,1.239359883763974,-0.010954720056765906
-0.027251528180072787,-0.373526778619242,-0.09946936632476934,-1.4563870062139057,0.2462858885928589,1.2403098133523756,-0.010965865402119907
-0.027297128179273485,-0.3735078435421871,-0.10053074914854461,-1.4555861604685483,0.24731672368231805,1.2412554285959492,-0.010980785785562894
-0.027345484598778478,-0.37348711088508574,-0.101599202737452,-1.454783457038368,0.24834918856023272,1.2422015831462616,-0.011001218900531382
-0.027393481371374477,-0.37346727696346604,-0.10267712386488685,-1.4539718253763991,0.24938261232203843,1.2431467789653992,-0.011026625440286507
-0.027494208794913277,-0.37343623780988244,-0.10486364573551425,-1.4523323833957111,0.25144226908913164,1.2450020568698692,-0.011097212445723384
-0.02754490210120361,-0.3734207781197006,-0.10597488301670811,-1.451510864879862,0.25247272072975413,1.2459312536920861,-0.011143052209530076
-0.027595055991672,-0.37340489900508284,-0.10709432945403871,-1.4506873687968873,0.2535092122567861,1.2468612295856478,-0.011197879982652226
-0.027643472297786947,-0.3733908175795947,-0.10821449496702114,-1.4498638728229958,0.2545454163280902,1.2477957594795606,-0.01126241505890781
-0.027687993683509913,-0.37337943257871775,-0.10933184417308932,-1.4490385192733648,0.25558622230903305,1.2487514414550103,-0.011340552140522658
-0.027730657493493367,-0.3733695456157545,-0.1104461973033303,-1.4482060350719916,0.2566403547514795,1.2496941206184498,-0.011430553752226406
-0.027812929260106187,-0.3733561232702251,-0.11268628856468917,-1.4465173379363168,0.25874325065452747,1.2515852912189869,-0.011619904522775271
-0.027851518489867784,-0.3733531271943979,-0.11381316530497783,-1.4456719108095433,0.25980399841843776,1.2525290488868208,-0.011728960875670746
-0.027887950492673914,-0.3733494720386119,-0.11493962251174754,-1.4448282812628161,0.2608652254497607,1.2534711887435215,-0.011854375872395928
-0.027922764684346523,-0.37334491803826114,-0.11606739798751789,-1.4439839326404371,0.26193469776553585,1.2544285485257978,-0.011995190454526848
-0.027956200611325446,-0.3733425810423927,-0.11719996711916193,-1.4431497107456275,0.2630130860957949,1.2553699094202366,-0.012151524722532657
-0.027988737802822673,-0.37334024415560735,-0.11834116494046168,-1.442318964346774,0.2640870645026328,1.256338354661257,-0.012324636840637889
-0.02805608918599251,-0.3733326341928194,-0.12064986596738106,-1.440671373096559,0.26623703437906804,1.258269912071602,-0.012699922772389466
-0.02809126291549103,-0.373330297196951,-0.12182156363552557,-1.439837510739575,0.2673100540765479,1.2592534574649785,-0.01289484627015687
-0.02812679607373238,-0.3733314956927317,-0.12300716296024528,-1.4390041276936372,0.26838096436909376,1.260214052978605,-0.013118112387813567
-0.02816394715219033,-0.373330536961557,-0.12420480647488377,-1.4381722427946961,0.2694544633339862,1.2611777044546688,-0.013364268280444014
-0.028199839957340673,-0.37332843973029456,-0.12541641164179052,-1.4373415561733693,0.2705280581174546,1.2621270947363312,-0.01361989182068498
-0.028232556917750853,-0.37332879926812046,-0.12663958157848712,-1.4365122478167365,0.2716088434829083,1.2630663583995076,-0.013883964281668696
-0.028284148959522887,-0.3733283198479916,-0.12908807856975274,-1.434869809760221,0.27378268597285227,1.2649335006159002,-0.01446010586714905
-0.02830392288544951,-0.37332825996138164,-0.13031214735101412,-1.4340476320553301,0.2748705659271824,1.2658755805859907,-0.01478637640851993
-0.028321419920283832,-0.3733286793858175,-0.13153807359893196,-1.433222817812438,0.2759593087722947,1.2668206565228255,-0.015119298181504006
-0.028337358921511513,-0.37332825996138164,-0.13276867372950354,-1.4323994416117662,0.27704939395013467,1.267767170610964,-0.015472593073763532
-0.028352039649431587,-0.37332760077233973,-0.1340020302803794,-1.4315764848355306,0.2781456148329601,1.2687259685445438,-0.01583619446250532
-0.028362106381307855,-0.37332736111681686,-0.13523263041095102,-1.4307554456307274,0.27923800105288593,1.269669606439158,-0.016198297813333505
-0.02837564850005716,-0.37332670192777495,-0.137697965138926,-1.4290998848798986,0.28142871721150525,1.271534831193201,-0.016993750709468614
-0.028379004113710273,-0.3733283198479916,-0.1389365348791945,-1.428261887947,0.2825227332198866,1.2724483286697132,-0.01741343836280632
-0.028381341000495615,-0.37332748099911983,-0.14018385297325556,-1.4274151425512258,0.2836194335446575,1.2733479245987334,-0.017847087450246116
-0.02838385776527699,-0.37332909881025333,-0.14144135768149588,-1.4265624649994901,0.28471210722031115,1.2742640586132468,-0.018286009722771578
-0.02838631453436533,-0.3733317952348646,-0.14271318357983034,-1.4257163786836746,0.2858019047678904,1.275144180158473,-0.018750518303965125
-0.028387752576585896,-0.37333137581042874,-0.14400190721056724,-1.424867296292032,0.2868878673035043,1.2760425774826294,-0.019251518774574757
-0.028385295807497556,-0.37333784727312896,-0.14662369608885104,-1.4231839921146627,0.28904876678078134,1.277839612113714,-0.020276529591236922
-0.028382060076147436,-0.37333820681095486,-0.14794142152851908,-1.4223527062999872,0.2901263883878999,1.2787500536277892,-0.020809887484430828
-0.028376187806796023,-0.37333910565551964,-0.14925501239227223,-1.4215272928637461,0.29120602323231065,1.27966906394491,-0.02137476395133726
-0.028367619112833357,-0.37334024415560735,-0.15056518775576233,-1.4206961868179837,0.2922911228771424,1.2805802245346367,-0.021948628536642232
-0.028359290074393605,-0.37334024415560735,-0.15187985723299322,-1.419858189885085,0.2933872479413918,1.281486112048361,-0.022538911543303793
-0.02835269872939037,-0.37334024415560735,-0.15319710336161543,-1.4190179159520109,0.2944910430295721,1.2823997894028691,-0.02316322977937618
-0.028339336270470947,-0.373337967155432,-0.15583141574086384,-1.4173455773510828,0.29670869991599225,1.2841902925755606,-0.024487366795134507
-0.028330108496549496,-0.37333784727312896,-0.15715075910074847,-1.4165203435746716,0.29781680928355053,1.2850816791302777,-0.02518107364994612
-0.02831956234454432,-0.37333784727312896,-0.1584727987761613,-1.415704936983697,0.29892606917215175,1.285987926290911,-0.025904141851514798
-0.028306978956969753,-0.37333748773530306,-0.15979981209452693,-1.4149002562045572,0.3000306311580053,1.2868776950344947,-0.026639853436351082
-0.028293556611440368,-0.3733364691175184,-0.1611355138800751,-1.4140926392362003,0.30112800273640655,1.2877899941243092,-0.027403907641076655
-0.02828151242152159,-0.3733370084242572,-0.1624843982465467,-1.4132853819147524,0.30222211456336384,1.2886990574827737,-0.028189293805335497
-0.028253049919329302,-0.37333712830656024,-0.165230343739165,-1.4116714063604294,0.3044055443214219,1.2904667906537113,-0.029801291901616067
-0.028232556917750853,-0.37333748773530306,-0.16662105306674832,-1.4108679839636804,0.3054939037176976,1.2913434965895914,-0.030639109065601758
-0.028205232806563178,-0.37333802704204194,-0.1680122418144605,-1.410062404339976,0.3065767983135523,1.292208038562333,-0.03149999588255723
-0.028168561148234135,-0.3733395850756486,-0.16940061425525849,-1.4092463385599594,0.3076570084184845,1.2930712023794637,-0.032385150739180135
-0.028127335380471248,-0.37334300057591163,-0.1707912638053149,-1.4084245802795046,0.30874546363333605,1.2939451520041225,-0.03328600494150781
-0.028082214801399455,-0.3733459366560458,-0.17218838470898848,-1.407597009616308,0.3098243315800735,1.2947911783242452,-0.03420681283867506
-0.027977652453161708,-0.37334641607617475,-0.17498987705038074,-1.4059449841389622,0.3119776570265286,1.2965386581491272,-0.03609918182590986
-0.027921805953171785,-0.37334617631156874,-0.17639622583705886,-1.4051262219343343,0.3130460746398368,1.2974021813950007,-0.037069244987146886
-0.027863922108529393,-0.3733468355006106,-0.17780868654861132,-1.4043108752299696,0.3141071100340078,1.2982803254821846,-0.038050633153567784
-0.027803941032624575,-0.37334875296296005,-0.17922354414264213,-1.4035045166440034,0.3151648856767349,1.2991368979543123,-0.03905407224609069
-0.027740604452149716,-0.3733495918118318,-0.18064181723693604,-1.4027011541338645,0.31621460784669453,1.3000021590027055,-0.04006769806187595
-0.02767888568280838,-0.3733508501942225,-0.1820706364832351,-1.4019008475861627,0.31725685197894105,1.300844230624909,-0.041092768656064996
-0.02755335091286328,-0.3733560033879221,-0.18497393475256083,-1.4002796814934875,0.31932283643723736,1.3024969750688236,-0.04319749818020848
-0.02748210471838454,-0.37336043761505294,-0.186443200804361,-1.3994739820965632,0.3203462893075593,1.3032985398898331,-0.04427775619442867
-0.027397615947289372,-0.37336241496401235,-0.1879104294024256,-1.3986778700113862,0.32136437319603633,1.3040896185545303,-0.045385218437533535
-0.02730258102418903,-0.3733624748506223,-0.18937112665118006,-1.3978920644226915,0.32237986841216676,1.304886150064143,-0.046511376102170376
-0.027197239713689505,-0.373364032884229,-0.19083158424441157,-1.3971158461457442,0.32339335039100503,1.3056889133809333,-0.04766222123091052
-0.027082550637882452,-0.37336517138431663,-0.19229545733790618,-1.3963468184071488,0.3244144062261323,1.3064851453484134,-0.04883080294092482
-0.02683399786277363,-0.3733649316197107,-0.1952347082989922,-1.3948154142706546,0.3264575727733869,1.308104513751959,-0.051230284432726654
-0.026708582866048446,-0.3733648717331007,-0.19671913438975827,-1.3940494424944965,0.32747086294054034,1.3088970304588767,-0.0524610643322112
-0.02658119062944691,-0.3733645121952748,-0.1982142862923594,-1.3932864069075555,0.32847811322128434,1.309677443198349,-0.05370209073248496
-0.02645433759050116,-0.37336391300192595,-0.19971561000644483,-1.3925201954758746,0.32947750166641276,1.3104350859360674,-0.05496247174333257
-0.026328563165033146,-0.3733645720818847,-0.2012246036790112,-1.3917605753891966,0.3304720963902177,1.311194765909355,-0.05622950387671028
-0.026204466546391688,-0.3733645720818847,-0.20274600107932228,-1.391007726416435,0.3314556656946048,1.3119298184142327,-0.057509778586704426
-0.025952378279633714,-0.37336595034657843,-0.20582175238679445,-1.3894817750157733,0.3334105325443424,1.313375655166154,-0.06011053515667091
-0.025815398622201738,-0.3733696055023644,-0.2073602272884209,-1.3887151441596564,0.334387103078429,1.3140668453652673,-0.06142394636059419
-0.025665595812589204,-0.3733731408849305,-0.20889259015608994,-1.387950191110366,0.3353642486985042,1.3147618106024697,-0.06274946153196312
-0.0255098608470153,-0.37337727546084537,-0.21042207683023478,-1.3871856574855115,0.33634609239585983,1.3154603111131549,-0.06409582924273642
-0.02534591661622156,-0.37338248854115497,-0.21194958615542017,-1.3864262770543565,0.3373221834880009,1.3161400563156982,-0.06545999363955998
-0.025172924380419324,-0.3733890199995482,-0.21347308078699367,-1.3856632414674157,0.3382983705732509,1.316829928245811,-0.06684327277326832
-0.02480476899132677,-0.3734077153119971,-0.21653708755576304,-1.3841720443718166,0.34024173238709227,1.318184385339501,-0.06963913250083208
-0.024613440762735396,-0.37341304827460964,-0.2180856890758757,-1.3834295017864542,0.3411961560892345,1.3188614941131263,-0.07105794490186484
-0.02441935622292281,-0.37342053846417766,-0.21964381813020886,-1.3826927116972232,0.3421444439118584,1.3195158327759144,-0.07249257642182229
-0.024225151909890306,-0.37342940680935627,-0.22121518965207537,-1.3819596965369982,0.3430807474311735,1.3201582471310869,-0.07393697513152313
-0.02403664009729626,-0.37343773584779605,-0.2228035189020373,-1.3812250036790297,0.34399988947701954,1.3207829247959022,-0.0753889838040119
-0.02384860759574804,-0.373445345810584,-0.22440712807326818,-1.3804933666744152,0.344914333794651,1.3213864503791801,-0.07684674497263216
-0.023438207821107903,-0.37345786931154856,-0.2276193797271265,-1.379054241040717,0.3467243351748804,1.3225690537371557,-0.07978563639589227
-0.023213084127711694,-0.37346290273202826,-0.22921262251526514,-1.378351186529681,0.34763082201285317,1.3231336904394562,-0.08125933656574022
-0.02298238781618002,-0.37346440076994186,-0.2308044870387101,-1.377654543485652,0.3485314604270355,1.3237029411378005,-0.08274681861894347
-0.022739527432426576,-0.3734648201943777,-0.2323942544399757,-1.3769613160509693,0.3494355504043465,1.3242618854487456,-0.08424826221533188
-0.022484982505663338,-0.37346565904324946,-0.23398048645867522,-1.3762794136214704,0.3503428041399926,1.324833592916178,-0.08576414677503438
-0.022226063347462292,-0.37346589880785547,-0.23557289028885905,-1.3756032036924102,0.351236827407244,1.3253975705385197,-0.08729471206265695
-0.02171146076241032,-0.3734669773122501,-0.23878490228719446,-1.3742473085564995,0.35298987974117835,1.3264973628231436,-0.09038370594674554
-0.021448586797207334,-0.3734694340813384,-0.24040451034626295,-1.3735738550477434,0.35385005950343723,1.3270363533301661,-0.09194740761921416
-0.021181038949350587,-0.37347542623299285,-0.24203694155751201,-1.3729029780812956,0.354701706525516,1.3275534126843063,-0.09351428513642293
-0.02091247248370914,-0.37348507354043325,-0.24368483234985985,-1.3722357563797167,0.35554779275406506,1.3280512374192588,-0.09508529712046353
-0.020637913866413286,-0.3734987954280955,-0.24534410825216768,-1.3715733283340117,0.3563871678425743,1.3285390553089451,-0.09665990448276324
-0.02034825520584457,-0.373515633273888,-0.24700218565869478,-1.3709123384396102,0.35722826871264796,1.3290316069678951,-0.0982387063075878
-0.019735861277387964,-0.3735618324664375,-0.25030126307951667,-1.3695781346919758,0.35888506386940683,1.3299660768661146,-0.10139421261689141
-0.019421934468068735,-0.3735886172708863,-0.2519425026402513,-1.3689112724191397,0.3597107290475758,1.3304415510237493,-0.10298260175346333
-0.019097042191391536,-0.3736145631173803,-0.2535773906205887,-1.3682424927930374,0.3605432970029364,1.3309259534131723,-0.10458057831086569
-0.018765378691715073,-0.3736399096614424,-0.2552137166431467,-1.3675861766722066,0.36137807018180695,1.3313970532302861,-0.1061880224067955
-0.018432636687643954,-0.373663398738848,-0.25686064881340287,-1.3669416051991619,0.3622027766506178,1.3318498172727768,-0.10780061969642489
-0.018093722872088547,-0.373685989080772,-0.2585190257620628,-1.3662946368436386,0.36302355228888733,1.3323013828194867,-0.10941525433070676
-0.017407625980064866,-0.37373230804654145,-0.26187946241440013,-1.3650177775248244,0.3646326980372046,1.333185219407109,-0.11266921106337378
-0.017060562785899583,-0.37375759481307663,-0.26358577635812924,-1.3643986125915348,0.36542049306126384,1.3335979561776177,-0.11430080342575111
-0.016706189280162324,-0.37378276169730884,-0.265300479226908,-1.363786218663078,0.3662005222428163,1.3339857656103338,-0.11592874052325935
-0.016339711697896327,-0.37380738927480217,-0.2670080515530278,-1.3631854495001043,0.36698275664787866,1.334385319690836,-0.11755667762076762
-0.01595855338771026,-0.3738349529324297,-0.26870232130683813,-1.362594387531181,0.3677619229386489,1.3347983560034773,-0.11917712452870785
-0.015563373647729061,-0.37386485358592564,-0.2703885017868147,-1.3620004493687337,0.3685338030033909,1.3352139090809,-0.12079541442785878
-0.014748386372107162,-0.373929867973227,-0.27373929102262856,-1.3608298902006768,0.3700924233897251,1.3360088825569063,-0.12405104896735238
-0.014336967979682329,-0.37396432262707374,-0.2754195393466437,-1.360258901808896,0.37087350709921163,1.3364089759441473,-0.12568953210778272
-0.013921175246736606,-0.37399835785648455,-0.27710925510010326,-1.359691628459511,0.3716523859342541,1.3368114661047836,-0.12733262935333994
-0.013496454282002308,-0.3740325128591153,-0.2788117341191334,-1.3591270516438207,0.3724212937032799,1.3372053276848472,-0.12898195829699144
-0.013065142081347852,-0.3740711020888769,-0.2805294929503494,-1.3585657105594804,0.3731824358043319,1.3375746814606373,-0.13063991582121554
-0.012635507578436877,-0.37411418543237934,-0.28226540789635846,-1.358011679786712,0.3739362915048227,1.3379265383106764,-0.13229847264787153
-0.011759460722515503,-0.37420334808612826,-0.28577474851374357,-1.3569331594659282,0.37542080154592583,1.3386303118973641,-0.13561324930531513
-0.011295072023624956,-0.3742494273963748,-0.28752150926297376,-1.3564114862248273,0.3761597966405005,1.338990378012623,-0.13726940935857584
-0.010820736475161135,-0.37429652543348907,-0.28925580628876624,-1.3558893335635973,0.3768988879027169,1.3393410363668812,-0.13891885807544724
-0.010339330161565173,-0.3743472186306963,-0.29097871842276485,-1.3553649037931088,0.3776412387418444,1.339678811791432,-0.14056483151452867
-0.009849954238272292,-0.37439803181928966,-0.2926869498288434,-1.3548430507830949,0.3784006550613321,1.3400280919900798,-0.14221374092466119
-0.009344819191747763,-0.3744462083607986,-0.29438954862109346,-1.3543235945464762,0.37916534436955585,1.3403794695290727,-0.1438649274440522
-0.008313217139165439,-0.3745414230528119,-0.2978107453115974,-1.3532961270698087,0.38070421478460736,1.3410831232334577,-0.14717281321435968
-0.0077965173228510395,-0.37459013890105974,-0.2995375522569049,-1.352788055834067,0.3814714927651777,1.3414098731949575,-0.14882585730949016
-0.007272327316968627,-0.37464304921183245,-0.30127945935456846,-1.3522824413674135,0.3822371409572925,1.3417160101634928,-0.15048111840910303
-0.006737890810296992,-0.3746991953630383,-0.30304060107141967,-1.3517861146703747,0.38298342262696133,1.342014956702759,-0.15213428238653653
-0.006201117307756935,-0.3747573787498136,-0.30481180962923027,-1.3512894284355097,0.38372069211450455,1.3423059336323284,-0.15378295214114612
-0.005653558106771867,-0.37482017613263263,-0.3065769661487765,-1.3507975958522116,0.3844600708324488,1.3425897201326287,-0.1554265286977492
-0.00449929747776865,-0.37495685613884866,-0.310066113306716,-1.349848025801636,0.3859474570016263,1.3431484246789678,-0.15869840188968642
-0.0039055390842340576,-0.37502540590871614,-0.31179339956306934,-1.34937818425783,0.3867049559023977,1.3434243015652643,-0.1603184293731908
-0.0033017138497401176,-0.3750967120988879,-0.31351133827228134,-1.3489021109068466,0.3874734802225869,1.3437025153383462,-0.16194031443243467
-0.0026909378415001105,-0.37516843771349556,-0.3152317935281086,-1.3484286142072546,0.38824996219696756,1.3439890581498677,-0.16356345787406926
-0.0020753081816933853,-0.3752423204459756,-0.3169608775826746,-1.3479629671259732,0.38902816977837973,1.3442800949660472,-0.16518791958470447
-0.0014570420929684448,-0.375314825022845,-0.3187033238779938,-1.3475058888477378,0.3897918045586694,1.3445613648106491,-0.16681214153073368
-0.00019923773351217795,-0.37546774368150465,-0.3222423853799619,-1.3466025179897119,0.3913088157720373,1.3450649419326501,-0.17006855503248905
0.0004393416969613336,-0.3755514534903381,-0.32403486590161273,-1.3461669513308394,0.392055289078858,1.345301989824579,-0.17169055997403593
0.0010889465904858498,-0.3756364815681721,-0.3258250095364782,-1.345746724479846,0.3928041594208734,1.3455355024430249,-0.173304535528359
0.0017561682920646056,-0.37572612353296686,-0.3276012514056854,-1.3453375829785135,0.3935502492788574,1.3457742282508636,-0.17490982239733335
0.002435613952475095,-0.3758230759184167,-0.32936484989162496,-1.3449288610107,0.3942962433182655,1.3460269755975802,-0.17650696010586397
0.0031253061136748083,-0.3759224251863449,-0.33111454672098933,-1.344521996618626,0.39505613907969866,1.3462819399487793,-0.178091094784218
0.0045406430187514574,-0.3761326284962981,-0.33459290807140074,-1.343721510302011,0.39659395479228327,1.3467713157629893,-0.18123024266785806
0.00525388425304986,-0.3762407262271019,-0.33634068743841566,-1.3433316634155592,0.39736545123365563,1.3469871516867709,-0.1827915475669314
0.005970660651748178,-0.37635134061360404,-0.33809793434395796,-1.3429470297185002,0.39814423407558924,1.3471954375343747,-0.18434871778100673
0.006695945966882281,-0.37646285384467093,-0.3398707607129021,-1.3425611377481335,0.398921770577904,1.3473913795408436,-0.18589953641468482
0.007427223433670794,-0.37657382776899895,-0.34165952619215695,-1.3421824362070358,0.39968176233244607,1.3475881605052675,-0.1874384906273571
0.008165152022989421,-0.37668594019341467,-0.34346644767712187,-1.3418191344695098,0.4004346591490458,1.3477693620062896,-0.18897133291515505
0.009683673120693211,-0.37691046458437893,-0.34706716795273823,-1.3411286633460484,0.40194256236171216,1.3481181030072815,-0.1920112514131699
0.010463306897903634,-0.3770258127401448,-0.3488537762050376,-1.340789389883584,0.4027033208393946,1.3482808487422944,-0.19351035812277298
0.011258759903121822,-0.377143857429605,-0.3506263030318489,-1.3404505359546386,0.40347232460152926,1.3484386210525208,-0.19499472421784603
0.012061642993131906,-0.37726525762363516,-0.35238636624430547,-1.340116236026044,0.40424928584332254,1.3485881842066105,-0.19646770531204216
0.01287441315518838,-0.37738821574218895,-0.35414720830994073,-1.339782235639582,0.40503199969033044,1.3487236658261288,-0.19791755686665854
0.013689819746163073,-0.37751375051213404,-0.3559126644807029,-1.339449313866598,0.4058192194538682,1.3488360179060674,-0.1993470351929164
0.015337231227465078,-0.3777718907080733,-0.35948845752761,-1.3388004879353352,0.4073770727679962,1.349037652522058,-0.20218034565015408
0.016169535659925266,-0.37790952955454715,-0.36130328862657873,-1.338486621121709,0.4081398446575037,1.349134005714159,-0.20358333882317906
0.017009390168563423,-0.3780525013636335,-0.36313190160890285,-1.3381823416198302,0.40890069912829496,1.349215798060643,-0.20497680457106665
0.017862487253818008,-0.37819882867728993,-0.3649585371331844,-1.337891005152435,0.40966289593181393,1.3492842279482073,-0.20635702774233783
0.01872984553347372,-0.37835276606281737,-0.36677462661454385,-1.3376154278082715,0.41042384622118117,1.349348283604334,-0.2077310791021247
0.019614461083357758,-0.37851125744869557,-0.36857765328819986,-1.3373485991451495,0.4111916994622729,1.3494053884867148,-0.2090957228099941
0.021419285337060227,-0.3788321950274539,-0.372142181216533,-1.336813024029307,0.41275079911601975,1.34952271399144,-0.21177611449948905
0.02233014638465421,-0.37898888872420256,-0.3739232767373069,-1.3365436187147939,0.41353533456316793,1.349581916105083,-0.2130880276654987
0.023244662588034183,-0.37914186737855526,-0.3757099448762163,-1.336276849829199,0.4143169935331759,1.3496333284870252,-0.21438208425884814
0.024169605061116334,-0.3792911308814289,-0.37750386344008763,-1.336013736208473,0.4150959681867943,1.3496731759900944,-0.21565313108583778
0.025096884420983828,-0.37944339046012976,-0.37931360134104986,-1.335758651974971,0.4158689027794703,1.3496957662229352,-0.21690068894450482
0.026028538121372208,-0.3795994250769196,-0.3811443714412463,-1.3355095598931233,0.4166351262321066,1.34969996068546,-0.21812403865011437
0.02792683926456838,-0.37992809239168585,-0.38484270318227126,-1.3350310896596616,0.4181558762897981,1.3496982229920236,-0.2205147716790406
0.028900737350504347,-0.38010533908570593,-0.38668084358973276,-1.3348056065375224,0.4189166349420134,1.3496972043742388,-0.22168269430909612
0.029883084248099982,-0.3802915740072077,-0.38851137403440633,-1.3345879130380012,0.41968746030428844,1.3496966650675,-0.22283647551797042
0.030882029335965164,-0.38047990605088877,-0.39033010005376706,-1.3343724366520453,0.42046144942489855,1.3496958262186283,-0.22397533645248482
0.03189104115570661,-0.38067375093517847,-0.39213606280755725,-1.3341576194551314,0.42123543872004154,1.3496960658741513,-0.22509130739385932
0.03290754305593299,-0.3808717901729099,-0.393943523599261,-1.3339471764896553,0.42201757713199506,1.3496948074917605,-0.2261876842873032
0.034942943847947217,-0.381256543752272,-0.3975915216809046,-1.3335315635256226,0.4235778273067848,1.3496922908360622,-0.2283231533138144
0.035971430051482414,-0.3814474524473444,-0.3994405077825041,-1.3333206411400176,0.42435162479024297,1.3496895944114509,-0.2293621256736617
0.03700453014197834,-0.38164213618050585,-0.4013057925322403,-1.333115950670673,0.4251166977218363,1.3496875570667985,-0.23037167680014203
0.03804679822886884,-0.3818408946029722,-0.4031810840181598,-1.3329201883240336,0.425873908992347,1.3496804864107494,-0.23136079481165386
0.03910476555238102,-0.38204228945435675,-0.4050526004659902,-1.3327355114361386,0.42663246242105246,1.349677909759358,-0.2323204914807156
0.040179750490598624,-0.38224715980169743,-0.4069128517952467,-1.3325605417422939,0.42739360452210445,1.349678329183794,-0.23326083375736964
0.04236273697865996,-0.3826790713047838,-0.41060081726226255,-1.3322116809680822,0.4289350634349696,1.3496787486082298,-0.23505379359006628
0.04346702337702466,-0.38290353580913816,-0.41243931720754995,-1.3320321572738867,0.4297179689191294,1.349678449066097,-0.23591845544511073
0.04457604354465309,-0.38313051696919076,-0.41428368942218874,-1.3318573673489549,0.4305027918220054,1.349678508952707,-0.23674596611261417
0.04568788001919577,-0.383355640662587,-0.4161369898686161,-1.3316853337352441,0.43127735620313695,1.349678449066097,-0.23754902908062028
0.04680421060747925,-0.38358232228050676,-0.41800233450496227,-1.331515637117402,0.43205048260749773,1.349678149414881,-0.23831380236099767
0.047926713007247025,-0.383814816281168,-0.41988667410497327,-1.3313483373820383,0.4328149802785696,1.3496782094105741,-0.2390580826397966
0.05019832284231842,-0.3842893315985448,-0.42370209180428364,-1.3310248232609716,0.4343333336501323,1.3496756327591828,-0.24049187531088234
0.05135899504741191,-0.3845313530243434,-0.4256005727163928,-1.3308785557248421,0.43508555938763466,1.3496759324103986,-0.2411683248954656
0.05253602567816896,-0.38477930671518645,-0.4274896460856675,-1.3307448716853703,0.43584660567011074,1.3496756327591828,-0.24182919501664712
0.05371940799840633,-0.38503319245290785,-0.42936565664723875,-1.3306146031461614,0.43661484236003917,1.3496756327591828,-0.2424575279463314
0.05491669197521891,-0.3852890556486717,-0.43123453666615097,-1.3304826569092092,0.43738576371542304,1.3496756327591828,-0.24306351018961467
0.056117810876730435,-0.3855469561890881,-0.4331052741517196,-1.3303479541428695,0.4381613826244886,1.3496735954145302,-0.24365307422970747
0.05853005563410287,-0.3860674910391845,-0.43686616362004077,-1.3300812452529676,0.43970801888204697,1.3496696406075284,-0.24473542947519009
0.05974237976757836,-0.3863307245422134,-0.43876817991471595,-1.3299478608647115,0.44046983206219636,1.3496646671827417,-0.2452412237107565
0.060961355241750115,-0.38659653458755056,-0.4406870341642667,-1.3298174125565898,0.44123595952172373,1.3496595139890422,-0.24572736379361618
0.062187581140883894,-0.3868691757424969,-0.4426155954987847,-1.3296967314382113,0.44199623873199356,1.3496531622995618,-0.2461921719169426
0.06343070477242009,-0.3871484081333635,-0.44453960294203504,-1.329583420518015,0.44275277892340686,1.3496453126812509,-0.24663361084516636
0.06468814959405045,-0.3874327938270127,-0.44645576065789144,-1.3294764014006888,0.44351507154550174,1.3496404590296842,-0.2470573130830329
0.06724031008898902,-0.3880118116060172,-0.45025398097358343,-1.3292738680492167,0.44504799771818687,1.3496345867603328,-0.24782813851075772
0.06853202979555313,-0.3883086609140211,-0.45214748846090597,-1.3291777545126386,0.445816617856952,1.349633687915768,-0.24817693928927645
0.0698257868467697,-0.3886043117262442,-0.45404459132648756,-1.3290778660470546,0.446583128939849,1.3496316506801986,-0.2484878101361585
0.07112415778494699,-0.38890158045868395,-0.4559508020836876,-1.328972764392078,0.44735366667186327,1.349629673222156,-0.24877944625476972
0.0724282811101727,-0.38920454169156216,-0.45786815818624166,-1.3288697000817538,0.4481198901244995,1.3496254787596313,-0.24905154810297725
0.0737334230531831,-0.3895204458498408,-0.45980486889936956,-1.3287716091962163,0.4488832372745285,1.3496142136410574,-0.2492906932261686
0.0763800192778732,-0.3901620812427515,-0.46371484210165137,-1.328591785850805,0.450393153724487,1.349570830755422,-0.2496753269232277
0.07772351090420536,-0.3904816405568161,-0.465655986932827,-1.3285126900380153,0.45115592561399454,1.3495445852577121,-0.24983795288502078
0.07908006522915792,-0.3908034169844462,-0.467584967800864,-1.3284386274275393,0.4519170677150465,1.3495212160626096,-0.24998128423193308
0.08045070097959865,-0.39112950775690414,-0.46949753024754437,-1.3283666022707987,0.4526758129554368,1.3495049774101657,-0.2501071785397041
0.08182696934386788,-0.3914612910298005,-0.47140655731165865,-1.3282888246179267,0.4534446250804196,1.3494958694094643,-0.2502126996191166
0.08320767193526794,-0.39180374022792197,-0.47332019837181677,-1.3282090696160953,0.4542169844125742,1.349485383144069,-0.25028550373811886
0.08596662023989668,-0.3924980462760824,-0.47720140942069034,-1.3280601057644374,0.45575547120425614,1.3494650699114035,-0.25033709588897396
0.08735061844925683,-0.392851221395122,-0.47917221524983905,-1.3279859233807416,0.45650923108617103,1.3494475729856523,-0.2503318228129714
0.08874306557935972,-0.39320937004803136,-0.4811549452775204,-1.327910003303609,0.45725877233275086,1.349422945408159,-0.25032924616158003
0.09015091240395144,-0.3935729114410801,-0.4831370163343261,-1.3278368396467808,0.45800342421396417,1.3493953816414483,-0.2503254112368811
0.09157457834746784,-0.3939453811750005,-0.48510135059169146,-1.327769608145914,0.45874798010206863,1.3493634436433,-0.2503181008162261
0.0930116667455967,-0.3943198881444903,-0.4870491466544803,-1.3277084286833114,0.45949406996005265,1.3493357601033695,-0.2503083337355657
0.09592251509110039,-0.395054101691413,-0.4909089059706007,-1.3276016492215084,0.4610023566215557,1.3492956729447774,-0.2502883800407262
0.09738213383546018,-0.3954245340806809,-0.49284232095668545,-1.327550776146305,0.46176484088080244,1.349285426334905,-0.25028382593129234
0.0988424715463887,-0.3958015578149521,-0.4947858027837295,-1.3274926526461397,0.4625113143621561,1.3492738016785053,-0.25028400570020526
0.10030394775740492,-0.39619044597022907,-0.4967434858094817,-1.3274297354901008,0.46325136415919776,1.3492608587531048,-0.25028346650254946
0.1017634466194617,-0.3965811915921625,-0.49872118252576647,-1.3273711326788895,0.4639861409675033,1.3492401859826133,-0.2502835862757694
0.10323361140674357,-0.39696954044070065,-0.5007132603187554,-1.3273185817968598,0.46470653678637114,1.3492095063668557,-0.25028346650254946
0.10620965390846164,-0.3977551662604824,-0.5046875288326867,-1.327229479138804,0.4661377408069269,1.349141256139121,-0.25028286720011755
0.10771607103871976,-0.3981571771100728,-0.5066609711998368,-1.3271824409882995,0.4668452894317038,1.3491063820608384,-0.25028011088889635
0.1092369290232089,-0.3985657791955834,-0.5086162574521936,-1.327136601333576,0.46756012445704187,1.3490778595629531,-0.2502731600060672
0.11076665546195973,-0.39897114565882696,-0.5105614768635911,-1.3270938176412894,0.468277068712781,1.34905952378833,-0.25026123569845143
0.11230039659432245,-0.3993768715508133,-0.5125052582327682,-1.3270521125624808,0.4689933418894227,1.3490484383295862,-0.2502426601592225
0.11383419761329513,-0.3997833765141446,-0.5144634805652591,-1.3270084900213226,0.46970453371448023,1.3490395100977974,-0.25021893142629387
0.11690341746237402,-0.40062886352752813,-0.5184409250330138,-1.3269118971736986,0.4711060168722696,1.3490077518685621,-0.25015571461903896
0.11844452890200177,-0.4010574794126544,-0.520457630403496,-1.3268713904815876,0.47179410315602455,1.3489798885597186,-0.2501147286158821
0.11999678568698352,-0.4014861550753076,-0.5224728377360647,-1.326836935827741,0.47247682045793454,1.348945913326001,-0.2500685294233325
0.12156114643941092,-0.40191890542726566,-0.5244747424963239,-1.326799904522503,0.4731597295715293,1.3489109792520253,-0.25001771623473923
0.12313994826423548,-0.40235632966187757,-0.5264560944774778,-1.3267599971328237,0.47384513136436174,1.3488695738244325,-0.24996025192361576
0.12473091405219873,-0.4027993864012348,-0.5284181517346677,-1.3267201495206715,0.47452516417534923,1.3488420100577219,-0.24989559696505717
0.12792249282648258,-0.40368100598437473,-0.5323272860880778,-1.3266452481704067,0.47589529668191677,1.3487996457898712,-0.24974555449992172
0.12952232695962443,-0.4041274782239951,-0.5342894033409609,-1.3266060597472962,0.4765781099769356,1.3487909573226886,-0.24965441449721337
0.1311227003995052,-0.40457550849722207,-0.5362651225992031,-1.3265627367482709,0.4772477884476027,1.3487739995945933,-0.24955272834249984
0.13272343326812874,-0.40503318607788946,-0.5382596571612803,-1.3265195935181586,0.4779104681479693,1.3487550645175383,-0.24943366503525496
0.13433165632632033,-0.4054966759322153,-0.5402732466827155,-1.3264805249773512,0.47856212225438516,1.3487281000532596,-0.2492923111463852
0.13595384103678018,-0.4059656186314566,-0.5422817427879779,-1.3264440929745451,0.4792139683470188,1.3486941847061518,-0.24914442579912213
0.13924051472985738,-0.40690458264341695,-0.5462593670246455,-1.3263707494397208,0.48050883981277936,1.3486328853612464,-0.24884817579355017
0.1408958357160802,-0.40738059610779037,-0.5482254988620573,-1.3263351562857864,0.4811593435726853,1.3486146093641502,-0.24870604283333553
0.1425577481563893,-0.4078550515385572,-0.5501836014213285,-1.3262987242829802,0.4818150245027514,1.3486073589391883,-0.2485654679067275
0.14422103875230904,-0.40832998638945295,-0.5521454190229955,-1.3262604347044347,0.4824721434095882,1.348600947363098,-0.2484227957488571
0.14588037454122682,-0.4088101343206582,-0.5541205390878889,-1.326218789512236,0.483121688460136,1.3485992096696615,-0.24826586228750244
0.14754120836805823,-0.4093003490928228,-0.5561147741078333,-1.3261733692819482,0.48376298822623154,1.3485938767070489,-0.2480882560556564
0.15088013318286625,-0.4102933020290336,-0.5601478851975819,-1.3260899591243307,0.48501279913042994,1.3485649347847277,-0.24774490801297017
0.15256721250740757,-0.4107911866505961,-0.5621608155299751,-1.326058620319531,0.48563281495536326,1.348553010477112,-0.24758683605152784
0.1542698711862676,-0.41129865869298904,-0.5641632597060563,-1.3260277609348605,0.48625052991274365,1.3485430036318455,-0.24743122096825693
0.15597960063025976,-0.4118150589671706,-0.5661528807299568,-1.3259874940073553,0.48686556037920153,1.3485365321691454,-0.24727105177555217
0.1576997563439541,-0.41232414882069707,-0.5681250647147161,-1.3259382987389787,0.4874741671613475,1.3485352737867546,-0.24710974408275974
0.15942326767130158,-0.4128335982120494,-0.5700939529724323,-1.3258934178154298,0.488077788585018,1.3485352737867546,-0.2469408863137893
0.16286046324964315,-0.41387814319003224,-0.5740447325180411,-1.325796345547677,0.4892821553042847,1.3485331765554922,-0.2466202483862469
0.16457714357646447,-0.4144017939982588,-0.5760417238492067,-1.3257352859673774,0.48986679365434593,1.3485304202442712,-0.2464602590715382
0.16629424332772164,-0.41493053800449203,-0.5780596276063866,-1.3256805779674752,0.49044414577837886,1.3485259860171401,-0.24630799949283733
0.1680214098108551,-0.41547330354960343,-0.5800901148602241,-1.3256338394681868,0.4910092259688422,1.348519814205656,-0.24614896880022027
0.16976583356421687,-0.41602727432667874,-0.5821104753864924,-1.325585483157765,0.49157536068723967,1.348508429204779,-0.24598094998920467
0.17152080346958382,-0.41657189744752965,-0.5841192112563608,-1.32553053550234,0.49213727711936794,1.3484963251282502,-0.24580999498897182
0.17506142289607546,-0.41766204242471316,-0.5880962960772065,-1.325429688196498,0.493256411906344,1.348482303589372,-0.24550229998682993
0.17683778464758562,-0.41822050731552934,-0.5900745920959232,-1.3253729429610264,0.49381171301700844,1.3484812249758944,-0.24535806990443593
0.1786163035169682,-0.41876950466781804,-0.5920591198127341,-1.325307988460335,0.49435819358269917,1.348474633630891,-0.24522438586496403
0.1803849953099974,-0.4193198202891074,-0.5940591071106438,-1.325240996614991,0.49489844245029563,1.348471697550757,-0.24509207998110275
0.1821536872121097,-0.4198826594113614,-0.5960778498257785,-1.3251755028075607,0.4954338975965686,1.3484649264368407,-0.2449555796347166
0.18392543496757607,-0.42045376757636205,-0.5981146287734033,-1.3251087506177397,0.495955930462762,1.348446111242089,-0.24482021789750122
0.18750374477926451,-0.421597961473489,-0.6021913025177001,-1.3249867512303606,0.4969828347216798,1.3483848717837934,-0.24455938116786763
0.18931204441984,-0.4221799154417108,-0.6042107044218766,-1.3249341404617208,0.49748463817464506,1.3483500575921208,-0.2444413964741005
0.1911328676704632,-0.42276192929654255,-0.6062061377194357,-1.324877994419598,0.49799123534893386,1.3483169812029676,-0.2443277261251612
0.19296255915718194,-0.42333705226423823,-0.6081898864739848,-1.3248140585366912,0.49849639437191895,1.348293552012172,-0.2442213660877939
0.19479057294615718,-0.4239169090011976,-0.610173515346231,-1.3247502425360875,0.49900164938801295,1.3482725197038548,-0.24412105819777405
0.19661193550351924,-0.4245013796251177,-0.612164814176958,-1.324681393224087,0.4995042197386515,1.3482588577028025,-0.2440196715851934
0.20024806916415702,-0.42567727175578707,-0.6161841434924344,-1.3245330284566952,0.500488460122136,1.348205048547465,-0.243791731693966
0.20206883241908719,-0.4262766627631501,-0.6182231994402346,-1.3244638794934789,0.5009594881844008,1.3481645418553538,-0.24368321453872632
0.20389570770797474,-0.42688492211569184,-0.6202617759679059,-1.3243964083370892,0.5014207369923338,1.3481076167418862,-0.24358500377088582
0.2057373833889192,-0.4274940203171053,-0.622289926334958,-1.3243274990293956,0.5018733572415108,1.3480432015479336,-0.24350452969340255
0.20758948544864894,-0.4281003622072975,-0.6243025570161355,-1.3242611663730937,0.5023252104184815,1.347979685198546,-0.24344059391957887
0.20945261297142967,-0.42871455371580064,-0.6262952939981662,-1.324197470254793,0.5027779264862344,1.3479165282779009,-0.24339133876459218
0.21318282282399306,-0.4299488091112413,-0.6302623719737456,-1.324051981680925,0.5036874812639663,1.347808730198313,-0.2433281818439472
0.2150404376152483,-0.43056210177517956,-0.6322603220360858,-1.3239692905989595,0.504134061452201,1.3477420380041851,-0.24330571138432625
0.21689655436858993,-0.4311911537805157,-0.634274091326434,-1.3238855207944331,0.504578052968089,1.347668035389402,-0.2432879748030521
0.21874829689049374,-0.43182769586633674,-0.636309851547191,-1.3238001331787732,0.5050087180224734,1.347567727390299,-0.24327587072652335
0.22060015918561746,-0.43246052280067876,-0.638360831802607,-1.3237125884452408,0.5054207836266181,1.347445967658443,-0.24326850041925835
0.22246406577974306,-0.43310125945810773,-0.6404085763266729,-1.3236281595607555,0.5058353419100006,1.3473152796947983,-0.24326622341908297
0.22622231871006288,-0.4344035252075939,-0.6444598435312145,-1.323460380405263,0.5066375180980304,1.3470151347688344,-0.24326676272582182
0.22811630561751428,-0.43504444163393585,-0.6464576138246418,-1.3233731952095564,0.5070352025382044,1.346857362458608,-0.2432670622679547
0.23000849483583613,-0.4356972822588105,-0.6484475943863683,-1.3232887663250712,0.5074325995226507,1.3467106157205158,-0.24326736191917064
0.2318992460119374,-0.43634844507685855,-0.6504411702172709,-1.3231993041291894,0.5078199296225046,1.3465653069155608,-0.24326766146130352
0.23378316618751252,-0.43699421504568414,-0.6524466703557892,-1.3230982770544348,0.5081989187938629,1.3464138262991217,-0.24326778134360652
0.23566193306030497,-0.43764723543947176,-0.6544659522685796,-1.3229928758573253,0.5085726348019524,1.3462634841827703,-0.24326790122590952
0.2394213244907125,-0.43896963476179357,-0.6585571269718836,-1.3227926193969453,0.509296482009416,1.3459469808311428,-0.2432689198436942
0.2413125550869427,-0.43963865415250186,-0.660599059113208,-1.322693689662536,0.5096488182577673,1.345768955174861,-0.24326975880164903
0.24321235426805246,-0.4403089917031277,-0.6626262507490854,-1.3225882883563436,0.5099992369128694,1.3455789453243534,-0.24327095718834668
0.24512042271007511,-0.4409751947869218,-0.6646368440856103,-1.3224818085457564,0.5103475465121033,1.3453674237453994,-0.2432717960372184
0.2470354419258438,-0.44164655106441547,-0.6666317381855135,-1.3223758081552979,0.5107017043605949,1.345157759742185,-0.243273294075132
0.2489506409105255,-0.44232288076669574,-0.6686217786338499,-1.3222660326176676,0.5110526024576425,1.3449531290503673,-0.24327359372634796
0.25276497999635816,-0.44365966116572164,-0.6726244498724467,-1.322034557343874,0.5117295673288709,1.3445446467380766,-0.24327527153317452
0.2546617832107238,-0.4443338337501296,-0.674648225898978,-1.3219203475791128,0.5120654131828505,1.3443327657303799,-0.24327599049974327
0.2565633201943532,-0.44501501710397656,-0.6766887199980819,-1.3218115308817404,0.5123968489388762,1.3441159710754236,-0.24327652980648212
0.2584676134892038,-0.4457004548069584,-0.678731910521797,-1.3217031934954135,0.5127204230338193,1.343887971188503,-0.24327802784439573
0.2603794568602323,-0.4463857727367203,-0.6807637159355521,-1.3215937774956092,0.5130415044495246,1.3436455902248785,-0.2432800651890482
0.262298071345177,-0.44707228905317986,-0.6827810804950762,-1.3214800472600599,0.5133559703692331,1.3433864314111545,-0.24328360057161427
0.26615117942968425,-0.4484424454925747,-0.6867610416185291,-1.3212401230655237,0.51398816230916,1.3428253299823372,-0.2432889934208368
0.2680792614531564,-0.4491327368471233,-0.6887416744149482,-1.3211115922197514,0.5143033953010748,1.3425472959781681,-0.24329157007222812
0.26999703708922945,-0.449811403545272,-0.6907271608629338,-1.3209819228738915,0.5146104790016461,1.3422729770163953,-0.24329390695901346
0.2719122959605211,-0.4504932459790778,-0.6927246316142283,-1.3208518940992886,0.5149123857065904,1.34199644105014,-0.2432953451103171
0.273819285789066,-0.45119504221680623,-0.6947377417155345,-1.3207213859045568,0.5152128540856978,1.341719425663756,-0.24329642361471177
0.2757271743530926,-0.4518989955724071,-0.6967701463226385,-1.3205824886756923,0.5155068033109834,1.3414179025821813,-0.24329756211479944
0.27956092793610904,-0.4533094190483901,-0.7008208144429143,-1.320306551902786,0.5160842510790593,1.3407448684978611,-0.24330181657301733
0.28148709249723175,-0.4540140913705597,-0.7028223596653477,-1.3201746655524436,0.5163752281831616,1.3403988240305635,-0.24330343438415086
0.2834167324452275,-0.45471744553281174,-0.7048046703776762,-1.320035948092492,0.5166687936105446,1.3400635653707942,-0.24330421334641264
0.28534936846905046,-0.4554300874646782,-0.7067760754001737,-1.319888122740922,0.516970508503804,1.3397285463665476,-0.24330511219097742
0.28727511349665424,-0.4561339809336691,-0.7087488585782818,-1.319729032161695,0.5172701141666622,1.3393811236345565,-0.24330523207328042
0.28919097167037777,-0.4568324815534375,-0.7107281731057001,-1.3195683835488612,0.5175705827203028,1.3390173424769016,-0.24330511219097742
0.29300950521873526,-0.45824763868960117,-0.7147254513859914,-1.3192394165828791,0.5181521531306048,1.3382596997391834,-0.24330529195989037
0.29491697435832603,-0.4589575841968564,-0.7167408384874729,-1.3190706786962116,0.5184310499382894,1.3378587675030706,-0.24330541184219337
0.29683145437643893,-0.45967226347337536,-0.718754547782128,-1.3189049967719815,0.518714165381309,1.3374309906849822,-0.24330577138001927
0.29874749220999236,-0.46038083071593694,-0.7207525578401613,-1.3187417716168395,0.5189898024375497,1.3369776873357526,-0.2433060110355422
0.30067102023311376,-0.46109095599210514,-0.7227313330608408,-1.3185741722302597,0.5192707126570594,1.33651761298169,-0.24330667011550097
0.3025980236431082,-0.4618009014993604,-0.7246917126202873,-1.3184003411455858,0.5195647577009208,1.3360735375154649,-0.24330708964901993
0.30644370153374045,-0.4631991609031217,-0.7285977910112602,-1.3180303880673636,0.5201477662625266,1.3351488945845156,-0.2433076289557588
0.30835542513154907,-0.46389562417823754,-0.7305542156546218,-1.3178421757969025,0.5204414276830184,1.3346673684976997,-0.24330744918684585
0.31026139623322624,-0.46459484376457466,-0.7325195686388548,-1.3176484507949158,0.5207237760538318,1.3341808688770143,-0.24330726941793288
0.31216407171694327,-0.46529574115773836,-0.734503497162317,-1.3174538270574474,0.5209988380240839,1.3336793889862757,-0.24330756896006575
0.31406351136022714,-0.4659996346267292,-0.7365019265357031,-1.3172601020554608,0.5212743792617486,1.333137582172339,-0.24330744918684585
0.3159704413021621,-0.4667089808315526,-0.7384951428287797,-1.317062721788605,0.5215487699783704,1.332575102587911,-0.24330774872897873
0.31979574596443583,-0.4681193444209257,-0.7424356758735994,-1.316670298359845,0.5221021536703186,1.331442353578271,-0.24330822814910763
0.3217094469112039,-0.468825155352266,-0.7443822735496906,-1.3164653082392845,0.5223854607504901,1.3308695676064437,-0.24330864757354348
0.3236207509754936,-0.46952461459412603,-0.7463185048426896,-1.3162518691979812,0.5226734655588763,1.3303016950637099,-0.24330846780463053
0.325526003110602,-0.47022551198728973,-0.7482539571734267,-1.3160358535052865,0.5229676064213136,1.3297396349037178,-0.24330864757354348
0.3274255027495789,-0.47093461853659013,-0.7501937837356017,-1.315808392925105,0.5232665410050745,1.3291737398190266,-0.24330864757354348
0.32931271854311406,-0.4716332389295784,-0.7521451150718735,-1.3155757191555308,0.5235544499948848,1.3285711729669234,-0.24330846780463053
0.3330759448982205,-0.4730556465997872,-0.7560943366929589,-1.3151180416839465,0.5241066829912571,1.3273465051013962,-0.24330864757354348
0.3349630409185358,-0.4737692472628285,-0.758066880106461,-1.3148924385704213,0.5243753214517302,1.3267001958258318,-0.24330882734245646
0.33685247382563643,-0.47447751496325713,-0.7600223461277308,-1.3146613827210638,0.5246418505072693,1.326051010356743,-0.24330906699797936
0.33874202650595703,-0.475192733546515,-0.7619598358031204,-1.3144283495227467,0.5249069415860378,1.3254058995769595,-0.2433092467668923
0.3406316391819706,-0.4758992035578141,-0.763875454212238,-1.3141897435972112,0.5251770181978145,1.3247570136500038,-0.2433100257291541
0.3425186153199829,-0.47660339667802093,-0.7657829233518287,-1.3139426288643228,0.525446327562852,1.324108007949828,-0.2433108046914159
0.34627003724977656,-0.4780057306620041,-0.7696006779379245,-1.3134229928587913,0.5259937670124338,1.3227949563928136,-0.2433145198428949
0.3481348425793838,-0.47870399162624955,-0.7715178543806487,-1.313164553120719,0.5262658568615027,1.3221219821951036,-0.24331649719185433
0.3499955133330762,-0.4794132779444629,-0.7734486328287321,-1.3129119855429152,0.5265409188317548,1.3214331289918586,-0.24331859442311676
0.3518542067378092,-0.48011974795576207,-0.7753967884293469,-1.3126527667334984,0.5268057222802625,1.320720726715515,-0.243321530612334
0.3537146977225886,-0.4808257985426253,-0.7773402701473079,-1.3123841403812468,0.5270627598862635,1.3200089836282132,-0.2433259647303818
0.35558333797689484,-0.481534066243054,-0.7792705093977356,-1.3121191691847816,0.5273262210020434,1.3192866943889063,-0.24333249618877506
0.35932025894768144,-0.48293124714242064,-0.7830816127522181,-1.311591443796333,0.5278493085707038,1.3178224617575858,-0.2433504725346552
0.36118907897090063,-0.48362045988349145,-0.7849659523522291,-1.3113129903677283,0.5281233158384889,1.317092083135362,-0.24336173765322913
0.36304879099341825,-0.484307155968864,-0.7868476554142387,-1.3110320201743422,0.5283884069172574,1.3163609256599598,-0.243373422305322
0.36490029385979916,-0.48499337274319065,-0.7887362493633846,-1.3107530274389985,0.5286571411963064,1.3156239556927327,-0.24338486719280886
0.366748081574701,-0.4856822859421286,-0.7906293974219643,-1.3104671437074358,0.5289283681545931,1.3148655339927526,-0.24339541334481404
0.36858867875125084,-0.4863748542968525,-0.7925339304814208,-1.3101724516263873,0.5291990198523584,1.3141060936749878,-0.24340554007238335
0.37226142418360775,-0.487764664779871,-0.7963814658387095,-1.3095902580026426,0.5297251753607779,1.3125084766554114,-0.2434236361914834
0.37410561662933356,-0.48846801894212305,-0.7982922307053434,-1.3092955659215941,0.5299901704464375,1.3117089490699712,-0.24343424223009855
0.37595244561306074,-0.4891616060237147,-0.8001846595791882,-1.3089994956849351,0.5302531522948049,1.3108900070964304,-0.24344718515549904
0.3777958590965248,-0.4898517176093503,-0.8020577939472352,-1.308703485225803,0.530516421773433,1.3100939550069466,-0.2434633639213327
0.3796408305045124,-0.4905513566201233,-0.8039149893140546,-1.3084012431776597,0.5307907166714788,1.3092874765386773,-0.24348307796064936
0.38147789240757923,-0.49123997016784526,-0.8057697877983955,-1.3080844401748164,0.5310644363090032,1.3084913045668904,-0.24350393050005373
0.38513541791436023,-0.49262762364207446,-0.8094880733433432,-1.3074398685926885,0.5316259692922949,1.3068644460828598,-0.2435404224985529
0.38695492289598277,-0.49332198957684487,-0.8113597695600865,-1.3071222866275831,0.531906400069859,1.306060843808115,-0.2435570805754324
0.3887699936504745,-0.4940184528519608,-0.8132447683491394,-1.3068142320876155,0.5321802157004923,1.3052224873373903,-0.24357068268987475
0.3905864425605768,-0.49473163409056614,-0.8151439683369004,-1.306504499849904,0.5324481829073351,1.3043810150176187,-0.24358260688840744
0.39240355065972093,-0.4954416394844314,-0.8170314837816515,-1.3061859591536242,0.5327232448775873,1.303535228353019,-0.2435941717672804
0.39422838860395604,-0.4961448737643804,-0.8189019217250872,-1.3058580108054267,0.5329960058057536,1.3026702069601488,-0.24360609607489617
0.3978762669123797,-0.497541934781444,-0.8225930030411502,-1.305205649600681,0.5335587849541311,1.3009816895933868,-0.2436347982326114
0.39970296232327124,-0.49823384405620913,-0.8244146651406452,-1.3048829743284862,0.5338521589188951,1.3001615492331484,-0.24365091700275202
0.4015228867293297,-0.4989272512598048,-0.8262387241226185,-1.3045551458625917,0.5341578044681629,1.299355789840531,-0.2436670957685857
0.4033351411769071,-0.499615145731875,-0.8280698537606408,-1.3042255197075676,0.5344651759735279,1.2985475736788255,-0.24368237558077152
0.40514577781335104,-0.5003060962754654,-0.8299098517438418,-1.3038934368925383,0.5347745607161851,1.297738638550551,-0.24369525861956204
0.4069516207939213,-0.5010060349374543,-0.8317586580765284,-1.3035563805436394,0.5350926700107073,1.2969225127748414,-0.2437053253514383
0.4105648046838923,-0.5024122638418295,-0.8354873100045682,-1.3028813091146667,0.5357204515036144,1.2952550278254797,-0.24372150411727198
0.41237711901807966,-0.5031147191595167,-0.8373368952995166,-1.3025430543790701,0.5360385607981365,1.294417150665801,-0.24372977326910175
0.41419692365091815,-0.5038143582793727,-0.8391704817066273,-1.3022058182612581,0.5363593545835811,1.2935780152328147,-0.24373942057654216
0.41601415152328225,-0.5045084246720103,-0.8409842343012014,-1.3018718179838795,0.5366814905272205,1.292751523183096,-0.24375110511955195
0.41783509465620844,-0.5051996747577335,-0.8427804897518582,-1.301529668327891,0.5370159942230053,1.2919289859403793,-0.24376404815403552
0.41965304160422434,-0.5058915839234156,-0.8445715921178983,-1.301181047209202,0.5373618109684686,1.2911261027412861,-0.2437788486551755
0.42326994064567436,-0.5072761214395146,-0.8481670393175121,-1.3004860220853898,0.5380563207620026,1.2895435858740656,-0.24381048700210795
0.4250748247859868,-0.5079823517952908,-0.8499733017225183,-1.3001324874285243,0.5384075064893109,1.2887548440961536,-0.24382762439003328
0.42687365699711793,-0.5086883424955441,-0.8517902300527495,-1.2997838064232254,0.5387542821186654,1.2879546574307548,-0.24384482177365163
0.42867356771264375,-0.5094002054651489,-0.8536224383042496,-1.2994405782628422,0.5391001946827046,1.2871298430787794,-0.24386273823292184
0.43047377807938547,-0.5101232137801076,-0.855453148517836,-1.299093155530851,0.53944054680228,1.286328458026683,-0.24388329112111024
0.432282017833351,-0.5108423271746743,-0.8572657625032394,-1.2987411189118991,0.5397894314875025,1.2855149687889746,-0.2439057615807312
0.43590610730407003,-0.5122709666520604,-0.860843652890492,-1.2980441164391274,0.5404895019000333,1.283907584688738,-0.24395561592906673
0.43772147770977765,-0.5129775565456626,-0.862608989069868,-1.297690042475523,0.5408587119915929,1.2831235766800897,-0.24398563646486565
0.4395340318085711,-0.513682708287961,-0.8643710896269772,-1.297327280044736,0.5412311816600635,1.2823606009797588,-0.24402122961880005
0.44134185213810073,-0.5144029602916985,-0.866133969146348,-1.2969596639623824,0.5416146769224847,1.2815943895480777,-0.2440631144665217
0.4431436804250591,-0.5151163811858268,-0.8679056570152044,-1.2965858160728514,0.5420047873318369,1.2808555022275845,-0.2441123696215084
0.4449455684895443,-0.5158290830043033,-0.8696866326536753,-1.296213046687715,0.5423907752734959,1.2801141580289197,-0.24417187127728432
0.44854461106741716,-0.517281391328008,-0.8732740504660653,-1.295480331178706,0.5431609295566734,1.2786346455854134,-0.24432365143585627
0.4503469185563383,-0.5180120694923646,-0.8750699464879792,-1.2951104979827868,0.5435444246445618,1.2778772425032179,-0.24440688193364382
0.4521571956549563,-0.5187428076524142,-0.8768509821221431,-1.294728680592642,0.5439372197193694,1.2771475829566459,-0.24449191001147785
0.45397340501861877,-0.5194669543583775,-0.878617157259474,-1.2943484211270206,0.5443384515412482,1.2764191817924648,-0.2445759194715272
0.4557881761218945,-0.5201920000179888,-0.8803673933955772,-1.2939705585438777,0.5447430389331468,1.275691919128371,-0.24466508201619305
0.4576082204102559,-0.5209177646441687,-0.8821028889171505,-1.2935894002336916,0.5451658423264486,1.2750055225851316,-0.24475424466994197
0.461239320650414,-0.5223655189675227,-0.8855781943051247,-1.2928164177971775,0.5460145172273442,1.273653042949484,-0.24493982040240186
0.4630479200512886,-0.5230984142454447,-0.8873211200205728,-1.2924158450988907,0.5464484420331726,1.2730070932117454,-0.24503281798084975
0.4648583169231265,-0.5238346651370198,-0.8890681803119359,-1.292006763484168,0.5468799699783392,1.2723563498181332,-0.24512078224790101
0.46666499875256845,-0.5245748707265139,-0.8908220117172152,-1.291600558281136,0.5473116897351906,1.2717086023912652,-0.24521246155734824
0.46847347827114,-0.5253235852324436,-0.8925921416615481,-1.291204000276461,0.5477451352736064,1.2710770338393138,-0.24530569879131903
0.47028465410523973,-0.5260748762806817,-0.8943592156434438,-1.2908061838893956,0.548183086728552,1.2704303650259234,-0.24540157256329112
0.4739295363378362,-0.5275762599904602,-0.8978505199192557,-1.2899889196135983,0.5490744255048808,1.2691637523169816,-0.24559763456114622
0.47575299601737764,-0.528324914500697,-0.8995764880156915,-1.2895843322216995,0.5495192799115511,1.2685574703133993,-0.24569554567777077
0.47758238796196345,-0.5290732094731078,-0.9012874158463813,-1.2891761495606249,0.5499718041676193,1.2679695243026061,-0.2457951344921388
0.4794106414064616,-0.5298312117486521,-0.9029927710589356,-1.28876155532346,0.5504330529755522,1.2674028501465702,-0.24589076860858797
0.48123446062382896,-0.5305851393348914,-0.9047027401584508,-1.2883361152830737,0.5508960275650495,1.2668591258702842,-0.24597567691320207
0.48305480445432325,-0.5313413439213062,-0.9064190609474462,-1.287905402275768,0.5513698359368128,1.2663158810141268,-0.24605345456607408
0.48669609141774367,-0.5328750250579758,-0.9098676415266647,-1.2870477511901628,0.5523266564996168,1.265241794811391,-0.24618707860985295
0.4885173939794127,-0.5336461500278336,-0.9116086497797633,-1.2866263259524715,0.5527936577382314,1.2647061599180216,-0.24625263230389324
0.49033719850316815,-0.5344277012673935,-0.9133530735331251,-1.286202983143348,0.5532577828487717,1.2641705250246524,-0.24632411826297795
