AdrianPrados/GaussianPathwiseLfD/ExpJointIiwa/joint_gaussian_1_joints.csv
joint_0,joint_1,joint_2,joint_3,joint_4,joint_5,joint_6
-0.009789314082408688,-0.43599377191990535,-0.0026905184170642406,-1.574226511603799,0.0017929358998692781,1.1334729051277075,-0.000255863195763882
-0.009789254195798729,-0.4359938918022084,-0.002689679568192501,-1.5742254329903214,0.0017935111603907354,1.1334729051277075,-0.000255863195763882
-0.009789254195798729,-0.43599377191990535,-0.0026892001480635936,-1.5742245941414497,0.0017941822394881273,1.1334730249009273,-0.0002557433134608856
-0.009792609809451845,-0.4359937120332954,-0.0026905184170642406,-1.5742270509105378,0.0017972501792472828,1.133470148707403,-0.00025634261589278914
-0.009802736427938073,-0.43599377191990535,-0.0026938740307173564,-1.5742315449151956,0.0018165208831173278,1.1334698490561872,-0.00025664215802566266
-0.009807110659375883,-0.43599377191990535,-0.0026941735728502297,-1.5742322639908475,0.0018301349748816593,1.1334700888207931,-0.0002562227335897928
-0.009813881773292074,-0.43599377191990535,-0.002696091035199702,-1.5742346608733258,0.0018460499341988947,1.1334694896274444,-0.00025664215802566266
-0.009822750118470691,-0.43599377191990535,-0.0026989673378069886,-1.574238016377896,0.0018679093104154976,1.1334689503207054,-0.0002565223848057446
-0.009833475930305745,-0.43599377191990535,-0.002701244337982372,-1.5742416116470719,0.0018957125799326925,1.1334678118206178,-0.0002568219269386181
-0.009847018158138125,-0.43599377191990535,-0.002702262955767067,-1.5742447874918122,0.0019273510359482198,1.1334661939004012,-0.0002569418092416145
-0.009864095659453499,-0.43599377191990535,-0.002702203069157108,-1.5742481431054651,0.0019620572571899773,1.1334640367825288,-0.00025664215802566266
-0.009907298776175818,-0.43599377191990535,-0.002701244337982372,-1.5742560527194691,0.002039810977234624,1.1334593030132651,-0.0002569418092416145
-0.009933364504972805,-0.43599377191990535,-0.0027016037667252045,-1.5742606666064298,0.0020843922713841656,1.1334567263618738,-0.0002574211202874434
-0.009962605969426875,-0.43599377191990535,-0.0027019034179411564,-1.5742647412957347,0.0021310827959347424,1.1334535505171335,-0.00025712157815456987
-0.009995442812140053,-0.43599365214668545,-0.002702262955767067,-1.5742682765692178,0.002180170181147083,1.1334497754790447,-0.000257241351374488
-0.010030916083771447,-0.43599377191990535,-0.002702682380202937,-1.5742713325316549,0.002231270978184524,1.1334462402055616,-0.00025754100259043976
-0.01006914577570713,-0.43599365214668545,-0.002703161800331844,-1.574273969069656,0.0022802623702880046,1.1334419258607338,-0.0002574211202874434
-0.010150578584365135,-0.4359937120332954,-0.002704060535813543,-1.5742785830657,0.0024037479055251075,1.1334323384399032,-0.000257241351374488
-0.010194440890129317,-0.43599365214668545,-0.002705019376071357,-1.574282118339183,0.002484665383904844,1.1334284436285944,-0.00025754100259043976
-0.010241359049247585,-0.4359935322643824,-0.0027066970738148367,-1.574286133141878,0.0025667333833274955,1.133422691132463,-0.00025754100259043976
-0.010288936397407715,-0.4359935322643824,-0.0027092138385962127,-1.5742902676087098,0.0026455416313061974,1.1334164594343688,-0.00025754100259043976
-0.010338670972523311,-0.4359935322643824,-0.0027123895742532946,-1.5742947617224505,0.0027271301887833257,1.1334090891271036,-0.00025754100259043976
-0.010389663820946516,-0.4359933524954695,-0.0027163443812552356,-1.5742994954917142,0.0028149506188876253,1.133400220781925,-0.00025754100259043976
-0.010488833319961756,-0.4359931727265565,-0.0027261115709986306,-1.574311839223766,0.0029985489587548418,1.1333761325111706,-0.00025754100259043976
-0.010538388126164396,-0.4359931727265565,-0.002731684189134092,-1.574318849993205,0.003096052650082131,1.1333607327075987,-0.00025754100259043976
-0.010587463512238129,-0.4359931727265565,-0.0027377362273984605,-1.57432616041386,0.0031963366509078473,1.1333429361306315,-0.00025754100259043976
-0.010638156818528461,-0.4359931727265565,-0.0027440280302688217,-1.5743332310699092,0.003299113330971262,1.1333219038223141,-0.00025754100259043976
-0.010688490477909804,-0.43599323272224955,-0.002750859030794971,-1.5743405414905642,0.003403423980914254,1.1332981152027757,-0.00025754100259043976
-0.010738284939635358,-0.4359933524954695,-0.0027577499179310795,-1.574348750646701,0.003509076963584955,1.1332733677429794,-0.00025754100259043976
-0.010840690170000717,-0.4359933524954695,-0.0027738088014617576,-1.5743654686101904,0.003726231003651015,1.1332240527013826,-0.00025754100259043976
-0.0108925818629887,-0.4359934723777725,-0.002782856915553331,-1.5743738576443234,0.003838786938046279,1.1332006833971968,-0.00025754100259043976
-0.010945072749325508,-0.4359934723777725,-0.0027924442273006924,-1.574382186682763,0.003958437461317975,1.1331769546642683,-0.00025754100259043976
-0.010995346631179969,-0.4359935322643824,-0.0028027507237829534,-1.5743901561833769,0.004078759063687062,1.1331517278934262,-0.0002574211202874434
-0.011045680290561312,-0.4359934723777725,-0.0028134765356180066,-1.5743974066083388,0.004204066024531546,1.1331242840090185,-0.0002577207715033952
-0.011096433483461603,-0.4359935322643824,-0.002824741763275004,-1.574404537260081,0.004335413220851332,1.1330946828976556,-0.0002577207715033952
-0.01119446448238915,-0.43599365214668545,-0.002849369340768348,-1.574418678572179,0.004604530948737019,1.1330327844684842,-0.0002574211202874434
-0.011241442637200456,-0.43599365214668545,-0.002863690421779431,-1.5744259291062241,0.004742685103672508,1.1330017453149006,-0.0002574211202874434
-0.011286383447359292,-0.43599377191990535,-0.00287968941870015,-1.5744334791824022,0.004884578277464545,1.1329682493922286,-0.0002577207715033952
-0.011331144597688253,-0.43599377191990535,-0.002897186344451393,-1.5744416883385388,0.005024745844225135,1.1329318772760326,-0.0002577207715033952
-0.011374227832107576,-0.4359937120332954,-0.0029155222281574546,-1.5744504966880244,0.005166447380865302,1.1328952055086203,-0.0002577207715033952
-0.011414315099782774,-0.43599377191990535,-0.0029346969607352553,-1.574459844453332,0.005313038282872007,1.132859852010209,-0.0002577207715033952
-0.011493890332701264,-0.43599365214668545,-0.0029783196109765234,-1.5744794386103458,0.005608042036091573,1.1327885459291203,-0.0002578405447233133
-0.011530981524549256,-0.4359937120332954,-0.003002707423863875,-1.574489385569002,0.00576383693190867,1.1327496571572258,-0.00025754100259043976
-0.011566694560786642,-0.4359937120332954,-0.0030290728038768143,-1.5744993924142683,0.005918577299791711,1.1327069932381593,-0.0002577207715033952
-0.011601808294592125,-0.4359935322643824,-0.0030572356548531515,-1.5745093991504515,0.006075810346912451,1.1326645091970888,-0.0002577207715033952
-0.01163560375939696,-0.4359937120332954,-0.0030859379216514327,-1.574519465991411,0.006239179273551502,1.132626459274066,-0.00025754100259043976
-0.01166760164415532,-0.4359937120332954,-0.003115479037321454,-1.5745295926098972,0.006405807951634503,1.1325944613893077,-0.00025754100259043976
-0.01173117798923617,-0.4359937120332954,-0.003179175155622222,-1.574548527686952,0.006743858854591108,1.1325499998901947,-0.00025754100259043976
-0.011763055991691532,-0.43599377191990535,-0.0032137496917719163,-1.5745576955742635,0.006916335956464617,1.1325354390445777,-0.00025754100259043976
-0.011793855489752243,-0.4359935322643824,-0.003248324118838533,-1.5745662043816162,0.007095044581899446,1.132522496119177,-0.0002577207715033952
-0.011824235454294004,-0.4359937120332954,-0.0032839172727729227,-1.5745736945711843,0.007272507042248352,1.1325103321560384,-0.00025754100259043976
-0.011855634145703538,-0.43599377191990535,-0.0033207688090980004,-1.5745807053406233,0.007453900333138599,1.1324993665795973,-0.0002577207715033952
-0.011887572143851938,-0.43599365214668545,-0.003358339311991822,-1.5745871768033235,0.007640278982504242,1.1324906780033317,-0.0002577207715033952
-0.011951627799978617,-0.43599365214668545,-0.0034343792714273194,-1.5745994606487652,0.008023007172719247,1.1324795326579777,-0.0002577207715033952
-0.011984404646998757,-0.4359938918022084,-0.003474706194625431,-1.5746058123382456,0.008211399233909992,1.1324756977332788,-0.0002577207715033952
-0.012017660914147806,-0.4359938918022084,-0.0035154525422594124,-1.5746124635698588,0.008400845823034792,1.1324729413129744,-0.00025754100259043976
-0.012050857185603815,-0.4359938918022084,-0.0035555996965445686,-1.574619054805779,0.008589141891116677,1.1324702448883632,-0.00025754100259043976
-0.012083034839275131,-0.43599401168451135,-0.003596885350917416,-1.5746253466086493,0.008779163740762933,1.1324684473083166,-0.0002577207715033952
-0.012115212492946446,-0.4359938918022084,-0.0036405678877686433,-1.5746317581847395,0.008969569213778778,1.1324667095057972,-0.0002577207715033952
-0.01217908838016017,-0.43599401168451135,-0.0037299701970404876,-1.5746442816857043,0.00936504860497593,1.1324649119257506,-0.00025754100259043976
-0.012210846609395615,-0.43599413145773125,-0.0037776674275036147,-1.5746503936105785,0.009566000055464024,1.1324636535433599,-0.00025754100259043976
-0.012242365074025067,-0.43599413145773125,-0.0038250050110577526,-1.574656145997627,0.009771649408699713,1.132463234118924,-0.0002577207715033952
-0.012274063416650554,-0.43599413145773125,-0.0038734812037826603,-1.5746617786114554,0.009976052247783628,1.1324628146944882,-0.0002577207715033952
-0.012306061301408914,-0.43599413145773125,-0.003923934854550078,-1.5746678306497197,0.010183715012844416,1.1324623352743592,-0.0002577207715033952
-0.012337699648341362,-0.43599401168451135,-0.003975107471886239,-1.574674421994723,0.01039061053116603,1.1324622155011395,-0.00025754100259043976
-0.012398100148682051,-0.43599413145773125,-0.004080448782385765,-1.5746881438823852,0.010811880129121125,1.1324615563120974,-0.0002577207715033952
-0.012427221730833125,-0.43599401168451135,-0.004132160706460792,-1.5746953344207373,0.011027212569046879,1.1324614365388777,-0.0002577207715033952
-0.012455684342108492,-0.43599401168451135,-0.004185131012926506,-1.5747022254169565,0.011245517304688778,1.1324609571187487,-0.00025754100259043976
-0.012483068230823048,-0.43599401168451135,-0.004237142588217485,-1.5747092361863957,0.011462000265657446,1.1324603579253998,-0.0002577207715033952
-0.012509074073010077,-0.43599401168451135,-0.004289513592251297,-1.5747161270735317,0.011676757619594667,1.1324602380430968,-0.00025754100259043976
-0.012534480612765202,-0.43599401168451135,-0.004345419978851179,-1.574722658531925,0.011888159403512004,1.1324592793119221,-0.0002577207715033952
-0.012582836923187114,-0.4359938918022084,-0.004464363512876123,-1.5747354216884126,0.012316044148398007,1.1324573618495726,-0.00025754100259043976
-0.01260494784498216,-0.4359938918022084,-0.004528299286699806,-1.574741293957764,0.01253367763040959,1.132456163462875,-0.0002577207715033952
-0.012624841653211783,-0.4359938918022084,-0.004594631943001867,-1.5747468665758995,0.012749489512280866,1.1324549649670943,-0.0002577207715033952
-0.012642518347875982,-0.4359938918022084,-0.004659346788170408,-1.574752199647595,0.012970862187681922,1.1324541860048325,-0.00025754100259043976
-0.012658577231406658,-0.4359938918022084,-0.004722863246641299,-1.5747573528412946,0.013191947232822248,1.1324531075004378,-0.0002577207715033952
-0.012673976925895475,-0.4359938918022084,-0.0047881771760755875,-1.5747622663794714,0.01341849690385057,1.1324523884247861,-0.00025754100259043976
-0.012703038730519667,-0.4359938918022084,-0.004928272791637764,-1.5747705954179112,0.013874280911362629,1.1324504709624366,-0.00025754100259043976
-0.01271688050048492,-0.4359938918022084,-0.005001017024030105,-1.5747747898804358,0.014102268908227517,1.1324497518867847,-0.00025754100259043976
-0.01272970365266548,-0.4359938918022084,-0.005075439063249003,-1.5747788644606577,0.014333228851742702,1.132449152693436,-0.00025754100259043976
-0.012741388195675269,-0.4359938918022084,-0.005152437753859237,-1.5747823998432238,0.014561983746280918,1.1324482538488712,-0.0002577207715033952
-0.012751934347680445,-0.4359938918022084,-0.005230574835474085,-1.574785635574574,0.014794286022523813,1.1324476546555222,-0.00025754100259043976
-0.0127617614240338,-0.4359938918022084,-0.005311408450783263,-1.574788931192534,0.015024862517202335,1.1324469355798705,-0.0002578405447233133
-0.012779438118697996,-0.43599401168451135,-0.005476491181664695,-1.5747952229954045,0.01548141342238772,1.1324457371931729,-0.00025754100259043976
-0.012787227850398883,-0.4359938918022084,-0.005560380759411037,-1.5747975598821897,0.015707963267948967,1.132445137999824,-0.00025754100259043976
-0.012794658153356935,-0.43599401168451135,-0.0056466672196357585,-1.5747997769957551,0.015932595520261047,1.1324444189241722,-0.0002577207715033952
-0.012801009733754178,-0.43599401168451135,-0.005735949646604606,-1.5748019940002376,0.01615741958425792,1.1324439395040433,-0.00025754100259043976
-0.012806402692059762,-0.4359938918022084,-0.005824872644830622,-1.5748035520338441,0.01638090149006001,1.1324430406594785,-0.0002578405447233133
-0.012811376116846398,-0.43599401168451135,-0.0059170312653236785,-1.5748045107650188,0.016608697675240106,1.1324421419239967,-0.00025754100259043976
-0.012820124579722019,-0.43599401168451135,-0.006103745497871249,-1.5748064881139783,0.01707205571357412,1.1324398049281283,-0.00025754100259043976
-0.012823899617811005,-0.43599401168451135,-0.006197222496448032,-1.5748069075384141,0.017305220706066275,1.1324383069992978,-0.0002577207715033952
-0.012827914311422906,-0.43599401168451135,-0.006291418461593557,-1.5748072071896302,0.017539056952188745,1.1324363894278653,-0.00025754100259043976
-0.012832288542860715,-0.4359938918022084,-0.006386393498083941,-1.574807806382979,0.017770112888812792,1.132434352192296,-0.0002577207715033952
-0.012835584269903872,-0.4359938918022084,-0.006485982312451972,-1.5748085254586308,0.017999347050763604,1.1324314160030786,-0.00025754100259043976
-0.01283762161455634,-0.43599365214668545,-0.006587788349468505,-1.5748088251098469,0.01822973173375733,1.1324277608472928,-0.0002577207715033952
-0.012839119543386865,-0.43599365214668545,-0.006786187234108944,-1.5748095440764156,0.018698650565621124,1.132418712733201,-0.0002577207715033952
-0.01283893977447391,-0.43599365214668545,-0.006887573737606529,-1.5748097838410215,0.018933541339677652,1.1324124809260239,-0.00025754100259043976
-0.01283893977447391,-0.4359935322643824,-0.006990937699146624,-1.5748096639587186,0.01917121259776553,1.1324051106187587,-0.0002574211202874434
-0.01283882000125399,-0.4359934723777725,-0.00709669843408202,-1.5748096639587186,0.019410321832624127,1.1323963621558832,-0.0002578405447233133
-0.012838760114644033,-0.4359935322643824,-0.007206174320496443,-1.5748096639587186,0.01965422478880625,1.1323864151972267,-0.0002574211202874434
-0.012838160812212129,-0.4359935921509924,-0.007314811358039125,-1.5748096639587186,0.019899853352019825,1.132374550885304,-0.0002577207715033952
-0.012837441845643385,-0.4359935921509924,-0.007529269017127163,-1.5748095440764156,0.020407121605405986,1.1323460883831118,-0.0002578405447233133
-0.012837561618863303,-0.4359934723777725,-0.007639224323670493,-1.5748094841898055,0.020662817053212136,1.1323285314616676,-0.00025754100259043976
-0.012837321963340389,-0.4359934723777725,-0.007753194323825723,-1.5748094841898055,0.02091448585190101,1.1323070197332212,-0.0002578405447233133
-0.012836842543211482,-0.4359934723777725,-0.007866984555067997,-1.5748091845385896,0.021166346287741753,1.1322811338824204,-0.0002577207715033952
-0.012836183463252698,-0.4359933524954695,-0.007980175483878369,-1.5748089448830667,0.02141811090500656,1.1322517125399703,-0.0002578405447233133
-0.012835404500990917,-0.4359934723777725,-0.008090010908118702,-1.5748088251098469,0.021669396080325847,1.1322201940753407,-0.0002577207715033952
-0.0128336668075544,-0.4359933524954695,-0.008304288907376863,-1.574807806382979,0.022180499345677417,1.1321545204989976,-0.0002578405447233133
-0.012833427042948407,-0.4359934723777725,-0.00841238663818068,-1.57480726707624,0.022437153502841686,1.1321209646897155,-0.00025754100259043976
-0.012833427042948407,-0.4359935322643824,-0.008524618835816313,-1.5748069675341072,0.02269294476922377,1.132085611191304,-0.0002578405447233133
-0.012832827849599581,-0.4359934723777725,-0.008637210680360937,-1.5748061285761525,0.0229521875987346,1.1320468421926295,-0.0002577207715033952
-0.012832048887337801,-0.4359935322643824,-0.008748184604688961,-1.5748049900760648,0.023214402374895724,1.1320030398825585,-0.00025796042702630966
-0.012831569576291972,-0.4359935322643824,-0.008860536684627593,-1.574804330996106,0.02347632952079612,1.1319569605723119,-0.0002577207715033952
-0.012830251307291325,-0.4359933524954695,-0.00908661910919854,-1.5748036718070642,0.024014373339415623,1.131859888304559,-0.0002577207715033952
-0.012829412349336508,-0.4359934723777725,-0.009201907378354416,-1.5748037916893671,0.024286942630430054,1.1318071577626994,-0.0002577207715033952
-0.012828573500464768,-0.43599323272224955,-0.009317555076253125,-1.574804091340583,0.02456238804951885,1.1317457985311838,-0.0002577207715033952
-0.012827854424812947,-0.4359933524954695,-0.009432244152060176,-1.574804690533932,0.024841572487464186,1.1316771288790135,-0.0002577207715033952
-0.012826536155812298,-0.43599323272224955,-0.009544416463085853,-1.5748057091517165,0.02512861858649221,1.1316031262642303,-0.0002578405447233133
-0.012825517538027603,-0.4359930529533366,-0.009657787269892257,-1.5748067877651943,0.02541949969748564,1.131526606993749,-0.00025754100259043976
-0.012824618693462827,-0.4359928131887306,-0.00988998161933753,-1.5748086453409338,0.02599618074242117,1.1313780625665273,-0.00025754100259043976
-0.012823480193375135,-0.43599251364659775,-0.010007726657581746,-1.5748095440764156,0.026282076320406276,1.1312976483756538,-0.0002577207715033952
-0.012822281806677485,-0.43599215410877185,-0.010122116082172845,-1.5748102631520673,0.026574012133866686,1.1312117215623383,-0.0002577207715033952
-0.012821382962112708,-0.435991734684336,-0.01023392885537261,-1.5748109223411093,0.026867769372934478,1.1311166267526278,-0.0002578405447233133
-0.012821203193199753,-0.43599143503312004,-0.010345262317526546,-1.5748119409588939,0.027160759714328946,1.1310203933337468,-0.0002577207715033952
-0.012820663886460885,-0.43599089572638117,-0.010460370817769467,-1.5748130794589816,0.02745854377704694,1.1309257179484724,-0.0002577207715033952
-0.012818506768588499,-0.43598987710859644,-0.010695141709522998,-1.5748145774968951,0.028055933328090303,1.1307437974808816,-0.0002577207715033952
-0.01281652931054599,-0.4359898171129034,-0.010811448705546648,-1.574814996921331,0.028360524349424,1.130653016906916,-0.0002577207715033952
-0.01281413242806761,-0.4359896973396835,-0.01092649721009653,-1.574815116803634,0.028666170073224678,1.130557322903857,-0.0002578405447233133
-0.012811555885759354,-0.4359895774573805,-0.011041665596949413,-1.574814996921331,0.028970665275982438,1.130464624976625,-0.0002577207715033952
-0.012809758196629798,-0.4359895774573805,-0.01115815225280294,-1.574814937034721,0.029279762388378934,1.1303813345922276,-0.0002578405447233133
-0.012808739578845103,-0.4359895774573805,-0.01127403971530764,-1.5748143977279823,0.0295905852823398,1.1303109272466205,-0.0002578405447233133
-0.012808080498886319,-0.4359895774573805,-0.01150323798892571,-1.5748130794589816,0.030225078089819613,1.1301967774775523,-0.0002577207715033952
-0.012807780847670367,-0.4359894576841606,-0.011616668682342074,-1.5748120608411968,0.030544337905384623,1.130138414321864,-0.0002578405447233133
-0.012806702234192635,-0.4359895774573805,-0.011730099375758437,-1.574811042114329,0.030867049109545446,1.1300747780901732,-0.0002578405447233133
-0.012804724885233204,-0.4359894576841606,-0.011843350300261846,-1.5748100833831544,0.031190910660216262,1.1300065279715217,-0.0002578405447233133
-0.012802627653970776,-0.4359894576841606,-0.01195714053150412,-1.5748092445342827,0.031520908264938315,1.1299358809703919,-0.0002578405447233133
-0.012800170884882438,-0.4359894576841606,-0.012069612493745746,-1.5748094841898055,0.03185589140266869,1.1298693085494838,-0.0002578405447233133
-0.012793639426489162,-0.4359893378018576,-0.01228940322452941,-1.5748103830343703,0.032541964274598545,1.1297392797748809,-0.0002577207715033952
-0.012789804501790217,-0.43598939768846756,-0.012399897728728527,-1.5748111021100222,0.03289324599501574,1.129676122854236,-0.0002578405447233133
-0.012785669925875322,-0.4359894576841606,-0.012511890379924326,-1.574811701303371,0.033246924401561774,1.1296076929666714,-0.0002578405447233133
-0.012780217080959779,-0.4359893378018576,-0.012621246384035752,-1.574811821076591,0.03360357492929104,1.1295292562338406,-0.0002578405447233133
-0.012774045269475492,-0.4359894576841606,-0.012729284119146532,-1.574811521534458,0.0339620470571606,1.1294447673536625,-0.0002578405447233133
-0.012767513811082215,-0.4359894576841606,-0.012838160812212129,-1.5748112218832422,0.034322244966594535,1.1293551253888676,-0.0002578405447233133
-0.012753971692332913,-0.4359894576841606,-0.013056932925211097,-1.5748113417655452,0.035067280122111584,1.129175781463585,-0.00025796042702630966
-0.01274576242711308,-0.4359894576841606,-0.013165270311537828,-1.574811401652155,0.035445118772427134,1.1290881768434429,-0.00025796042702630966
-0.012736654426411547,-0.4359893378018576,-0.013271450470909094,-1.574811821076591,0.03583062744667349,1.1289963776516925,-0.00025796042702630966
-0.012726827350058194,-0.43598939768846756,-0.013376252583752832,-1.5748121806144169,0.03622064203744972,1.1289010430773763,-0.0002582600782422614
-0.012716341193746055,-0.4359893378018576,-0.013478837473948069,-1.5748123603833297,0.03661592961696208,1.1288051693054042,-0.00025861961606817225
-0.012705435612998046,-0.4359892179195546,-0.013582800628836988,-1.57481224061011,0.037013710050245056,1.128710014609084,-0.0002589191582010458
-0.012681586997766482,-0.43598915803294463,-0.013788390051829486,-1.5748113417655452,0.037823364275987946,1.1285277944902772,-0.00025993788506881925
-0.012668584076672968,-0.43598915803294463,-0.013890255975455979,-1.574811042114329,0.038236963850012226,1.1284332388782226,-0.00026041719611464816
-0.012654382768881804,-0.43598915803294463,-0.013987268247515753,-1.5748105028075903,0.03865832926654326,1.128335507530511,-0.00026065685163756267
-0.012639821923264728,-0.43598903815064166,-0.014080385708266625,-1.5748102032654574,0.03908774798130884,1.128243768334454,-0.0002612561540694662
-0.01262574049777656,-0.43598903815064166,-0.014172843979975633,-1.5748096639587186,0.03952560361767857,1.1281596989877947,-0.0002615556962023397
-0.012611898727811306,-0.4359889183774217,-0.014265182478464724,-1.5748088251098469,0.03996576012160119,1.128084078561878,-0.00026233465846412044
-0.012583196461013024,-0.43598879849511873,-0.014459087140281277,-1.5748061285761525,0.040859399940015896,1.1279260664870456,-0.00026323350302889754
-0.012567497115308256,-0.4359886786128157,-0.014551006214334496,-1.5748048103071517,0.04131643028714681,1.1278381622156874,-0.0002638326963777228
-0.012551258462864623,-0.4359886786128157,-0.014639569565651524,-1.5748030127271053,0.04178103466509967,1.1277433070615,-0.0002644318897265481
-0.012534900037201072,-0.4359886786128157,-0.014728732219400454,-1.5748018742270176,0.04225589756479698,1.1276462947894403,-0.00026521085198832884
-0.012518481615844483,-0.4359886786128157,-0.014816157179712866,-1.574800915495843,0.04274063553740207,1.1275495221729035,-0.0002658700410301915
-0.012502362845703845,-0.4359888583817287,-0.014905080068855804,-1.5748008555001498,0.043228345631190386,1.1274563448255426,-0.00026652912098897583
-0.012469645885293664,-0.4359886786128157,-0.015084124452005486,-1.5748019940002376,0.044211627305316775,1.1272559685919428,-0.00026754784785674925
-0.01245178942171651,-0.43598879849511873,-0.01516957195427539,-1.5748020539959307,0.044714772916476804,1.1271527245127055,-0.0002686263522514035
-0.012433573420313445,-0.4359886786128157,-0.01525154406967226,-1.5748021138825405,0.04522904011469639,1.12705864832078,-0.00026946531020622153
-0.012415656961043254,-0.4359886786128157,-0.01533111930259075,-1.5748020539959307,0.04575068935752021,1.1269720623184225,-0.00027024427246800226
-0.012397980266379055,-0.4359886786128157,-0.015411233842248106,-1.5748018742270176,0.04628067970337224,1.126891288589723,-0.000271023234729783
-0.012380782882760686,-0.4359886786128157,-0.015492726537516068,-1.5748014548025817,0.046815271958863,1.1268099156676752,-0.00027204185251447817
-0.012345609153262166,-0.4359889183774217,-0.015662243495528347,-1.5748000166512781,0.04788474427463817,1.1266557386266247,-0.00027413919285998407
-0.012327213382946145,-0.4359889183774217,-0.015746792153233474,-1.5747997170000623,0.04842681474237496,1.1265866496591015,-0.0002749181551217648
-0.0123082184192813,-0.4359889183774217,-0.0158304420754569,-1.5747994773445393,0.048974637640793385,1.1265286459321562,-0.0002762364241224118
-0.012289163459923418,-0.4359889183774217,-0.015911155808463084,-1.5747997170000623,0.049528884048990855,1.1264798701972984,-0.00027731492851706604
-0.012270767689607397,-0.43598903815064166,-0.01599180965485931,-1.5748000166512781,0.050088595257609246,1.1264373261605347,-0.0002786931932107503
-0.012252192150378422,-0.43598903815064166,-0.016069587307731323,-1.5747998967689751,0.05065079931999825,1.1263987969264662,-0.00028037089095422983
-0.012216658992137069,-0.43598915803294463,-0.016231913618308464,-1.574800136533581,0.05178882118747476,1.1263302471565988,-0.00028252811790969486
-0.012198622650563882,-0.43598903815064166,-0.016316222620490674,-1.5747998967689751,0.052368282541908714,1.1263055595834124,-0.0002837265046073454
-0.012180107107027943,-0.43598903815064166,-0.01640286850945823,-1.5747997769957551,0.05294899006142859,1.1262860253130087,-0.0002850447736079924
-0.012160572727541154,-0.43598915803294463,-0.016486099007245788,-1.5747998967689751,0.053529793574057336,1.1262733220431311,-0.00028648292491163574
-0.0121401996082657,-0.43598915803294463,-0.016567771471426705,-1.5748000166512781,0.05410532392341703,1.126265831853563,-0.00028786108052224175
-0.012120485568949034,-0.43598915803294463,-0.016648664973345842,-1.574800436075714,0.05468977063632638,1.1262615176178183,-0.0002895388873487996
-0.012101071071765241,-0.43598915803294463,-0.016732075240046357,-1.574800615844627,0.05527623076106083,1.1262610980842993,-0.0002913964630883128
-0.012063560455481378,-0.43598915803294463,-0.016899015437584222,-1.574800496071407,0.056465257606998845,1.1262613378489055,-0.00029391311878661035
-0.012045284567468355,-0.4359893378018576,-0.01698542167102886,-1.574800555958017,0.05706504401870397,1.1262616373910384,-0.0002955909256131681
-0.012026349490413467,-0.43598903815064166,-0.017069191475555287,-1.5748000166512781,0.057663392453638385,1.1262618171599512,-0.00029666953909090066
-0.01200789372440441,-0.4359892179195546,-0.017152122322126893,-1.574800256306801,0.05826902728913402,1.1262625362356031,-0.0002984072325274175
-0.011989677723001345,-0.4359893378018576,-0.01723295593743607,-1.5748011551513659,0.0588727445313805,1.126262775891126,-0.00030044446809680787
-0.011971761263731154,-0.43598915803294463,-0.01731223151913861,-1.5748014548025817,0.0594812554949505,1.1262634949667778,-0.000302721468272191
-0.01193796579892632,-0.43598915803294463,-0.017470962560539722,-1.5748012150379758,0.06071237095580035,1.1262642140424295,-0.0003064965063611765
-0.011922206566611592,-0.43598915803294463,-0.01755287478932663,-1.574801035269063,0.061330756992278135,1.1262645136936456,-0.00030847396440368606
-0.011906147683080914,-0.4359892179195546,-0.017634307597984636,-1.5748003163024942,0.061952402780199874,1.1262646933534755,-0.000309792233404333
-0.011889369723898414,-0.43598915803294463,-0.01771460190655495,-1.5747994773445393,0.06257893793348814,1.1262651128869943,-0.00031152992684084984
-0.011872352218276079,-0.43598915803294463,-0.017793817601647527,-1.5747988182645805,0.06321266384329463,1.1262656521937333,-0.00031320773366740767
-0.011855694141396575,-0.4359893378018576,-0.01787093606547768,-1.5747983987310614,0.06384945751832735,1.126265771966953,-0.0003145260026680546
-0.01182441522320696,-0.4359893378018576,-0.018018282106001874,-1.5747982190712317,0.06513435826713714,1.126266191391389,-0.00031872046519291
-0.01181075322215466,-0.4359893378018576,-0.018091445871913164,-1.5747982789578416,0.06577671273569963,1.126266371160302,-0.00032003873419355694
-0.011798469376712967,-0.4359893378018576,-0.018164669415351335,-1.5747983987310614,0.06642318967195535,1.126266371160302,-0.0003215966587171184
-0.011786844720313138,-0.43598939768846756,-0.018241787988264563,-1.5747985186133646,0.06707091312236282,1.126266491042605,-0.0003230946966307208
-0.01177516006822027,-0.4359893378018576,-0.018318487027658845,-1.5747988182645805,0.06772381374293049,1.1262670303493438,-0.00032411331441541596
-0.011763235760604488,-0.4359894576841606,-0.018395365835966085,-1.5747987582688874,0.06837307098868463,1.1262674497737797,-0.00032549157910910026
-0.011740885183286528,-0.4359895774573805,-0.018538397531662427,-1.5747989380378005,0.06967829696929852,1.1262687680427803,-0.00032938639041800384
-0.01173111810262621,-0.4359896973396835,-0.018610482575012906,-1.5747990579201034,0.07033397789936462,1.126269726773955,-0.00033136384846051343
-0.011722669181883463,-0.4359896973396835,-0.01868430542088298,-1.5747990579201034,0.07099358965997206,1.1262709851563457,-0.00033316142850698934
-0.011715478643531403,-0.4359898171129034,-0.018758547691188922,-1.5747989380378005,0.07165195490642773,1.1262725430808693,-0.0003347793487235881
-0.011709067067441122,-0.43599011676411936,-0.018832849957187904,-1.5747990579201034,0.07230859454585195,1.126274460543219,-0.00033567819328836514
-0.011703015029176754,-0.43599011676411936,-0.018907451765319758,-1.5747990579201034,0.07296763104593793,1.1262761982366554,-0.00033693646659597483
-0.011694985641952954,-0.4359903564196423,-0.01905581642362865,-1.5747990579201034,0.07430181099164485,1.126277276850133,-0.0003398126601201832
-0.011693128066213442,-0.4359903564196423,-0.019129519387195728,-1.5747990579201034,0.07496947605048684,1.126277516505656,-0.0003410111559009121
-0.011692948297300486,-0.4359903564196423,-0.01920573911554418,-1.5747990579201034,0.07563359390215708,1.126277636387959,-0.0003422694292085217
-0.011693727259562267,-0.43599053618855527,-0.019281119885937816,-1.5747991178067133,0.07629982080969544,1.1262778161568718,-0.000343647693902206
-0.011695045528562913,-0.43599089572638117,-0.019358717660813797,-1.5747990579201034,0.07696566444293004,1.126277995925785,-0.00034454642938390483
-0.011696483679866558,-0.4359910754952941,-0.019437154502727674,-1.5747988182645805,0.07763371312514163,1.1262778161568718,-0.0003457449251646337
-0.011699060222174814,-0.43599161480203297,-0.019599360931001817,-1.5747980991889285,0.07896098994459107,1.126277995925785,-0.00034778216073402406
-0.011699000335564855,-0.43599227388199174,-0.01968043420183391,-1.5747976797644927,0.07961820484453674,1.126277995925785,-0.0003489806565147529
-0.01169876068004194,-0.4359929330710336,-0.01976432377958025,-1.5747971404577539,0.08028299377530437,1.1262781156990047,-0.000350358812125359
-0.011698640797738944,-0.4359934723777725,-0.019848153470716636,-1.5747961817265792,0.08094433114294326,1.1262782355813077,-0.00035143742560309147
-0.011699359873390765,-0.43599377191990535,-0.019934619590771235,-1.5747945638063625,0.0816086408062983,1.1262784752368307,-0.0003523961567778276
-0.011700438486868497,-0.4359942513400343,-0.020021265588821866,-1.574793125764142,0.08227122468808896,1.1262782355813077,-0.00035305523673661194
-0.011701696760176107,-0.43599479064677316,-0.020109049977877113,-1.5747920471506642,0.08293189097663045,1.1262786550057438,-0.0003540139679113481
-0.011705292029352138,-0.43599509018890603,-0.020293666979162257,-1.5747879125747495,0.08426587893611966,1.1262784752368307,-0.0003556318881279468
-0.011706670294045821,-0.4359957493779479,-0.020388042822303814,-1.5747847967257023,0.08492577832698783,1.1262786550057438,-0.00035641085038972753
-0.011707688911830516,-0.43599628868468676,-0.020482478442972255,-1.5747810216876132,0.08558050054769581,1.1262783554636109,-0.00035784900169337085
-0.011709007180831165,-0.43599676799573256,-0.02057703405502677,-1.5747764676872624,0.08623416806593681,1.1262786550057438,-0.000358807732868107
-0.011710744874267681,-0.4359970076512555,-0.02067536459608719,-1.574770835073434,0.08689215003808874,1.1262786550057438,-0.00036000611956575764
-0.011712422681094238,-0.4359974271847744,-0.02077573248180008,-1.574763944186298,0.08755061127765326,1.1262785352325237,-0.0003607850818275383
-0.01171392071900784,-0.4359980862647332,-0.020879156329950136,-1.574756094458904,0.0882108941173581,1.1262785352325237,-0.0003617438130022745
-0.01171757587479383,-0.43599904499590797,-0.021090737795513965,-1.5747367399574133,0.08952752896622643,1.1262785352325237,-0.0003631819643059178
-0.011719673106056257,-0.4359993446471239,-0.021198955408620778,-1.5747251751876234,0.09018244282408627,1.1262786550057438,-0.0003635415021318286
-0.011721530681795772,-0.4359995843026468,-0.02130609429916678,-1.5747132508800075,0.0908359187051754,1.1262787748880467,-0.00036432046439360935
-0.011723388257535284,-0.43599988395386274,-0.021416349147842982,-1.574700487614437,0.09149102437472004,1.1262785352325237,-0.000365039540045431
-0.011725904913233581,-0.4360000037270827,-0.021530319147998214,-1.5746862863066458,0.0921407610624197,1.1262787748880467,-0.0003656387333942563
-0.011728421678014958,-0.4360005430338216,-0.021648064186242426,-1.5746713060365929,0.09278953904076123,1.1262791943124826,-0.0003659982712201671
-0.01173195695149795,-0.4360016216472993,-0.021885291956167376,-1.574637570458398,0.0940847941298914,1.1262804526948733,-0.0003673165402208141
-0.011733874413847423,-0.43600180141621225,-0.022002437691979685,-1.5746183957258202,0.0947321339569293,1.126281051888222,-0.0003679157335696394
-0.011736451065238757,-0.43600216095403815,-0.022121740654747462,-1.5745975431864159,0.09537880287940273,1.126281770963874,-0.0003683351580055093
-0.011739267372153007,-0.43600246049617103,-0.02224865358030317,-1.574575132722488,0.0960274848646354,1.1262826098127456,-0.00036881446905133827
-0.011742023683374219,-0.436002580378474,-0.022382397615468105,-1.5745511043383433,0.09667137330307748,1.1262829094639615,-0.0003694137714832418
-0.011744480452462557,-0.436002580378474,-0.02251620142815992,-1.5745247989540234,0.09731257742512998,1.1262835685439203,-0.0003699529691390298
-0.011748015835028628,-0.43600282003399693,-0.02279093981436873,-1.5744646381092058,0.09859306772691999,1.1262841078506591,-0.00037139112044267314
-0.011749453986332271,-0.4360028799206069,-0.02293493024123981,-1.5744321609134015,0.09923427184897249,1.126284227732962,-0.0003716907716586249
-0.011750892028552836,-0.4360028799206069,-0.023080238937111534,-1.5743984852218167,0.09987250367530885,1.126284527275095,-0.00037223007839749117
-0.011752509948769436,-0.4360029998029099,-0.023226566359851035,-1.5743630718367951,0.1005091057131897,1.126284527275095,-0.0003727093894433201
-0.011754307528815911,-0.4360031196852129,-0.023374511593724057,-1.5743255012248183,0.10114474904171243,1.1262846471573982,-0.00037342846509514174
-0.01175592544903251,-0.4360032394584328,-0.023526171979076103,-1.574286312801708,0.10178020055855036,1.126284587270788,-0.0003741475407469634
-0.01175910129377267,-0.43600395853408463,-0.02383506536791566,-1.5741989478370884,0.10304314611256762,1.1262846471573982,-0.0003756455786605658
-0.011760239793860362,-0.4360046177231265,-0.023990021371227785,-1.5741514303755384,0.10366920199844329,1.1262846471573982,-0.00037654431414226464
-0.011761318298255016,-0.4360051569207823,-0.024147134601495375,-1.574104452220727,0.10429707948445927,1.126284527275095,-0.00037714350749108993
-0.011763295756297526,-0.4360053366896952,-0.024311498256724986,-1.5740552569523503,0.10492764146139774,1.1262844075018752,-0.0003779225788359489
-0.011765273105256957,-0.43600569622752117,-0.024481015105654185,-1.5740038446794913,0.10555801162665142,1.126284587270788,-0.00037900108323060314
-0.011766411605344649,-0.4360058759964341,-0.024656583992847758,-1.5739512937974613,0.10618751907565584,1.126284227732962,-0.0003800796967083356
-0.011767010798693474,-0.4360059958787371,-0.025018447688153027,-1.5738388818309128,0.10743646708907209,1.1262844075018752,-0.00038265634809967055
-0.011766651260867563,-0.4360059958787371,-0.025205701227439464,-1.5737793201794439,0.10806108482364413,1.1262841078506591,-0.0003843940415361874
-0.011766052067518738,-0.4360061157610401,-0.02539625038468598,-1.573716223254492,0.10868809941887791,1.1262838681951364,-0.0003863115038856597
-0.011766171949821734,-0.4360061157610401,-0.02559057458002148,-1.573652886674017,0.109317990316719,1.1262839879683562,-0.0003882289662351319
-0.011765812411995823,-0.43600623553426,-0.02579023173796953,-1.5735856551731502,0.1099420329653025,1.1262838681951364,-0.000390505966410515
-0.011764913567431047,-0.43600623553426,-0.025987552009132234,-1.5735181839076773,0.11056070663204101,1.1262838681951364,-0.0003930226221088126
-0.011763415529517445,-0.43600641530317297,-0.026390221938681447,-1.5733746129052422,0.11180227225178718,1.1262837483128334,-0.0003990147737632221
-0.01176233702512279,-0.43600629552995307,-0.02659593124397694,-1.573297734096935,0.11242295915581786,1.1262835685439203,-0.0004022505051133414
-0.011761198525035097,-0.43600653518547594,-0.026809310289587246,-1.5732218140198024,0.11304767288349876,1.1262835685439203,-0.00040644496763819673
-0.011759221066992589,-0.4360066549586959,-0.027025565637804838,-1.5731433772869716,0.1136707566481912,1.1262832690017874,-0.0004106394301630521
-0.01175676429790425,-0.4360068347276088,-0.027242899599500162,-1.57306368217175,0.11429470347819877,1.1262832690017874,-0.0004146542328580303
-0.011754247642205952,-0.43600713437882477,-0.02746370894806852,-1.572983028434437,0.11492267678279068,1.1262832690017874,-0.00041806973312110497
-0.011747296759376807,-0.4360086923033483,-0.02790682568311884,-1.572815968245513,0.1161810204271692,1.1262832690017874,-0.0004262788892578603
-0.01174316218346191,-0.43600971103021613,-0.02812841399394898,-1.5727264461630213,0.11680180332430876,1.1262829094639615,-0.00043071300730563016
-0.011739327258762967,-0.4360111490724367,-0.028355395154001622,-1.5726341076645323,0.11742105207703579,1.1262829094639615,-0.0004362857345241698
-0.011735372451761025,-0.43601264711035026,-0.028586870536878153,-1.57253829377917,0.1180430813137942,1.1262829094639615,-0.0004419182392695902
-0.011730578795887344,-0.4360140252659609,-0.028821521655411766,-1.5724369671622824,0.11866846612057247,1.1262827895816585,-0.0004488691220987359
-0.01172470652653593,-0.4360151637660486,-0.02906096642981906,-1.5723334234318294,0.11929931572777168,1.1262829094639615,-0.00045731804284148396
-0.01171080476087764,-0.4360171412240911,-0.029540994587804417,-1.5721157899280012,0.12055890571176904,1.1262827296950486,-0.0004793689689434933
-0.011702835260263798,-0.43601762053513693,-0.029784454055823608,-1.5720025390034977,0.12118879660961013,1.1262829094639615,-0.000491712700995145
-0.01169516541086591,-0.43601780030404985,-0.030025456863837542,-1.5718853932676855,0.12181801625382088,1.1262827895816585,-0.0005051350465245291
-0.011688873717078626,-0.43601780030404985,-0.03026909610076969,-1.5717677681117441,0.12244934530296561,1.1262829094639615,-0.0005199955433575565
-0.01168396017890195,-0.43601780030404985,-0.03051495256035034,-1.5716469671110629,0.12308163306146845,1.1262829094639615,-0.00053665362023706
-0.01167838745168341,-0.4360179201863529,-0.03076464383554686,-1.5715247279590778,0.1237135371966017,1.1262827895816585,-0.0005551092771630393
-0.01166232867723581,-0.4360180999552658,-0.031269059806419565,-1.5712677262632262,0.12497274373176241,1.1262829094639615,-0.0006014283520155602
-0.0116523218319695,-0.43601869914861463,-0.031526720691313,-1.5711330236059697,0.12560714054613337,1.1262829094639615,-0.0006277936229454213
-0.01164111660000554,-0.43601935822857346,-0.031787437538643604,-1.5709954446461059,0.12624134572335244,1.1262829094639615,-0.0006572148563124462
-0.011629252178999717,-0.4360196578797894,-0.03205139000824124,-1.5708564276440213,0.1268783313846029,1.1262829094639615,-0.0006926282413338807
-0.011616069488993248,-0.43602043684205116,-0.03231690051144552,-1.5707147741039356,0.1275128241920827,1.1262829094639615,-0.00073463297135855
-0.01160162852567917,-0.436021155917703,-0.032585646855083,-1.570572641252804,0.12814386543643377,1.1262829094639615,-0.00078502662643293
-0.011569211216484939,-0.4360231332666624,-0.03312997032471795,-1.5702792674407562,0.12940824914175467,1.1262832690017874,-0.0009160741279035329
-0.011551594408430699,-0.4360245714179661,-0.033407345139844974,-1.5701256895930547,0.13004178323987636,1.1262832690017874,-0.0009970875121256668
-0.011532719217985772,-0.4360265487669255,-0.033688554988754026,-1.5699663592492217,0.1306761800542473,1.1262833288883973,-0.001085830741438727
-0.011511926565191373,-0.43602876588049094,-0.03396790726192356,-1.56980630993882,0.13130818018248944,1.1262832690017874,-0.0011876366693721822
-0.011490115294612278,-0.43603026391840455,-0.034249836186484424,-1.5696460209728953,0.13194142665035039,1.1262834487707005,-0.0012939367110464447
-0.011467944486207271,-0.4360314623051022,-0.0345332631489589,-1.5694863910869294,0.13257572764614542,1.1262834487707005,-0.0014074274001558455
-0.011419887717918234,-0.43603499768766824,-0.035105150385304436,-1.5691523308138577,0.13385084931515628,1.1262835685439203,-0.0016338692534696242
-0.01139478082937906,-0.4360375743390596,-0.03539307135243664,-1.5689753237753605,0.13448754717161307,1.1262836284305302,-0.0017281851009181457
-0.011368894869495029,-0.43604075007471665,-0.035684168164309,-1.568795200887816,0.13512184816740808,1.1262835685439203,-0.0018128537500093468
-0.011341450985087435,-0.4360436862639339,-0.03597670312748501,-1.568614119269097,0.13576324392661246,1.1262835685439203,-0.001891410256060064
-0.011313407907331017,-0.4360463228019352,-0.03627235393970813,-1.5684280042298984,0.13641288479573618,1.1262833887750074,-0.0019772772918489156
-0.011285964022923423,-0.43604889934424346,-0.03657315794563085,-1.5682429079175673,0.13706722339307456,1.1262833887750074,-0.0020725518704721732
-0.011229518329584675,-0.436054472071462,-0.03717728272225766,-1.567855098375768,0.13837781835553345,1.1262833288883973,-0.0022961175302617437
-0.011198958596129958,-0.4360588463028998,-0.03748036383743884,-1.5676467526415543,0.1390390599045964,1.1262834487707005,-0.0024159597997683866
-0.011167979329156294,-0.43606334041664063,-0.037784643230234595,-1.5674367889871241,0.1397000138233986,1.1262835685439203,-0.002538678262799238
-0.011137659251224492,-0.43606729522364257,-0.03809197869455059,-1.567225746828299,0.1403673914265128,1.1262834487707005,-0.002669725764269841
-0.011107099517769775,-0.4360707706105156,-0.038403328852478484,-1.56701188836256,0.1410386038670595,1.1262835685439203,-0.002813296766705051
-0.011074142901836679,-0.43607442576630157,-0.03871737543501763,-1.566796651632127,0.1417078988888899,1.1262835685439203,-0.002961242000578072
-0.011003855438532677,-0.4360846722670908,-0.03934073493991529,-1.5663507186992456,0.14305281644922097,1.1262841078506591,-0.0033127993084841596
-0.010966165053335858,-0.4360905445364422,-0.03964998786658075,-1.5661232580099809,0.14373323288357803,1.1262838681951364,-0.00351796919795771
-0.01092655709670649,-0.43609623703688066,-0.0399615177934216,-1.5658926216941422,0.1444197851974534,1.1262838681951364,-0.0037321872015228332
-0.010885990517985465,-0.4361028283818839,-0.04027718229617735,-1.565656172886479,0.14510720022757803,1.126284527275095,-0.003934660775468209
-0.010844944519135532,-0.4361101986891489,-0.04059752057250378,-1.5654132526161157,0.14579825863251622,1.126284886812921,-0.0041147836630125445
-0.01080102232676139,-0.43611864760989166,-0.04092085503374049,-1.565168235223573,0.1464977537845256,1.1262861451953117,-0.00429496643716684
-0.010752845785252435,-0.43612793537950617,-0.04124101354115397,-1.5649209407217717,0.14720127576018519,1.1262890812754458,-0.004490788670415943
-0.010649242168189424,-0.4361481887255617,-0.04187402035349202,-1.5644219176001215,0.1485948972568919,1.1263013651208875,-0.00491125517693235
-0.010593096126066627,-0.43616005303748445,-0.04219585666773205,-1.5641706682913183,0.14929439258343422,1.1263117315039797,-0.005133862214630262
-0.010537669050512575,-0.4361732357274909,-0.04252386490253945,-1.563916902326817,0.14999638058921425,1.1263235359292925,-0.005369112526512699
-0.010480504281522003,-0.43618719737975914,-0.04285834460004708,-1.5636591815553134,0.1507025868812634,1.126337197930345,-0.0056298293738432995
-0.0104222608990537,-0.43620187799859617,-0.04319695887346962,-1.5633948695478899,0.15140860153616068,1.126351159582613,-0.005902470419706603
-0.010361381087667184,-0.43621757734430094,-0.04353329614671676,-1.5631260633176425,0.15211672542145901,1.1263670386972309,-0.006164745191560765
-0.010237763780071555,-0.4362485566112746,-0.04420183611729617,-1.5625847958104446,0.15354112248339907,1.1264115001963437,-0.006693429311183984
-0.010174367312986739,-0.4362639563057634,-0.044541169466370524,-1.5623114955755395,0.15425624513899788,1.1264394832784073,-0.006983147967445738
-0.010110431430079978,-0.4362808540381658,-0.04488871197158163,-1.562034899613591,0.15496916274561975,1.1264747168945157,-0.007284910704543193
-0.010041462235776621,-0.43629972922861077,-0.04524068870392359,-1.5617525512645944,0.15568629881304366,1.1265154633512326,-0.0076012942829507615
-0.00997075523895367,-0.4363198626923633,-0.04559662013418441,-1.5614677462555924,0.15640122965695769,1.1265602243924786,-0.007933437093673055
-0.00989399631294943,-0.4363398763828959,-0.04594937582878815,-1.5611774284059818,0.15712344707596587,1.12661049816525,-0.008264920715353487
-0.009723880270671404,-0.436380203306094,-0.0466647141852659,-1.5605906806728034,0.15857794844950895,1.1267137423535702,-0.008919139495838729
-0.009633099696705874,-0.43639967768988774,-0.04703185095657376,-1.560299464087711,0.15930630174803545,1.126770128051216,-0.009270636808051779
-0.00953812476929857,-0.4364186726535526,-0.04740372149714534,-1.560007708086797,0.16003168275084578,1.1268307683161625,-0.009633159692398913
-0.009437337459149809,-0.43643856646178225,-0.04777493284867506,-1.5597087615475305,0.16076013204248113,1.1269005164727277,-0.010008984930889355
-0.009335052111087446,-0.43646019796344837,-0.048148960507119025,-1.5594063996170842,0.16149011512946315,1.1269781742432967,-0.010395296434775015
-0.009231088956198527,-0.4364824886541564,-0.04852718262808785,-1.5590990641527682,0.16222105692580327,1.1270642209389155,-0.010780828976398893
-0.009018069339331053,-0.43653060530905535,-0.04929135671511642,-1.5584584473776422,0.16369176106345723,1.127239909708412,-0.011602287605637954
-0.008907694608351854,-0.4365571503488982,-0.049672574911912445,-1.5581384086434487,0.16443171504192297,1.1273253572106818,-0.012028926032721725
-0.008798398490850387,-0.4365845343466958,-0.050053193915359645,-1.5578168719804246,0.165174640967039,1.1274109245952548,-0.012468747149811965
-0.008687963873261227,-0.43661293696227815,-0.05043483153659154,-1.5574909609768797,0.16592216897632667,1.127499128517829,-0.012910545615861637
-0.008574473184151827,-0.4366426578468611,-0.05081880615369186,-1.5571651098599446,0.16667190220912423,1.1276002154791938,-0.013363489318182233
-0.008459604448514898,-0.43667339734922883,-0.051208652931060514,-1.5568363825494855,0.16742681243754906,1.1277144850214817,-0.013822005747721368
-0.008222676329805903,-0.43673535577409306,-0.05200260778928202,-1.556164427078643,0.16895868408230014,1.1279578247162811,-0.014763606297683021
-0.00810007763999497,-0.43676729377224144,-0.05240431909673957,-1.5558282695743089,0.16972596206287044,1.1280925872601477,-0.015248907531670965
-0.007975921134743554,-0.4367992916569998,-0.052808187412986436,-1.5554899549521022,0.17049659561346064,1.1282293872577498,-0.0157490092667989
-0.007848289133536026,-0.43683057046610635,-0.053216549952057185,-1.555150561607335,0.1712686673153545,1.1283638502594835,-0.01623772589196684
-0.0077132269384535225,-0.4368610703129511,-0.05362503215526477,-1.5548085918293422,0.1720413142777698,1.128491242605168,-0.01674028439618311
-0.007572891667368431,-0.4368904316597082,-0.05403752927025041,-1.554464524711004,0.1728209600104856,1.1286086279965033,-0.017255665943496864
-0.007276821321626356,-0.436950113084397,-0.054871391627234166,-1.5537678816669753,0.17437210218457377,1.1288530463047803,-0.018283073642637412
-0.0071234832385308295,-0.43697953442684717,-0.055293715709490085,-1.5534180621615887,0.17515836323875342,1.128980678305988,-0.018808462035217473
-0.006968766890741618,-0.43700985450477897,-0.05571891598527021,-1.5530668645005916,0.1759451995534545,1.1291080106559794,-0.019352965273765378
-0.006813511236213541,-0.4370416726206244,-0.05614675279905163,-1.5527141686925978,0.1767351996264907,1.1292451701914075,-0.019893453818701383
-0.006658075812772508,-0.43707414981642856,-0.05657716626422439,-1.5523558403798587,0.17752759656018863,1.1293848462734506,-0.02043184513237496
-0.006502340847198602,-0.4371082449324493,-0.05700542250244168,-1.5519916996843781,0.1783256501059923,1.1295232041955763,-0.020976288484312905
-0.0061835604953957325,-0.4371776935468816,-0.05787355974435917,-1.5512669537850658,0.17992204465332742,1.1298152597386233,-0.022090162194424973
-0.006015781339903048,-0.43721340658311897,-0.0583155379793218,-1.5508975999001926,0.18072009819913107,1.1299678788551502,-0.022645990547239835
-0.0058433283017566015,-0.4372504976658839,-0.058761710676809284,-1.5505233924728357,0.1815218907637913,1.1301243927829858,-0.023228603704503505
-0.005669197565866675,-0.43728938654686145,-0.059210160374472146,-1.5501393579691254,0.18232761415899285,1.1302740158236855,-0.02382260175356101
-0.005490392838239907,-0.4373294138188436,-0.05966340372800869,-1.549748612347192,0.1831338169961399,1.130420642788558,-0.024414922104875038
-0.005306195370473712,-0.43736734385956333,-0.06012623450237568,-1.5493606230364798,0.18393886931224407,1.130553308210245,-0.02501191622975975
-0.004920542946546837,-0.4374394290119969,-0.061072988355120005,-1.5485856032553131,0.18553929068322939,1.1307759151388599,-0.026249766894376438
-0.0047208259019888305,-0.437476100779409,-0.06154582586567022,-1.5481980333690368,0.18634146669672624,1.1308850315965315,-0.026877740286234814
-0.00452326597530321,-0.43751199347547626,-0.06202034129213008,-1.5478019547844908,0.18713904080058438,1.1309960654074693,-0.02752141291471488
-0.004325945704140505,-0.4375469275494519,-0.06250084876116126,-1.5473994046281616,0.1879410251769294,1.1311065000250586,-0.028164606341232194
-0.004127187281674155,-0.43758120243438564,-0.0629871686129339,-1.5469933191983491,0.18874387226952366,1.1312167548737349,-0.028808398852015256
-0.003924593934508862,-0.4376147582436675,-0.06347288927135772,-1.546583159079232,0.18955649861644977,1.1313183811418384,-0.029459501783453374
-0.003500532158816426,-0.4376815703200985,-0.06446056913156589,-1.5457482781044636,0.1911835729104423,1.1315297828384892,-0.030786455106125953
-0.0032833180794240974,-0.4377156654361193,-0.06496762174952297,-1.5453190630259885,0.19199945900881235,1.131634345186727,-0.031467039266624135
-0.0030589734573727464,-0.4377497605521401,-0.06547910848552782,-1.5448869118673791,0.19281505730238876,1.1317336944546552,-0.0321537952386066
-0.0028275580701892533,-0.43778301671020603,-0.06599281222601502,-1.5444575171290742,0.19363190211011694,1.1318323845335414,-0.03284282831984753
-0.002589970762438395,-0.43781483482605144,-0.06651430580728618,-1.5440288414664212,0.19444625423860742,1.1319391639953447,-0.03353875217914149
-0.0023508255301639756,-0.437846113635158,-0.06704239062447749,-1.5435944731942464,0.19525964748320687,1.1320528942308938,-0.03423671349217099
-0.0018675616408285005,-0.43791106813584946,-0.0681011969059445,-1.5427042250305338,0.19689276183814178,1.1322725650793746,-0.03564617812789623
-0.0016154135965436448,-0.437942586709562,-0.0686356932992261,-1.542259310715437,0.1977076890526208,1.1323726933095646,-0.036349352521235286
-0.001357333287214339,-0.437972007942929,-0.06917276634389902,-1.541815175362602,0.19853325841221384,1.1324647321568377,-0.03706019687305531
-0.0010946390909243077,-0.4380002907852914,-0.06970834135065836,-1.5413682835894627,0.19936534710016185,1.13255227689037,-0.03776828480457104
-0.0008218781627580078,-0.4380280342118319,-0.07024673266433193,-1.5409174968959314,0.20020721486790882,1.1326286763876314,-0.03847487469817318
-0.000542945314024343,-0.4380552384407166,-0.07079315347431238,-1.540468148462787,0.20104543960990806,1.1326983646575866,-0.03919428774395586
2.2170808405005717e-05,-0.43810599163361685,-0.07191301933607885,-1.5395780800679872,0.20271805390740827,1.132811375817484,-0.04062023068764765
0.0003108108511890282,-0.43813043944219726,-0.07247981326533477,-1.5391269339457132,0.20354755392300972,1.1328689601199935,-0.041341021889040944
0.0006060422389762855,-0.43815596586425537,-0.07305056200159261,-1.538671773020744,0.20438050550173995,1.132925825237768,-0.04205558128325692
0.000907145896114956,-0.4381817319418364,-0.0736236476246358,-1.5382182900116845,0.20521096440123246,1.1329852070112412,-0.04277930867386746
0.0012127436669944337,-0.4382061797504168,-0.07419907013446433,-1.5377662450448457,0.2060433407194412,1.1330422520070118,-0.0435207127591422
0.0015282284008372245,-0.4382298485967354,-0.0747755712577706,-1.537313840540181,0.2068823323591138,1.13310073493592,-0.044260978344329245
0.0021737586050568033,-0.43827760571380847,-0.07595044477065525,-1.5363995639923238,0.2085629041362726,1.1332190192809029,-0.04577458590385636
0.0024991902975559444,-0.4383008551356912,-0.07654947624019244,-1.5359391899870452,0.2094078398437787,1.1332769630121553,-0.04653612345288364
0.0028313331082782385,-0.43832236675505437,-0.0771524026301216,-1.5354782766750277,0.21024807782307015,1.1333320305498835,-0.04731126311635325
0.0031700671549206895,-0.4383436987145876,-0.07775826510018494,-1.5350198801277914,0.21108189229258253,1.1333877571675703,-0.04808766116221356
0.0035146735799976314,-0.43836461114060193,-0.07836856179737911,-1.5345602251981647,0.21191168011297767,1.1334497754790447,-0.04886735482603394
0.0038695265058637978,-0.4383853439067864,-0.07897909815009621,-1.5340995515416702,0.2127420430193613,1.1335168872066914,-0.04965723510403359
0.00458810059369167,-0.43842501164094266,-0.08022168247489353,-1.5331736503374132,0.21440430297654112,1.1336642332472158,-0.051258027968350196
0.004948705906606252,-0.4384467031383018,-0.08085804479180161,-1.5327026104069095,0.2152313103129049,1.1337356592106074,-0.05207019882797477
0.005312127526435085,-0.4384697727912716,-0.08149710364240403,-1.5322267168248391,0.21605956416342043,1.1338014525601705,-0.05288135117889772
0.005682619802312981,-0.43849278244854833,-0.08213909857314063,-1.531752560936205,0.2168890641790219,1.133863650749641,-0.05368914780708449
0.0060635983435860935,-0.43851465371482046,-0.08278786450871033,-1.5312760082741759,0.2177160716899186,1.1339208754052414,-0.05450311635583861
0.006454523734432479,-0.4385371240653584,-0.08344028570914909,-1.5307947217337998,0.21854595515435674,1.1339757631740566,-0.05531816351807047
0.007241647701210914,-0.43858643921603807,-0.08477185302786547,-1.5298120752940714,0.22019632680133658,1.1340897930608218,-0.05694478234657808
0.007640422710368144,-0.43861040760448955,-0.08544968076805937,-1.5293229990219943,0.22102448465874325,1.134151871367989,-0.057752219546022006
0.008049084791571764,-0.4386326384085876,-0.08613152320186515,-1.5288339228590004,0.22185561463733317,1.1342118523348108,-0.05856930394382325
0.008472008067176509,-0.4386547492212996,-0.08681648159380115,-1.5283437080868358,0.22268358085758796,1.134269915948366,-0.05938189433696677
0.008896908800823763,-0.4386778188742694,-0.08750126021682418,-1.5278446849651857,0.22351212216383132,1.1343233655658775,-0.060183878691495156
0.00932378688343045,-0.43870268610728563,-0.08818723722654487,-1.5273409280742718,0.224344594300616,1.13436968464073,-0.06099113601294305
0.010198994890480083,-0.43875409848922775,-0.08956464409090178,-1.5263261038717888,0.22601423665146592,1.134447342411299,-0.06260157618470007
0.01065295731966845,-0.4387814824870254,-0.09025948944580109,-1.525814617244867,0.22684316140654592,1.13448143752732,-0.06342069792715378
0.01111129398029463,-0.4388095255647818,-0.09096104602800663,-1.525300374088558,0.22767266159668031,1.1345127762230365,-0.06423526577833981
0.011571188565444371,-0.4388373888736253,-0.09166829500156753,-1.5247901457349438,0.22850091527266292,1.1345420776831836,-0.06506169783236551
0.012035277722202045,-0.438864473220207,-0.09237985842903938,-1.5242886059575953,0.22932782679045077,1.1345722179922024,-0.06588351610851355
0.012513088766621976,-0.4388913777978757,-0.09309507690321414,-1.52378550814664,0.2301602031086595,1.1346043357592637,-0.06671318400297245
0.01348632766351608,-0.43895105922256455,-0.0945251545319039,-1.5227688264775008,0.2318330092178445,1.1346745633359578,-0.06836862487149825
0.013977920591291307,-0.43898305710732294,-0.09524528654425533,-1.5222603957039331,0.23266845347581241,1.1347127330322004,-0.06919805311043423
0.014479460368639806,-0.4390157740677331,-0.09597242943512894,-1.521753462968279,0.23350150087311855,1.1347506631820032,-0.07002885950498082
0.014991246646777529,-0.43904783183910145,-0.09670460563739916,-1.5212453318459274,0.23433330193080584,1.1347861364536347,-0.07086823459349006
0.015504770727434848,-0.4390784515682492,-0.09744571007145794,-1.5207448705729734,0.2351660618723842,1.1348225684564408,-0.0717101264467807
0.016020931346093458,-0.4391075132637903,-0.09819352573282297,-1.5202519594852806,0.2359967124090286,1.1348525889922396,-0.07255040037985472
0.017080157051996333,-0.43916707491525925,-0.09969359117360077,-1.5192536734773743,0.23765226122616862,1.134910952147928,-0.07422777240126262
0.01761651102101744,-0.43920015130441226,-0.10045440964697623,-1.5187442240860218,0.23847850166485907,1.134933182842943,-0.0750640915273347
0.01815729910808632,-0.4392331679160384,-0.10121906315413372,-1.5182383100772356,0.23930282451030033,1.1349570914538676,-0.07589585665305602
0.018704858418154464,-0.4392655252295396,-0.10199054766181734,-1.51774030557337,0.24012590101612277,1.1349798614556212,-0.07672570431642788
0.019262724006538716,-0.43929764299660096,-0.10276958213659586,-1.5172475142588973,0.24095070330350957,1.1350053278819865,-0.07754578479005633
0.019823106468787422,-0.4393311389192729,-0.10355580725880952,-1.5167575392513386,0.24177186239061574,1.1350309741863476,-0.07837581222234113
0.020951600911126522,-0.4394016660380998,-0.10515576116517131,-1.5157737542024392,0.24338465151374655,1.1350898166530816,-0.08000728470241546
0.021529000878997565,-0.4394398957300355,-0.10596409720918001,-1.515282161274664,0.2441903749089481,1.1351266083027967,-0.08081849683086528
0.022112392998523016,-0.43947788576644825,-0.10677650772432751,-1.5147894898424943,0.2449937014434879,1.1351678939571694,-0.08162215899222024
0.02270051877822911,-0.43951449753816735,-0.10759311281108293,-1.5142987957592837,0.2457948229290507,1.1352137336118933,-0.08244223946584868
0.023295056243108563,-0.43955021057440474,-0.10841445166710206,-1.5138116369495562,0.24658750749300937,1.135266044729317,-0.0832590843172101
0.023901757562043633,-0.43958550407712316,-0.10923638982555312,-1.513323639290957,0.24738230128736907,1.1353233293806106,-0.08407790640844787
0.025118216380517092,-0.43965579154042717,-0.11089632480781972,-1.5123336824305735,0.24896268505681104,1.1354470065748161,-0.08572735523440234
0.02573204835119426,-0.4396897668832281,-0.11173953482102791,-1.5118380149225765,0.24974213897784203,1.1355149570422518,-0.0865589405912107
0.026357085553835393,-0.43972212419672924,-0.11258687941015101,-1.5113409691498856,0.250523702303807,1.1355866826568595,-0.08738687079223308
0.026989253408218627,-0.4397544816193135,-0.11343614157070665,-1.5108420059148455,0.25129903358261185,1.1356650595030802,-0.08821222434186413
0.027624716989645016,-0.4397868390418978,-0.11428234765974205,-1.5103384887885374,0.2520746526662104,1.135750686774263,-0.08904231166075888
0.028273303265384835,-0.43981847738883023,-0.11513047132021,-1.5098374283222349,0.2528461491075828,1.13585069512215,-0.08987401689987025
0.029577426590610547,-0.43987857834703803,-0.11683906226411447,-1.5088349478518035,0.2543842524504281,1.1360559848939267,-0.09155198811462696
0.03023871613622793,-0.4399090181981898,-0.11770875743055553,-1.508326696956232,0.25514932538202145,1.1361576111620302,-0.09238537116056489
0.030906297375632597,-0.43994035700298934,-0.11858384555530217,-1.5078126335688358,0.2559169869859614,1.1362591175478307,-0.09321186321028362
0.03157435803516617,-0.4399709767321371,-0.11946630387823073,-1.5072962932903473,0.25667832072416524,1.1363614627825032,-0.09403859491552527
0.03225164646862119,-0.44000087727654996,-0.12035319642829016,-1.5067800727850786,0.2574327516851775,1.1364627893993908,-0.09485573930901955
0.03293648497825419,-0.4400320363124366,-0.12124482285669638,-1.5062609161996758,0.2581833476342243,1.136558004091404,-0.0956705468157285
0.034308798535521476,-0.4400975301198669,-0.12305857534218743,-1.505224460495527,0.2596630639540039,1.136736329398902,-0.09727823056718121
0.03500759869742272,-0.44013102604253884,-0.12398189989505298,-1.5047137527217838,0.26039812839257015,1.1368269300948715,-0.09808590742214805
0.035707896897237565,-0.440163802889559,-0.12491223532644072,-1.5042040636749086,0.2611288783772255,1.136925140862712,-0.098878184473543
0.03641244955527031,-0.44019669950979906,-0.12584952153157453,-1.5036903598253382,0.2618599161666744,1.137024490021557,-0.09966345086458193
0.03712533114265972,-0.44023019543247105,-0.12678878519475084,-1.503176416320245,0.26259574750291403,1.1371278539830971,-0.10044596083531657
0.03784240719257399,-0.44026321204409713,-0.12772631105540755,-1.502669363811371,0.2633292779716007,1.13722822186881,-0.1012187036163078
0.03930154651680486,-0.4403238521999608,-0.1296068157307196,-1.501662449222892,0.2647780269144622,1.1374713219080863,-0.10278234540216646
0.04003528064359864,-0.4403506968910195,-0.130556625436818,-1.5011658229837201,0.2654957382424075,1.1376199862176113,-0.10355706564120021
0.04077117199734787,-0.4403740660861222,-0.13151476429043926,-1.500674589593771,0.266210189818909,1.1377857879150615,-0.10434029457850358
0.04151059873366318,-0.4403946789700036,-0.13248069276667832,-1.5001862323973458,0.2669274217049088,1.1379705846852595,-0.10511177908618721
0.04225751555046343,-0.44041487232036614,-0.13344728043195922,-1.4996861906579109,0.26763084768745954,1.1381638302671173,-0.10588548059835318
0.04301252164109743,-0.4404363241622024,-0.13440967363471526,-1.4991811753846063,0.2683337944025977,1.1383557576890575,-0.10666056037521283
0.04454021073519578,-0.440478448665447,-0.13633949335162396,-1.4981722834471678,0.26973422303245304,1.1387270889228902,-0.10818555304469994
0.04530666182239974,-0.44049810281815366,-0.13731806521113063,-1.4976740392877794,0.27042528126285825,1.1388965457761262,-0.10894966724511856
0.04608054321256175,-0.44051751720625437,-0.13830376772237937,-1.4971806486708745,0.27111547677701425,1.1390736127012335,-0.10971539925667069
0.04685538322481541,-0.44053663205222227,-0.13929917742767847,-1.4966954673191897,0.2717985777022938,1.1392513987019925,-0.11048155069265869
0.04763645515332948,-0.4405546083981024,-0.14030015986019612,-1.4962142407745067,0.2724777476224991,1.1394406295902384,-0.11124518558203148
0.048424717511112526,-0.44057318393733136,-0.1413061157175004,-1.4957322951541718,0.27315337033553266,1.1396480167023604,-0.11200408659305747
0.050012147916509715,-0.4406172260120085,-0.14334247524068938,-1.494755041563666,0.2744745112754638,1.140126966246868,-0.11350187503365988
0.050814611582083925,-0.4406404154381982,-0.14437503602444643,-1.4942688415941963,0.27512741189603146,1.140389181023029,-0.11424339889215454
0.051616536050002354,-0.44066378474238393,-0.14541982076703522,-1.4937825217424237,0.27577638151152484,1.1406389322939188,-0.11497719301464135
0.05242870690962693,-0.4406877531308354,-0.14647119674554418,-1.4932950633905633,0.27642343388283497,1.1408800548751525,-0.11570912956138865
0.053241237416160485,-0.44071172162836997,-0.1475256887912664,-1.492807844694226,0.27706559653971263,1.1411124888801207,-0.11642524688012819
0.05406311557891849,-0.44073395232338497,-0.1485800009589926,-1.4923217046113662,0.2776987471889977,1.1413480388432191,-0.11713962661451428
0.055728323637187695,-0.4407717027042748,-0.1506902432146616,-1.4913416946005558,0.2789528723725741,1.1418507771163484,-0.11855022975032721
0.05656596103226043,-0.440789079747723,-0.15175402292091522,-1.4908499220129507,0.2795726963858226,1.1421292905406462,-0.11923578733561202
0.05740491669633381,-0.440804120013469,-0.1528217574341708,-1.4903630628544393,0.2801942461806355,1.142418709545692,-0.11991936757193741
0.058251482323195124,-0.4408164637455207,-0.15388901252729748,-1.4898757842714918,0.28081167350775516,1.142707409475086,-0.12058892616030151
0.05910607733728023,-0.4408277289731777,-0.15495548876724546,-1.4893900636130681,0.28142210206457435,1.1429832863613825,-0.12125938370231346
0.059962530036187935,-0.4408391139740546,-0.15602100616693562,-1.4888993695298576,0.28202735327670037,1.143251493289198,-0.12194308371185876
0.061680948056445764,-0.4408648200559426,-0.15817594957724052,-1.487898447093033,0.28322941895388126,1.1438092991000552,-0.12327333265249142
0.06254543014257727,-0.44087908135942677,-0.1592657350165981,-1.4873974465133402,0.28382364474658955,1.1441014744163223,-0.1239466662789445
0.06341674312015184,-0.44089603897843915,-0.16036337018334962,-1.4868957868536887,0.28441374807160463,1.1444008403800245,-0.1246053192865606
0.06428895505137426,-0.4409148542822741,-0.1614723304643681,-1.4863889740003378,0.28499301743982086,1.1446969107257665,-0.12526271402086908
0.06516146652472957,-0.44093636590163726,-0.16259393412865417,-1.4858786257644205,0.28556471295174807,1.144984172503857,-0.12592681976431763
0.06604026980095523,-0.44095973520582304,-0.163727162340257,-1.4853728316379373,0.28613257345170984,1.1452592704278917,-0.12658097876727598
0.0678121374387246,-0.44100647359602835,-0.16602429859738652,-1.4843709503608549,0.2872522836737403,1.145835531895675,-0.12788528186141465
0.06870490225813544,-0.44102978290452105,-0.16717712118416916,-1.483867073696721,0.28780470848179746,1.146131242594508,-0.1285371038685046
0.06960749415389964,-0.44105255301535795,-0.16832712735495448,-1.4833667323060702,0.28834975089618453,1.146431567289385,-0.12918718807307494
0.0705190142814524,-0.44107460394146,-0.16947389779438968,-1.4828698663022923,0.2888919173570302,1.1467376443713102,-0.12983775180685728
0.07143071417791812,-0.4410947374052125,-0.17062258580525744,-1.482375037643167,0.2894280435824005,1.1470446202978004,-0.1304899932383831
0.0723468483015147,-0.4411128935200056,-0.17177762539652244,-1.4818802689797346,0.28996071841917503,1.147360344796249,-0.1311357032115156
0.07419253878515414,-0.44114051717332614,-0.1740862664277488,-1.4809166173945878,0.291021849631922,1.148030562573655,-0.1324090271477637
0.07512509122102422,-0.44115034424967947,-0.17523519409413946,-1.4804365293499926,0.29154695043787454,1.148371154196037,-0.13303718030853504
0.07606249730846101,-0.44115981178820696,-0.17638549991614075,-1.4799490709981322,0.29206553174093924,1.1487072518137613,-0.13366671162491697
0.07699882478242008,-0.44116975874686326,-0.17754012008296988,-1.4794606539150972,0.29258382558827606,1.1490502403186216,-0.13428174198229179
0.07793958648351,-0.44117844721404587,-0.17870055263254045,-1.478976251525674,0.293097804981702,1.1493879557474793,-0.1349004876002287
0.07888544138260646,-0.44118647671035277,-0.17986991330481653,-1.4784970623256435,0.2936103463983572,1.149741430517735,-0.1355094060327292
0.08077403544083536,-0.4412088871742807,-0.1822478831772552,-1.4775394028921511,0.2946145285648092,1.1504422679152055,-0.1366933875463154
0.08172084907110656,-0.44122344801989777,-0.18345721134398657,-1.4770595545030787,0.2951021426654886,1.1507751896881897,-0.1372917599358938
0.08267347508411922,-0.4412402858656902,-0.18467798439820482,-1.4765818633409618,0.29557969005610846,1.1511045161919977,-0.13787880710212216
0.0836349694423105,-0.44125952059396106,-0.18590409041503558,-1.4761083666413697,0.29605685399789156,1.1514536766174255,-0.13844608045150697
0.0845996995318519,-0.4412802532510624,-0.18713199412099593,-1.47563702705965,0.29653257978837105,1.1518283633558282,-0.1390189863056372
0.08557269877322309,-0.4413017049838156,-0.1883578604823038,-1.4751644290955397,0.2970081137671658,1.1522058065145353,-0.13958332346580477
0.08753241914362772,-0.44134448867610204,-0.1908103721671813,-1.474219293272095,0.29796905679766295,1.152939900288238,-0.1406938416713468
0.08851680338587582,-0.44136671948020006,-0.1920413318355788,-1.4737441786522862,0.2984428651694262,1.1533044004124615,-0.14126608833643517
0.08950819839756304,-0.4413869128305626,-0.1932667787724508,-1.4732705021837813,0.29891801569938425,1.1536940076433904,-0.14182527230290315
0.09050600498534052,-0.441403750676355,-0.19448239863296946,-1.4728004808710622,0.29939105699894125,1.1540954191905488,-0.14236953588592813
0.0915105826870342,-0.4414168733706685,-0.19569214622413666,-1.4723329762140416,0.2998709054316469,1.1544974300401392,-0.1429172149692162
0.09251330270390529,-0.44142849813615137,-0.1969054290887869,-1.4718667899351046,0.3003490280827881,1.154871637467496,-0.14347759732238183
0.09452779106990519,-0.4414498899822946,-0.19935746146261857,-1.4709198563134471,0.30128331819027815,1.1556244864402578,-0.14456744275743247
0.09553788139404129,-0.4414598968275609,-0.20059794855615348,-1.4704519323410736,0.3017379518512802,1.1560137940199706,-0.14511236542041622
0.0965484511383063,-0.4414702032149601,-0.2018488020327806,-1.4699844276840528,0.3021856823860248,1.1564017233349897,-0.14565998461709434
0.09756069868939787,-0.4414830862537506,-0.20310816431676043,-1.4695184210649457,0.30262976989502166,1.1567729946822125,-0.1461896274678923
0.09858169481244813,-0.44149854594393245,-0.2043768742569647,-1.4690475609033549,0.3030736655923338,1.157126768994601,-0.14671579482273414
0.09960634598220132,-0.4415171813697714,-0.20565127680669051,-1.4685714875523717,0.3035200539688836,1.157496422421607,-0.14724591698457792
0.10166889100740718,-0.4415614032133615,-0.2082020591460185,-1.467625872308798,0.30439739520461145,1.1582897780864798,-0.1483050229172609
0.1027102602497329,-0.44158543148842294,-0.2094757425110094,-1.4671506978023794,0.3048363053689152,1.1586844785154151,-0.14883790149940895
0.10375246834093037,-0.4416101789482193,-0.21075224229199763,-1.4666725871067434,0.30527051780500436,1.1590674944013408,-0.1493697014680793
0.10479803204578093,-0.44163516606353853,-0.21203071942194532,-1.4661955550245853,0.3057042507991479,1.1594599178301008,-0.14989988351653305
0.10584814975098228,-0.44165793606529236,-0.21330284486241266,-1.4657252341697333,0.306137408707303,1.1598721751804804,-0.1504255116737191
0.10690360052787924,-0.4416769311380403,-0.21456819918896383,-1.4652557521637533,0.3065720045922288,1.1602983341874353,-0.15094892271733973
0.10901833678820597,-0.44171174522062984,-0.21709723025340574,-1.4643045043063512,0.30742719899601223,1.1611377092759445,-0.1519790866186184
0.11007846133867362,-0.4417275644486376,-0.2183640826178705,-1.4638316068001078,0.3078529745104972,1.161557756358025,-0.15249249081697272
0.11114152196927543,-0.441740687142951,-0.21963225336041897,-1.4633643417986102,0.30827395630365867,1.161987330974326,-0.15300074182162746
0.11219912986404479,-0.4417532706396087,-0.2209104308391507,-1.4629008519442843,0.30868515901702115,1.1624142689435428,-0.1534970685186664
0.11326045280121008,-0.44176723218279385,-0.22220149135667294,-1.4624322687828688,0.3090855279481178,1.1628331775255356,-0.15398638433718317
0.11432609008320324,-0.4417826918729757,-0.2235029182572874,-1.4619628466634986,0.30948465071412845,1.1632453149936122,-0.15447839668939425
0.11646856987915351,-0.4418158881444317,-0.2261304596317027,-1.461035806959154,0.31027982795732484,1.1640860083511222,-0.15542479100431267
0.11754810892680495,-0.441833564948179,-0.22744057499949974,-1.4605681825289134,0.3106780876580204,1.164512407122683,-0.15587701574006455
0.11863495828602837,-0.441851840836192,-0.2287488330097234,-1.4600974421405426,0.31107740206118295,1.164934431553723,-0.15634332190130454
0.11972444407417,-0.4418701168332881,-0.23005894837752044,-1.4596281997900853,0.3114781546156492,1.1653550779382353,-0.15681268402498175
0.12081464904704654,-0.4418870145656905,-0.23137409727488026,-1.459162372939891,0.3118770853954421,1.1657794992517538,-0.15726844414329966
0.12190970756240672,-0.4419012158734817,-0.23268768813863341,-1.4587015795101765,0.31227870084069054,1.1662033812585333,-0.1577074263024351
0.1241067755850393,-0.4419217687616701,-0.2353018071675193,-1.457778135075008,0.3130740698955717,1.1670528830746119,-0.15856579646369226
0.12520776625636085,-0.4419293788335411,-0.23660652968609386,-1.4573207571455566,0.31346782350520447,1.167485213893051,-0.15899015778151757
0.12631061461250498,-0.44193495145167655,-0.23791041335579663,-1.4568657161028906,0.3138618649196309,1.1679207206653133,-0.15939738182050062
0.12741526054869562,-0.4419390261409815,-0.23921573517680308,-1.4564143902117035,0.3142505371776794,1.1683457411721805,-0.15979681601869972
0.1285145735222737,-0.4419432206035063,-0.24053034465834092,-1.4559611468581668,0.31463173139801487,1.168769922830176,-0.16020002525498778
0.1296156840758982,-0.44194939241499065,-0.24185196501840095,-1.4555061657021107,0.31500966604143926,1.1691859552186445,-0.16061677661002516
0.13182497594827947,-0.4419644326807366,-0.244513661395447,-1.4545958439612556,0.3157572898693029,1.1700332399211577,-0.1614315841167341
0.13293465519586667,-0.44197617721943944,-0.24585170006778054,-1.4541370878761937,0.31612362365825514,1.1704328538882698,-0.16181382093131483
0.13405188462871492,-0.4419905582961436,-0.2471858439288052,-1.453675994795263,0.31649312120554246,1.1708268952372463,-0.1621904851277601
0.13517480645291857,-0.4420058981040224,-0.24851944848309096,-1.453216939058985,0.3168658785042737,1.1712332803182746,-0.16257481928268633
0.1362989866595129,-0.44202111802959826,-0.24985215419281195,-1.4527584226294459,0.31724256680807933,1.1716520091313545,-0.1629697593671446
0.13742736143771517,-0.4420359785264313,-0.25118731667162125,-1.4522981085107773,0.31762098054438337,1.1720706180621314,-0.16334947952602705
0.13969070212095677,-0.44206312275962295,-0.2538480543174926,-1.4513689715751703,0.3183719601167998,1.1728623559158704,-0.16407913907259894
0.14082225263481613,-0.4420725902981504,-0.25517632590916584,-1.4509028451828432,0.3187538254162326,1.1732663441144204,-0.16444345953699255
0.14195608014885083,-0.4420787621096347,-0.25650345889166826,-1.4504373778704749,0.31913214350849367,1.1736800395070206,-0.16481479077082528
0.1430890088183208,-0.4420822376055908,-0.25782993290329503,-1.449974846747324,0.3195058595165831,1.1740836082811346,-0.16518366512648658
0.1442194808277855,-0.44208379553011434,-0.2591623989574931,-1.4495033273966913,0.3198717138635898,1.1744570367462297,-0.1655329454342173
0.14534701653894985,-0.4420858927613768,-0.2604994788986519,-1.4490255163522714,0.3202283643913191,1.1748099722097465,-0.16587096051429098
0.1476042452973171,-0.4420921844551641,-0.26319539016493865,-1.4480671978388202,0.32093370796711895,1.1755061358336463,-0.1665577763728834
0.1487365148868283,-0.44209673845551484,-0.26455272356123605,-1.4475853121050952,0.32127760729386606,1.1758531390321185,-0.16689764902869664
0.14987202020768958,-0.44210344968282106,-0.2659060421548385,-1.447097673984322,0.32162189006944986,1.1761758741909234,-0.16723895972673042
0.1510153751468617,-0.44211213825908674,-0.26725073205878525,-1.4466109347081135,0.3219707749292053,1.1764853068865018,-0.16757367918884405
0.1521580111194651,-0.44212298395322475,-0.2685957216139479,-1.4461288093188658,0.32232196065651364,1.1767854518124659,-0.16789959008330593
0.15330681890355277,-0.44213430906749174,-0.2699456247072873,-1.4456496201188351,0.3226680650322377,1.1770970417349997,-0.16823269162520296
0.15560844927442308,-0.44215845722485614,-0.2726435134316165,-1.4446712879148516,0.3233667932865738,1.1777881120518099,-0.1688980558601253
0.1567608523276868,-0.4421700819903391,-0.2739822711796019,-1.444180533945031,0.32372296437235754,1.1781378116748935,-0.1692205513634072
0.15791433399442822,-0.4421800887265223,-0.27532420477232744,-1.4436934351309967,0.32407884800241343,1.1784706136746577,-0.16954268732886316
0.15906745601426067,-0.44218739914717736,-0.276665838713837,-1.443206695745705,0.3244323347718076,1.1787804057989788,-0.169854157260011
0.1602174024075191,-0.4421928519920929,-0.27801262595812926,-1.44271815888945,0.32478371213626783,1.179090917108035,-0.17015699861058617
0.16136603042269385,-0.44219806507240245,-0.2793670231652094,-1.4422344755756786,0.3251293372445793,1.1794081994219243,-0.17046750991964232
0.1636503435276428,-0.4422044766484927,-0.2821024823924325,-1.4412639331033958,0.32580937005556676,1.1800310196200832,-0.17105827234643278
0.16479124169772658,-0.44220849134210466,-0.28348294521922657,-1.4407629325237032,0.32613179362946687,1.1803109111999914,-0.1713457738891291
0.165937472939506,-0.44221496291388795,-0.28486208988610306,-1.4402618121707906,0.32645258741491145,1.180572107358368,-0.17163920758778684
0.16708723945476842,-0.44222137438089515,-0.28623440344337037,-1.439764526742577,0.32677338120035604,1.1808325245544826,-0.17192748809274494
0.16824215916373042,-0.44222598837693894,-0.28759928680676267,-1.4392749112728442,0.32709494188347393,1.181102049860382,-0.17220222647895375
0.16939857701968908,-0.44223078203281263,-0.288960515014369,-1.438783378340762,0.3274215839181761,1.1813858362515992,-0.17247936163855784
0.1717186630474854,-0.4422451032229068,-0.291674282853316,-1.4377916836778588,0.3280954808496453,1.1819867851834858,-0.1730016341820908
0.1728810729460154,-0.44225205399665285,-0.29302742167800544,-1.4372926006695987,0.3284345864550689,1.1822791403777488,-0.17323844252757986
0.174041145848677,-0.44225840568613317,-0.2943815192338697,-1.4367933977790355,0.32877052830215736,1.1825577735752666,-0.17347842660872603
0.17519972082250806,-0.44226559622448525,-0.2957338790962974,-1.436291678123691,0.32911030498667837,1.182841619962177,-0.1737320726909245
0.17635739695177435,-0.4422735058384891,-0.2970851004586374,-1.435791636384256,0.3294443292405177,1.1831237286556506,-0.1739844006132054
0.17751369492543004,-0.44228111580127705,-0.29843805951441393,-1.4352897969556917,0.3297722176148387,1.1834079944669968,-0.17421473738691115
0.1798120295692572,-0.44230070995829074,-0.30116345200976075,-1.434270478748551,0.33040651878516664,1.1839463857806705,-0.17464922543230577
0.18095909965990836,-0.4423131735726454,-0.30254073910089774,-1.4337520411297169,0.330716862237182,1.1841928413245169,-0.1748578708177354
0.18210670894821532,-0.4423271951115236,-0.30392527661699675,-1.433236779355623,0.33102298722839524,1.1844217400560022,-0.1750448247058059
0.18325569661029903,-0.44234103688148885,-0.30530735736400744,-1.4327223565394842,0.3313308380011729,1.1846497399429226,-0.1752237492066526
0.1844087587435215,-0.44235565772279895,-0.3066809293036654,-1.4322030201851683,0.33163907239732016,1.1848781592542788,-0.17539506363562826
0.1855679329107014,-0.44237243557289835,-0.3080510856339772,-1.4316810472928514,0.3319483611468685,1.1851201206843844,-0.17558159809926288
0.1878891574385854,-0.4424078489579198,-0.3107864250879804,-1.4306396780505257,0.33256780188581325,1.1856053620317624,-0.1759758192171524
0.18905294549272603,-0.442425465765974,-0.3121432790641489,-1.4301118927754672,0.33288562337554173,1.185846963924042,-0.1761651699877013
0.1902187708915191,-0.4424439814185931,-0.31349456031309886,-1.4295729621550548,0.3332012399908261,1.1860871278831842,-0.17634187737498255
0.1913784244788279,-0.44246477407138746,-0.3148475793645684,-1.4290283990298969,0.33351724005494715,1.1863181237368488,-0.1764980318740754
0.192540235074926,-0.4424859861486177,-0.31620131738260676,-1.4284826374089583,0.3338303638164609,1.186543427199158,-0.17664969215034437
0.19370018820436768,-0.4425068386880221,-0.31755913008994996,-1.427935917056845,0.33414147434068253,1.1867738239685568,-0.17679991449347585
0.19600900911359007,-0.4425571124607935,-0.32028518166525555,-1.4268297730827408,0.3347605314562577,1.1872268276665703,-0.17705901342058986
0.1971593748222013,-0.44258647380755056,-0.3216596524494783,-1.4262765213813173,0.3350560144768899,1.1874406262456996,-0.177173103193965
0.19830980052650557,-0.4426179923812631,-0.32304395031005445,-1.4257203334906765,0.3353433482061786,1.1876374072101235,-0.17727568819324332
0.19946226346637924,-0.44265298634184863,-0.3244277087548086,-1.4251582134440743,0.33562608020036155,1.1878338286367214,-0.17737216115856422
0.20062053878899436,-0.4426907965002654,-0.3258074526150339,-1.424600167977694,0.33590564808714357,1.188027913176534,-0.17746707619936158
0.20178115110747788,-0.442729265847724,-0.3271828821304314,-1.4240516499364513,0.3361871335671747,1.188243089911274,-0.17756468777385326
0.2041044728666243,-0.4428073431518119,-0.3299300858963573,-1.4229479028448253,0.3367446397268162,1.1887005277273353,-0.17776752077654145
0.20527161653441806,-0.4428465315749224,-0.3312962276421403,-1.4223917149541847,0.337027563358151,1.1889598664190553,-0.17787430023834463
0.20643666297094934,-0.4428850608089909,-0.3326573359674436,-1.4218375644081962,0.33730837775908473,1.189219624426128,-0.177980360624496
0.20760260814296236,-0.4429210135007512,-0.33402060141061934,-1.4212774218196367,0.3375863158574112,1.189479322655674,-0.17808390435494903
0.20876633631049302,-0.4429547490789461,-0.33538147008039976,-1.4207087703146413,0.33786550029535656,1.1897116367783391,-0.1781827742027483
0.2099297649358908,-0.4429876458082692,-0.3367414999013084,-1.4201426354653441,0.3381407540772935,1.1899326258958205,-0.17827673051237092
0.2122434992742068,-0.44305463754453006,-0.33947504166618203,-1.4190187549099658,0.3386700731695152,1.19037118863052,-0.1784085569761033
0.21339686105864522,-0.4430891521940698,-0.34085550449297614,-1.4184531593674075,0.3389270149569402,1.1906034428665753,-0.17845295847952328
0.2145478859562983,-0.44312582385239885,-0.3422465734674684,-1.4178873242784094,0.33918261458617044,1.1908354575561906,-0.1784843571709328
0.2157022064719115,-0.44316692973785876,-0.34363979945075,-1.4173270616984637,0.33943092764030647,1.1910789170242098,-0.17850562913477305
0.21686311833252792,-0.4432112114680588,-0.3450283516604609,-1.4167679976142986,0.3396833635112016,1.1913278294462277,-0.17852090905604193
0.21802660684453565,-0.44325675158064953,-0.3464098332141228,-1.4162027017229564,0.3399306220374036,1.191570569838595,-0.178531994514786
0.22035687948651123,-0.44335999565988665,-0.3491689014010545,-1.4150688742089217,0.34042839866671865,1.192025610881261,-0.17854547674692534
0.22152594061665443,-0.4434145837774859,-0.3505452896476267,-1.414496986972576,0.3406852446355677,1.1922652954202744,-0.17854961132284022
0.2226951815157106,-0.4434674342016486,-0.35191718378045816,-1.4139224033116193,0.34094448746507855,1.1925215181538642,-0.1785529069408003
0.22386334380128903,-0.44351950566354953,-0.3532894973377254,-1.41334578230601,0.34120305904095904,1.1928029076626032,-0.17855524382758564
0.2250343225028648,-0.4435712774742345,-0.354660912159511,-1.4127654462580048,0.3414629729495673,1.1930953827391693,-0.17855698163010522
0.22620182559940136,-0.44362424778070025,-0.35603124836781885,-1.4121824736719983,0.3417203940044049,1.1933931307826546,-0.1785584196723258
0.2285344951238553,-0.44373180620476516,-0.3587817478607879,-1.4110204233112942,0.342222293450479,1.193939971017071,-0.17856099632371714
0.229697803757867,-0.4437866939735804,-0.3601637686121056,-1.410435952578291,0.34246610041355224,1.194184329329655,-0.17856189505919884
0.23085733746287282,-0.44384499724265863,-0.3615568149355573,-1.409840875915756,0.3427037716716401,1.1944272496000183,-0.17856249436163074
0.23202136528161943,-0.4439076747431747,-0.3629575911040999,-1.409236751139129,0.342932910015015,1.194673345606039,-0.17856279390376362
0.23318701091149954,-0.4439720899371273,-0.3643550116589895,-1.4086309485556756,0.343160897837347,1.194946825609857,-0.1785632133281995
0.23435457400372917,-0.4440370444378188,-0.3657454213353568,-1.408022809085437,0.34339233722280765,1.1952271366142013,-0.17856363286171842
0.2367051598783702,-0.4441726459396401,-0.36850610744250517,-1.4068074888761342,0.3438586673823249,1.1957900357321483,-0.17856453159720012
0.2378824301646502,-0.44424203455837935,-0.3698804583444249,-1.4062031843305944,0.3440986395079657,1.196071844774406,-0.17856495113071907
0.2390614981400597,-0.4443090862903332,-0.3712512738637786,-1.4055882737464396,0.34433928271270386,1.196357788392579,-0.1785655503240679
0.24024038634655626,-0.444376617442416,-0.37262292834108707,-1.404972164775587,0.34458126825016977,1.1966706365884205,-0.17856596974850378
0.24141573927956983,-0.44444438825002175,-0.3739982379741816,-1.404365403460959,0.3448165424730629,1.1970184786357645,-0.17856614951741673
0.24258863533441197,-0.44451054113741084,-0.37537846125453583,-1.4037636155711175,0.3450487489307299,1.1973838177179428,-0.1785668085973755
0.2449349068642252,-0.44464182829440435,-0.3781453790597784,-1.402558841404737,0.34549916395639696,1.1980929243763263,-0.1785672880175044
0.24610199064540897,-0.4447137935645349,-0.3795379459631012,-1.401954536859197,0.3457096070309562,1.1984283029183986,-0.17856818686206918
0.24726883466198674,-0.44478839537266673,-0.3809412986739521,-1.4013389671950833,0.34591525620965896,1.1987645801959528,-0.17856818686206918
0.24843687717434526,-0.4448638361387534,-0.3823498046875857,-1.4007202815728395,0.3461153449438978,1.1991105048900303,-0.1785683066352891
0.24960671726675024,-0.4449400557580188,-0.3837543557851343,-1.4001081274089888,0.346317255103744,1.1994702713540732,-0.1785684265175921
0.2507818903217678,-0.44501633537297725,-0.3851532743779374,-1.3995019652877096,0.3465154262447337,1.1998268019776828,-0.17856872616880806
0.253143142230717,-0.44516452026237313,-0.38794062540723157,-1.398279095002229,0.3469166580666125,1.2005438781366802,-0.17856974478659277
0.2543271237443032,-0.44523732449045855,-0.3893274998101159,-1.397667959456163,0.3471201981894471,1.2009270137958257,-0.1785703439799416
0.25551416122032655,-0.4453087504538502,-0.3907089213680847,-1.3970610782592319,0.34732738151256237,1.2013380726504246,-0.17857064363115754
0.2567010788140469,-0.4453793974549801,-0.3920889647704429,-1.3964553355623885,0.3475304421934515,1.2017615952284613,-0.1785710630555934
0.2578838619409355,-0.445446329304631,-0.3934740415932808,-1.3958512707814548,0.34773196890446106,1.202176968427888,-0.17857124282450637
0.2590652668031303,-0.4455149390701916,-0.39486403195429537,-1.395243311080129,0.3479296606035052,1.2025936000097055,-0.17857142259341932
0.2614229832204304,-0.44565964857271445,-0.39765965202633624,-1.394014148991778,0.34831814122440186,1.2034364505941708,-0.17857226144229105
0.26259785673331504,-0.445731673729455,-0.39906989562432327,-1.3933948641761853,0.34850365715751824,1.2038476293310727,-0.178572561093507
0.26377105243937315,-0.44580759380658747,-0.4004902659498796,-1.3927709054779387,0.3486897481766232,1.20424304883566,-0.17857268086672692
0.264945086994303,-0.4458873488084189,-0.401917707040568,-1.392148325044386,0.3488658683042444,1.2046345135332452,-0.17857268086672692
0.2661213986584913,-0.4459708189617294,-0.4033437698665628,-1.391529939073358,0.34903786596417236,1.2050304723445713,-0.17857286063563987
0.26730286340729614,-0.44605207200147445,-0.4047606648052461,-1.3909132308000736,0.34920612443071086,1.2054291275805087,-0.17857286063563987
0.2696772380105588,-0.44622021069479306,-0.40757030641616515,-1.3896500934780047,0.3495505990179794,1.2062327297461706,-0.17857304040455282
0.2708677508734552,-0.4463045795835852,-0.4089693447821882,-1.3890135513921837,0.3497223088731138,1.2066496009835108,-0.17857316028685583
0.2720577245386958,-0.446386911236808,-0.41036448833690237,-1.3883737135793195,0.3498984291752679,1.2070774377972924,-0.17857316028685583
0.2732472187838075,-0.4464661269319006,-0.41175711523591824,-1.3877266853371863,0.35007560383082315,1.207496945681717,-0.17857316028685583
0.2744317994907425,-0.4465432455048138,-0.41315231867724234,-1.3870834920197521,0.3502474096790663,1.2079136371501444,-0.17857316028685583
0.2756166798488935,-0.44661898581303333,-0.4145487205052641,-1.3864460510893664,0.35041585995728963,1.2083306282697879,-0.17857316028685583
0.27797505545523543,-0.4467736421651295,-0.4173523700736118,-1.385151874613714,0.35072246439044846,1.2091687449759063,-0.17857304040455282
0.27915148689264363,-0.44685429601152576,-0.41876824628542736,-1.3845081419895409,0.35086109798732945,1.2095635652871448,-0.17857304040455282
0.28032282502296224,-0.44693884477831397,-0.42019880322516295,-1.3838680645211536,0.35098582968765246,1.2099470604841163,-0.17857304040455282
0.28148966903954004,-0.44702531089836856,-0.42164260274151494,-1.3832270283215917,0.35110097411986135,1.210329537063303,-0.17857286063563987
0.2826607076277257,-0.44711219655194206,-0.4230875407579546,-1.3825863516598558,0.3512095992237153,1.210721960492063,-0.17857274086241995
0.2838380977963087,-0.4471986626719967,-0.42452534812265225,-1.381945375346904,0.35132052519512214,1.211128824884137,-0.17857274086241995
0.2861996492473908,-0.44737537016836104,-0.4273850238508198,-1.3806471242910296,0.3515275167065526,1.2119034252408676,-0.17857274086241995
0.2873813536517185,-0.44746057790602495,-0.42880659256307374,-1.3800003357044195,0.35163614181040653,1.212295309471972,-0.178572561093507
0.2885673126233472,-0.4475435687482896,-0.43022151015279764,-1.3793567228534662,0.3517487933888448,1.2127066679777867,-0.17857274086241995
0.289745361871889,-0.4476248816746446,-0.4316384049823978,-1.3787120913847284,0.35185482982035216,1.2131378604052212,-0.178572561093507
0.2909232913472108,-0.4477037978276043,-0.4330623705771302,-1.3780596102976796,0.3519577024935244,1.2135501776422108,-0.178572561093507
0.29209744578444363,-0.4477816952536962,-0.4344898715544286,-1.3774044926726297,0.3520529051427659,1.2139334930702694,-0.178572561093507
0.29443658677159784,-0.4479355127569207,-0.43735416127863996,-1.376110855503716,0.35222240994892323,1.214708752616042,-0.178572441211204
0.29560229228808793,-0.4480143090275774,-0.4387981405639049,-1.3754648458793675,0.35228789190993126,1.2151039923517162,-0.178572561093507
0.29676392322435613,-0.44809574183623535,-0.4402536246232667,-1.3748064325272744,0.35234742945403996,1.2154724472829417,-0.178572561093507
0.29792453543375663,-0.44818454495215837,-0.4417167187544995,-1.3741433454016105,0.3523971879183497,1.215819031056978,-0.178572441211204
0.2990902410593298,-0.44827556518164685,-0.4431784346210387,-1.3734846923939945,0.35244426206626983,1.2161566865992257,-0.178572441211204
0.30025786403816934,-0.44836790357105283,-0.4446333794827447,-1.3728290953488156,0.3524906649605597,1.2165058470246535,-0.178572441211204
0.30260101971893544,-0.4485491050720749,-0.4475329027139814,-1.3715074151021456,0.35258356656771533,1.2172488090344518,-0.17857226144229105
0.3037796682699091,-0.44863982565034743,-0.44897142915433086,-1.3708331226354347,0.352633325206558,1.2176130696122354,-0.178572441211204
0.3049553207450555,-0.44873306299340127,-0.4504039035564159,-1.370147265508017,0.352682796040607,1.2179718772360204,-0.17857268086672692
0.3061283366822007,-0.4488232442649349,-0.451840212992283,-1.369458352309079,0.35273121234672195,1.2183267900484966,-0.178572441211204
0.30729817677460564,-0.4489100699228154,-0.4532756833611122,-1.3687642859164415,0.352780587362195,1.2186948855509792,-0.178572561093507
0.30846585974913826,-0.4489960567318242,-0.45471025510354274,-1.3680650663301044,0.3528319756149602,1.219069392520469,-0.17857268086672692
0.31078732393254516,-0.4491728241147985,-0.45759827345159954,-1.3666686045063896,0.35291318072360073,1.2197650169467131,-0.17857286063563987
0.3119417043347683,-0.4492628855040291,-0.45905939023387293,-1.3659581198014785,0.3529456818958655,1.2200851155675168,-0.178572441211204
0.31309314876594035,-0.44935528388912815,-0.4605296149077648,-1.3652514699121834,0.3529702255884717,1.220402577650319,-0.17857286063563987
0.3142466303235987,-0.44944977950548964,-0.46199965981274366,-1.3645562051328481,0.3529895921109176,1.2207400534236537,-0.17857268086672692
0.31540232910390553,-0.44954421523524113,-0.4634637725617612,-1.3638617792023848,0.35300608250528925,1.2210913110803439,-0.17857274086241995
0.3165609040777366,-0.4496333778889901,-0.4649206947724266,-1.3631620203093087,0.3530209429366724,1.2214393330056839,-0.17857304040455282
0.31888560399249366,-0.44981697616340743,-0.46782303441966067,-1.3617521361400646,0.3530597718001403,1.2221468816304608,-0.17857316028685583
0.32004879285328547,-0.4499123706243337,-0.46926797243610036,-1.3610456062421554,0.35308402786248577,1.2225189918265553,-0.17857316028685583
0.32121018413403074,-0.4500067463583922,-0.47071368941480185,-1.3603407540419898,0.35310837974340714,1.222904464372486,-0.17857316028685583
0.3223685792298658,-0.45010040312588195,-0.4721622825870276,-1.3596342839216076,0.35313503266641433,1.2232867611827598,-0.17857316028685583
0.3235291315526563,-0.45019394001106866,-0.4736139317216904,-1.3589256567924362,0.35316091869174826,1.223656354614073,-0.17857334005576878
0.3246841711439213,-0.4502907126276055,-0.47506600038987223,-1.3582178085164434,0.3531834489725293,1.2240134246535046,-0.17857375948020465
0.32699562859114495,-0.45048773324755226,-0.47797858642881247,-1.3568036699980643,0.35321451216802335,1.2247179772024543,-0.1785750777492053
0.32814701302662397,-0.45058672297765456,-0.4794420999844811,-1.356105049605076,0.35322199020573647,1.2250624038586182,-0.17857609636699
0.3292997756177136,-0.45068900832571696,-0.48091286396511185,-1.355401695442824,0.3532250581454956,1.2254018569809124,-0.1785772948627707
0.3304567326713281,-0.4507888967913009,-0.48238033232778244,-1.3546915701666558,0.35322850970862435,1.2257340596782447,-0.17857849324946837
0.3316181238429903,-0.4508874670969673,-0.4838372545384479,-1.3539746138899615,0.3532356042975008,1.226073752565145,-0.17857987140507897
0.3327811929305622,-0.45098543810020186,-0.48528530840393475,-1.3532563393442665,0.35324557518898453,1.226425429646271,-0.17858077024964375
0.33511973461528444,-0.4511740697950989,-0.4881597247466323,-1.3518259621734439,0.35327817235435816,1.2271360342334852,-0.17858376632547096
0.3362889755143406,-0.4512696440249381,-0.48958920318197324,-1.3510976210049557,0.3533004150048785,1.227491905886219,-0.1785858635567334
0.3374550406777397,-0.4513667761793009,-0.4910231755128888,-1.3503535203859867,0.35332515050916946,1.2278465190474792,-0.17858802067460577
0.3386215850431015,-0.4514694210651891,-0.4924573877174935,-1.349604446451314,0.3533488313109934,1.2282129367431351,-0.178591076746126
0.3397816580548462,-0.45157548145134047,-0.4938941763553233,-1.3488517172517722,0.3533720326708719,1.228587563594928,-0.1785944922463891
0.340941071877549,-0.4516815418374918,-0.4953337215225405,-1.3480889813160473,0.3533907281142205,1.228939480331577,-0.17859796763326213
0.3432541471359062,-0.4519071448419339,-0.4982289904046424,-1.3465562588014692,0.3534200655281502,1.2295889654518815,-0.1786066562095278
0.34440343434012277,-0.452028604922574,-0.49969256384692107,-1.3457916652900048,0.3534237087284308,1.2299139177242517,-0.1786121689410533
0.34555751520021305,-0.452154678999258,-0.501155058784805,-1.345032464627763,0.353427831370657,1.2302476783461076,-0.17861894005496948
0.3467189063718753,-0.4522775772312018,-0.5026057491882931,-1.344269668696345,0.3534345425106967,1.2306007935785372,-0.17862714921110623
0.3478814361527083,-0.4524055088836253,-0.5040453542421204,-1.3435124454921454,0.35344134946931244,1.2309562456977523,-0.17863793501863434
0.3490476210893273,-0.4525358373094441,-0.5054823226488632,-1.3427571397502955,0.3534483482396129,1.2313052862408769,-0.17865183667520954
0.35139071677440037,-0.4527976925477793,-0.5083400210280712,-1.341222080348932,0.35347883617458553,1.2320338071782782,-0.17868539259357455
0.3525614557113701,-0.45292316743111444,-0.509758533777888,-1.3404613816487767,0.3534983943341834,1.2324313839098207,-0.17870444744384933
0.3537320148794269,-0.4530416315450105,-0.5111825593683135,-1.3397076937180603,0.353517089777532,1.2328353721083707,-0.17872571951677266
0.35490251416087376,-0.4531539836249491,-0.5126077233497435,-1.3389453772067712,0.3535378944512816,1.2332142534183812,-0.17875040698087596
0.356071455408714,-0.4532657365115389,-0.5140365425960425,-1.3381768887749148,0.35355860313192233,1.233566769348379,-0.1787776710963706
0.3572381197654619,-0.4533779688182576,-0.515471174116,-1.3374151714569744,0.35357557279370655,1.233922101585291,-0.17880679278760475
0.3595635986424807,-0.4536098635164869,-0.5183760903055422,-1.3358985678216202,0.353591200297296,1.2346626069350841,-0.17887282579269087
0.3607257688854878,-0.45373036486595236,-0.5198453563573424,-1.3351247464271512,0.353593309527697,1.2350142840162102,-0.17890548286649108
0.36189291255328154,-0.4538608131740741,-0.5213148619555824,-1.3343503857259433,0.3535975279884991,1.2353560740252896,-0.1789365220200747
0.3630640709146872,-0.45399461709584904,-0.5227760985110758,-1.3335763845625614,0.35360375968659336,1.2356900145251415,-0.17896462498444107
0.364238105469617,-0.4541309975599322,-0.5242291857970423,-1.3327947734363916,0.3536093204801231,1.2360377367992657,-0.17898949221745733
0.3654177726383753,-0.4542673181374054,-0.5256755019690925,-1.332008488427568,0.35362312620903935,1.236413861688972,-0.17901394002603774
0.3677841777410242,-0.45455805541145183,-0.5285349979283471,-1.3304034411050334,0.3536656942658967,1.2371750995867834,-0.17906601148793866
0.36896426433421836,-0.4547140900282417,-0.5299632179812974,-1.329591210358799,0.35369052558876357,1.2375403787823516,-0.17909345537234625
0.37014279300288905,-0.4548723416495139,-0.5313929958496881,-1.3287668754269526,0.35371813722112894,1.2378957111283466,-0.17912143856349272
0.3713210221294268,-0.45502945487978147,-0.5328165420199846,-1.3279418813060644,0.35374881679325343,1.238258174017001,-0.179149901065685
0.3724961352978344,-0.45518417122757066,-0.5342370322278439,-1.3271179060211271,0.3537758531650973,1.2386258499859644,-0.1791805806814427
0.37367202742850375,-0.4553364906928815,-0.535658660935791,-1.3262937508581936,0.3537984794389872,1.23897614891148,-0.17921431636872068
0.376014583915921,-0.4556398114635856,-0.5385284632824447,-1.3246581438022045,0.3538354867023148,1.2396262931117432,-0.17929089552581196
0.3771889180129837,-0.45579662504263724,-0.5399743001434492,-1.3238395013707964,0.3538496760546006,1.2399370440763222,-0.17933218118018482
0.3783678662151733,-0.4559584120464755,-0.541418578970847,-1.323023495586473,0.3538639612254623,1.2402684678113929,-0.17937760141047254
0.3795520873842824,-0.4561243336262287,-0.5428569856379766,-1.3222032352348485,0.3538790134685303,1.240611156665037,-0.17942685656545923
0.3807412819781782,-0.45628965601263305,-0.5442937143891964,-1.32137997891648,0.35389837981644334,1.2409540852832877,-0.1794780291827954
0.381937846988422,-0.4564616896263436,-0.5457262486778914,-1.3205597785605485,0.3539254163628201,1.2412922801322743,-0.17952860260678274
0.3843417027116616,-0.45682385286378174,-0.5485719628628738,-1.3189229132312517,0.3539972258404983,1.2419845488357821,-0.17963921699328486
