AdrianPrados/GaussianPathwiseLfD/ExpJointIiwa/joint_gaussian_2_joints.csv
joint_0,joint_1,joint_2,joint_3,joint_4,joint_5,joint_6
-0.00983557327065125,-0.4368329073528917,-0.003965999471184706,-1.5752212022334464,0.000843210100474658,1.1336140193610542,-0.00012535500103214524
-0.009834973968219347,-0.436831768852804,-0.003984155585977812,-1.575226355427146,0.0008202003777480657,1.1336179741680563,-0.00012535500103214524
-0.009834674426086473,-0.43683134942836815,-0.003992484624417564,-1.575229051851757,0.0008093665954821613,1.1336194722059698,-0.00012505534981619346
-0.009847078044748084,-0.4368311097728452,-0.004020767357696897,-1.5752504436979005,0.0007927803825346087,1.1336200713993188,-0.00012505534981619346
-0.009855107541054961,-0.4368311097728452,-0.004036167052185713,-1.5752608699676025,0.0007892331753628554,1.1336197717481027,-0.00012535500103214524
-0.009864095659453499,-0.4368312295460651,-0.004049709280018093,-1.5752700978506071,0.0007887537334173326,1.1336196518657997,-0.00012535500103214524
-0.00987560054263341,-0.4368312295460651,-0.00406265220541857,-1.5752809435447452,0.0007889455451021267,1.1336189927858409,-0.00012535500103214524
-0.00988992173272757,-0.4368312295460651,-0.004076074550947954,-1.5752948453104034,0.0007904795149817046,1.133618693134625,-0.00012571453885805607
-0.009927791886837345,-0.4368314693106711,-0.004106694280095708,-1.5753306781198608,0.0007923969336979456,1.1336179741680563,-0.00012571453885805607
-0.00995158050637587,-0.4368314693106711,-0.004124071432627032,-1.5753501525036546,0.0007938350850015889,1.1336179741680563,-0.00012571453885805607
-0.009977945777305732,-0.4368314693106711,-0.004141688240681272,-1.5753697466606682,0.0007947937943597093,1.1336173149790143,-0.00012571453885805607
-0.010036129273164076,-0.436831589083891,-0.004175004394440279,-1.5754134291975195,0.0007977659155429305,1.1336169554411883,-0.00012571453885805607
-0.010069505313533041,-0.4368314693106711,-0.0041917223579297416,-1.5754385361951417,0.0007990122551617797,1.1336166558990555,-0.0001258943077710115
-0.010105098467467431,-0.436831589083891,-0.004209578821506896,-1.5754647216971587,0.0008007380367261517,1.1336161165923166,-0.0001260140809909296
-0.010142249545925382,-0.43683170896619405,-0.004228933322997652,-1.5754918060437402,0.000803422353115719,1.1336156371721877,-0.0001260140809909296
-0.010225479934629862,-0.436831589083891,-0.004269679779714711,-1.575548371619382,0.0008088873280695636,1.1336146185544032,-0.000126193849903885
-0.010269222358091048,-0.43683170896619405,-0.00429017278129316,-1.5755777329661391,0.0008120510864046537,1.133614318903187,-0.000126193849903885
-0.010313564083984138,-0.43683170896619405,-0.004310605896261649,-1.5756079331617678,0.0008155984681093322,1.1336138395921413,-0.000126193849903885
-0.01035982316314362,-0.436831589083891,-0.004331518322275966,-1.5756394517354804,0.0008185704147596281,1.1336134201677055,-0.00012637361881684043
-0.010405243393431365,-0.436831589083891,-0.004353629244071013,-1.5756727677801563,0.0008200085660632715,1.1336131205164894,-0.000126193849903885
-0.010450004434677246,-0.43683134942836815,-0.004377537745912535,-1.575707881623045,0.0008200085660632715,1.1336125213231407,-0.00012655338772979584
-0.01054102466416569,-0.4368311097728452,-0.0044329648214665885,-1.575781524700002,0.0008206796451606632,1.13361120305414,-0.00012655338772979584
-0.010585785705411572,-0.43683093000393225,-0.004463225012788431,-1.5758201738163735,0.0008206796451606632,1.1336104839784882,-0.00012655338772979584
-0.010631865015658099,-0.4368305105794964,-0.004493964515156103,-1.5758612797018334,0.0008204880080087943,1.1336095851339234,-0.00012655338772979584
-0.010678423746033535,-0.4368302708148904,-0.004525243324262642,-1.57590418316734,0.0008211590871061861,1.1336089859405747,-0.00012667327003279219
-0.01072414362753723,-0.4368299113861476,-0.004557420977933956,-1.5759470268553193,0.0008213508987909803,1.1336083867472257,-0.00012667327003279219
-0.010771241555568455,-0.43682967162154157,-0.004589898173738146,-1.5759908291653904,0.0008211590871061861,1.133607547898354,-0.00012667327003279219
-0.0108661565963658,-0.4368293720794087,-0.004654373363383773,-1.5760815497436629,0.0008240353897134727,1.1336061696336603,-0.00012667327003279219
-0.010915112209219617,-0.4368291923104958,-0.004687150210403912,-1.576129067205213,0.000827582596885226,1.1336053307847886,-0.00012667327003279219
-0.010963108981815616,-0.4368291923104958,-0.004721604864250611,-1.5761787417846356,0.0008335268392516683,1.1336044319402239,-0.00012667327003279219
-0.011009787594494048,-0.43682907242819274,-0.004757317791404919,-1.576226379128489,0.0008409090583888287,1.1336031136712232,-0.00012679315233578856
-0.011057424829264138,-0.43682907242819274,-0.004793510247771212,-1.576274316014475,0.0008501130521992209,1.1336026942467874,-0.00012679315233578856
-0.011105002286507347,-0.4368291323148027,-0.004831020864055075,-1.5763240504805074,0.0008627682600725065,1.1336025144778743,-0.00012679315233578856
-0.011199437907175787,-0.43682895254588977,-0.004911914365974212,-1.5764233398618257,0.0009002549653456163,1.1336022148266585,-0.00012703280785870304
-0.011244678368550575,-0.43682895254588977,-0.004953140024654023,-1.576473433865684,0.0009247028393758521,1.1336020950534385,-0.00012703280785870304
-0.011288301018791844,-0.43682895254588977,-0.004995803943720554,-1.5765223294828448,0.0009508763204375347,1.1336019751711355,-0.00012715258107862115
-0.011331623908734082,-0.43682895254588977,-0.00503996579161761,-1.5765724834823964,0.0009774334248688055,1.1336019751711355,-0.00012715258107862115
-0.011373448869845796,-0.43682895254588977,-0.0050843672950375805,-1.5766228172508607,0.0010043739781367396,1.1336017954022226,-0.0001272724633816175
-0.011413056717392085,-0.4368288327726698,-0.005130027180848239,-1.5766723720570635,0.0010332319501209148,1.1336017954022226,-0.00012757211459756929
-0.011491373677002965,-0.43682841334823397,-0.005223923603860891,-1.5767753764807775,0.0011009187855729832,1.1336016756290026,-0.0001277518835105247
-0.011528464868850959,-0.43682781404580207,-0.005270781985452278,-1.5768263693292008,0.0011415692491811831,1.1336014958600897,-0.00012781177012048374
-0.01156441756061126,-0.4368275145036692,-0.005318119678089494,-1.5768784407911016,0.0011863423550155189,1.1336013160911766,-0.00012805142564339822
-0.011600130487765566,-0.43682727484814626,-0.005364019219423067,-1.5769306920219155,0.0012355257333367192,1.1336013160911766,-0.00012817130794639457
-0.011635483986177041,-0.4368271549658433,-0.005410697832101499,-1.57698438129495,0.0012888314048182046,1.1336011962088737,-0.0001284708500792681
-0.011669459219894833,-0.4368267355414074,-0.00545947356695928,-1.5770372317191128,0.0013450135534399021,1.1336010164399608,-0.00012859073238226447
-0.011738368527588229,-0.43682649577680144,-0.005557145028060918,-1.577140116369607,0.0014769358357482204,1.1336008965576578,-0.00012889038359821626
-0.011772763294824969,-0.43682643589019143,-0.005606939489786472,-1.577192067949205,0.0015496082042086106,1.133600597015525,-0.00012960935016695965
-0.011805659915065029,-0.43682643589019143,-0.00565625453138312,-1.577243600104367,0.0016282248150354432,1.133600477133222,-0.00012960935016695965
-0.01183831698886525,-0.43682643589019143,-0.005706708182150537,-1.577295551683965,0.0017083752212089284,1.133600597015525,-0.00012990900138291144
-0.011871513260321261,-0.43682643589019143,-0.0057565026438760915,-1.5773442676412959,0.001789963778686057,1.133600477133222,-0.0001302086525988632
-0.011905608376342048,-0.43682631611697154,-0.005804139878646182,-1.5773926838383279,0.001879989257767326,1.133600477133222,-0.0001308078459476885
-0.011939403950229962,-0.43682631611697154,-0.005852316420155138,-1.5774421187622274,0.001971740518412967,1.133600477133222,-0.00013110738808056203
-0.012007833837794451,-0.43682607635236553,-0.005946272838860826,-1.5775376331054567,0.002170007652511495,1.133600297364309,-0.0001318264637323837
-0.012042588033774023,-0.43682595657914564,-0.005992232266804358,-1.577584431491355,0.00227268833946605,1.133599997822176,-0.00013254553938420538
-0.012076683149794811,-0.43682553704562666,-0.006036933421440281,-1.5776294921838168,0.0023787247709734145,1.133600117595396,-0.00013296496382007525
-0.012109939416943858,-0.4368251176211908,-0.0060792976892908605,-1.5776752718428475,0.002492910493824191,1.133599997822176,-0.00013338438825594514
-0.012143974646354687,-0.4368247580833649,-0.006122021494967352,-1.577721351262177,0.002613136277617344,1.133599997822176,-0.0001341034639077668
-0.01221306372296104,-0.43682409900340613,-0.006207049572801385,-1.5778075178400988,0.0028606824340800816,1.133599997822176,-0.00013584115734428367
-0.01224703895667883,-0.43682373946558023,-0.006248874424830021,-1.5778519193435188,0.0029926047163884,1.133599877939873,-0.00013602092625723908
-0.012281493610525529,-0.4368233200411443,-0.0062913585749835976,-1.5778946431491951,0.0031261569616851553,1.1335990989776112,-0.00013656023299610533
-0.012315648613156274,-0.4368230802765383,-0.006333782729444137,-1.577935988690178,0.003262489516480338,1.1335977807086106,-0.00013691977082201616
-0.012348305686956497,-0.4368227208477955,-0.00637686596386346,-1.5779772743445508,0.0034016023807739476,1.1335955635950452,-0.00013721942203796794
-0.012379464613760039,-0.43682242119657955,-0.006421986652018331,-1.578017601267749,0.003543974996511507,1.1335927472881309,-0.00013775861969375592
-0.012409844687384878,-0.43682206165875365,-0.006467586542135952,-1.5780569694597724,0.003689032103171559,1.1335893317878678,-0.00013835792212565947
-0.012467189116205325,-0.43682140257879487,-0.006557887695972573,-1.578135705843819,0.003994486015287441,1.13358178171169,-0.0001395563088233101
-0.012493015189479399,-0.43682104304096897,-0.00660198965725967,-1.5781721977332352,0.004153828292809216,1.1335772277113392,-0.00014021538878209445
-0.012517642766972743,-0.43682116281418887,-0.00664435392511025,-1.5782075512316467,0.004318922826479714,1.1335724340554654,-0.000140814691213998
-0.012541731037727221,-0.43682092315866594,-0.006687736810745526,-1.578243204272191,0.0044857433162475095,1.133566382017201,-0.0001411741199568306
-0.012565220115132874,-0.43682080327636297,-0.006733336809946225,-1.5782787974261254,0.00465563174577446,1.1335599704411108,-0.00014171342669569683
-0.012587990116886705,-0.43682062350745,-0.006780974044716315,-1.5783128925421461,0.0048290673824731645,1.1335531394405847,-0.00014249238895747756
-0.012609561731942885,-0.4368205037342301,-0.006831307813180735,-1.5783462686915983,0.00500106504240115,1.1335458890156227,-0.00014315157799934015
-0.012645873961529096,-0.43682038385192706,-0.006932155009939455,-1.5784109834276836,0.0053518671463399,1.1335289912832203,-0.0001441103091740763
-0.01266133365171095,-0.43682026407870717,-0.006983986816317478,-1.5784414832745284,0.005531534655665775,1.1335201828246515,-0.00014482938482589795
-0.012675415077199118,-0.4368201441964042,-0.00703593839591542,-1.5784706648523725,0.005715995886315178,1.13351107482395,-0.00014524880926176784
-0.01268811834707668,-0.43682002431410116,-0.0070878900845964396,-1.5784993072325608,0.005902853977626344,1.1335025061299875,-0.00014614765382654492
-0.012699263692430681,-0.43681990454088127,-0.007142777853411626,-1.5785275300792303,0.006094601608836973,1.1334942369781575,-0.0001469865026982847
-0.01270939031091691,-0.4368197247719683,-0.0071977255088367725,-1.578554614425812,0.006290663519425607,1.1334858480531078,-0.00014770557835010637
-0.012718738076224435,-0.43681954500305537,-0.0072534521265237,-1.5785800209655672,0.00649094389081631,1.13347835786354,-0.00014812500278597627
-0.012735156388497945,-0.43681930534753244,-0.007366283626591238,-1.578628736813815,0.006898503403898215,1.1334648756314005,-0.0001498626962224931
-0.01274210727132709,-0.43681912557861946,-0.007424467013366504,-1.5786531247357853,0.007109521564445964,1.133459063248659,-0.00015082142739722925
-0.012748818498633322,-0.4368188259274035,-0.007482051206792944,-1.5786774526620626,0.007321786239145486,1.1334535505171335,-0.0001520199231779581
-0.012755110192420606,-0.43681852627618756,-0.007541972287004726,-1.5787009417394684,0.007540953691036647,1.133448037785608,-0.00015273899882977976
-0.012760263386120196,-0.4368184663895776,-0.007602972089777319,-1.5787228728923504,0.007763764343208419,1.1334425849406926,-0.00015399727213738943
-0.012764517735255011,-0.4368182267340547,-0.007664750745728615,-1.5787437854274478,0.007992998679692158,1.133437371860383,-0.0001547163477892111
-0.012770210344776546,-0.43681792708283873,-0.007789865982154767,-1.5787827940816452,0.008446385826542453,1.1334273051285066,-0.00015633426800580984
-0.012771768269300108,-0.43681768742731586,-0.007851764520409059,-1.5788010100830483,0.008673319120940362,1.13342239159033,-0.00015729299918054596
-0.012772547231561888,-0.43681780730961883,-0.007913063865314526,-1.5788185070087997,0.008905525404074396,1.1334177775942862,-0.00015831161696524117
-0.012772966655997758,-0.43681780730961883,-0.007975741365830598,-1.5788348655435462,0.009139745099033533,1.1334141224385001,-0.000160049310401758
-0.012773086538300756,-0.43681780730961883,-0.008037100597346023,-1.5788497858179062,0.009382689345857537,1.13341082682054,-0.00016088826835657604
-0.012773086538300756,-0.43681780730961883,-0.008099538442339183,-1.5788632081634355,0.009627934460234445,1.133407770858103,-0.0001620267684442676
-0.012772966655997758,-0.4368177473139258,-0.008161376984900437,-1.5788750725844414,0.009877494028522282,1.1334046548999728,-0.0001634049240548736
-0.012772846773694762,-0.43681780730961883,-0.008221717598631167,-1.5788854389675335,0.010127628857331579,1.1334014191686226,-0.0001650827308814314
-0.012772966655997758,-0.43681780730961883,-0.008348990062012784,-1.5789027561243718,0.010632883698892641,1.1333941687436606,-0.00016807880670863617
-0.012772846773694762,-0.43681780730961883,-0.008416880642838407,-1.57891024631394,0.010890017298002435,1.1333902738232686,-0.00016981650014515304
-0.012772427349258892,-0.4368178671962288,-0.008485789950531805,-1.5789165978943371,0.011154341304564594,1.1333861992430467,-0.00017227326923349153
-0.012771888042520026,-0.43681792708283873,-0.008555777871702933,-1.5789219908526426,0.01141856949255082,1.133382184549435,-0.00017473003832183006
-0.012771408731474197,-0.43681780730961883,-0.008621810876789043,-1.5789261253194746,0.011685673808611404,1.133377930091217,-0.00017664750067130234
-0.012770869424735331,-0.4368178671962288,-0.008687724108655235,-1.5789289416263887,0.011951340147901272,1.1333736157463892,-0.00017874473193373
-0.012770629769212416,-0.4368178671962288,-0.008823205837256686,-1.5789314583911702,0.012490438494454833,1.1333651669347296,-0.00018389792563332152
-0.012770629769212416,-0.4368178671962288,-0.008894332149432428,-1.57893151827778,0.01275840587583053,1.1333607327075987,-0.0001864145813316191
-0.012770330117996465,-0.43681792708283873,-0.008966357415256027,-1.5789314583911702,0.013032317325039745,1.1333567779005966,-0.00018845192598408774
-0.012769850806950636,-0.4368178671962288,-0.009038622227519461,-1.5789308590887383,0.013308817272062592,1.1333533624003336,-0.0001908488084624672
-0.012769611042344644,-0.43681780730961883,-0.009113463800257307,-1.5789298404709535,0.013587618261171268,1.1333492279335018,-0.00019330557755080572
-0.012769611042344644,-0.43681792708283873,-0.009187945726086166,-1.5789290016220818,0.01387188422523379,1.1333453928997197,-0.0001954028088132334
-0.012769251504518733,-0.4368178671962288,-0.009263925689828626,-1.578928222550737,0.014158067433479627,1.1333416778573238,-0.0001976798089886165
-0.012769071844688855,-0.43681792708283873,-0.009337988191221613,-1.5789269043908194,0.01444914035615785,1.133337603168019,-0.00019965715794804782
-0.012769251504518733,-0.4368179870785318,-0.009489948227789613,-1.5789251665882997,0.015032915815436887,1.1333289145917533,-0.0002034321960370333
-0.012769191617908774,-0.4368178671962288,-0.009567546002665593,-1.5789240280882122,0.01532523507773396,1.1333232820870078,-0.00020463069181776217
-0.012769071844688855,-0.43681804696514176,-0.009647361000190077,-1.5789223502813856,0.015614006958326355,1.133318128784225,-0.00020594885173533088
-0.0127688920757759,-0.43681804696514176,-0.009727954850893263,-1.5789204928147291,0.01590086142020251,1.1333135747838743,-0.00020750688534197057
-0.01276853253794999,-0.4368181068517517,-0.009808848352812401,-1.5789182158145538,0.01619231761718447,1.1333087212413908,-0.00020864538542966212
-0.012768173000124079,-0.4368182267340547,-0.009888543468033887,-1.5789159388143783,0.016485691581948524,1.1333056052832606,-0.00021032319225621992
-0.012767873348908127,-0.4368182267340547,-0.00996919731443011,-1.578913422049597,0.016782229130514744,1.1333027889763463,-0.00021170134786682596
-0.012768292773343997,-0.4368182267340547,-0.010126729969133571,-1.5789079093180716,0.017392561868757976,1.1332993734760832,-0.0002146374280009934
-0.012768772193472904,-0.4368182267340547,-0.010204986933051413,-1.57890527278007,0.017695043659690636,1.1332984147449086,-0.00021565615486876684
-0.012769491269124725,-0.4368182267340547,-0.01028474193488286,-1.578902696237762,0.01799666255984111,1.1332973961271238,-0.0002169744238694138
-0.01276973092464764,-0.4368181068517517,-0.010368571626019243,-1.5789002993552836,0.01829722693205753,1.133296976702688,-0.00021775338613119454
-0.012769850806950636,-0.4368182267340547,-0.01045503785515692,-1.5788982021240212,0.01859846238337134,1.133296617164862,-0.0002188918862188861
-0.012769611042344644,-0.43681834650727464,-0.010543960744299858,-1.5788958652372358,0.018905162809638998,1.1332961976313431,-0.00021997049969661858
-0.012768652311169908,-0.4368182866206647,-0.010712458975444364,-1.578891251241192,0.019524891004311568,1.1332958382026002,-0.0002229664664407451
-0.012768951962385859,-0.4368182267340547,-0.010797846591104308,-1.5788889143544067,0.019840315807911166,1.1332957782069073,-0.00022440461774438843
-0.012768951962385859,-0.4368182267340547,-0.010883174211071215,-1.5788866373542312,0.020159479630367315,1.1332956584336873,-0.0002257228867450354
-0.012768951962385859,-0.4368182267340547,-0.01097053928477367,-1.5788846000095789,0.020486792744166874,1.1332955385513843,-0.00022722092465863778
-0.012769071844688855,-0.4368181068517517,-0.011060061367265433,-1.5788821432404905,0.02081132554846801,1.1332952389001683,-0.00022871896257224016
-0.01276931150021177,-0.43681804696514176,-0.01115090182784092,-1.578880225778141,0.021134324382889563,1.1332945199335995,-0.00022979746696689441
-0.01276931150021177,-0.4368178671962288,-0.011334380329038371,-1.5788770499334008,0.021771981123237392,1.1332938008579478,-0.00023201458053231846
-0.012769431273431688,-0.43681780730961883,-0.011426359289701551,-1.578876151197919,0.0220937336180401,1.133293381433512,-0.00023321296722996905
-0.012769431273431688,-0.43681780730961883,-0.011520315599324161,-1.5788754920088772,0.022413185070756975,1.133292842126773,-0.00023459123192365333
-0.012769431273431688,-0.43681762754070586,-0.011615650064557378,-1.5788750725844414,0.022733019972310513,1.1332910444376434,-0.00023578961862130392
-0.012769191617908774,-0.43681780730961883,-0.011711164298703551,-1.5788747130466154,0.023053909576331032,1.1332894266265099,-0.00023686823209903644
-0.012768951962385859,-0.43681768742731586,-0.01180631910410689,-1.5788740538575736,0.023377387852698113,1.1332866702062057,-0.0002381265054066461
-0.0127688920757759,-0.43681756754501283,-0.011996508723527494,-1.578872615815353,0.024034027492122332,1.1332794197812437,-0.00024022373666907377
-0.0127688920757759,-0.43681756754501283,-0.012090764684366057,-1.5788717768573983,0.02436431272710511,1.1332751054364159,-0.00024190154349563157
-0.0127688920757759,-0.4368173278894899,-0.012184840876291665,-1.5788706383573106,0.024697378271586322,1.1332692331670644,-0.00024339958140923395
-0.012768951962385859,-0.4368173278894899,-0.012279875690308929,-1.5788696197395258,0.02503447063971773,1.1332619228554923,-0.00024489761932283634
-0.0127688920757759,-0.436817148120577,-0.012377607038020527,-1.578869080432787,0.02537165865189215,1.1332535938170527,-0.00024657542614939416
-0.012768652311169908,-0.4368167885827511,-0.012477974923733415,-1.578868780890654,0.025713736378498955,1.1332422087070926,-0.0002483731152789483
-0.012767214268949343,-0.4368164290449251,-0.012671819808023089,-1.5788681815882222,0.026397891831712567,1.1332121283937668,-0.00025244769550080733
-0.012766615075600517,-0.43681612950279225,-0.012770030575863591,-1.5788675225082633,0.026744283837697377,1.1331919948209312,-0.0002543651578502796
-0.012766255537774605,-0.4368160695070992,-0.012867462272359236,-1.5788670430881344,0.027094319218495724,1.1331688652813514,-0.0002565223848057446
-0.012765716231035739,-0.4368160695070992,-0.01296531350237383,-1.5788665038904788,0.027450011036866864,1.1331441778172482,-0.00025885927159108676
-0.012765236810906832,-0.4368159497338793,-0.013064962312434897,-1.578865664932524,0.027807524280845382,1.1331180522018411,-0.0002618553474182915
-0.012764757499861003,-0.4368159497338793,-0.013163832160234184,-1.5788647062013492,0.028165996408714946,1.133089409930736,-0.00026503108307537345
-0.012763259461947401,-0.4368159497338793,-0.013360852780180938,-1.5788623693145638,0.028890802325536757,1.1330254141612193,-0.0002709033524267866
-0.012762300730772665,-0.4368159497338793,-0.0134591234346314,-1.578861110932173,0.029256465035391612,1.1329882030870684,-0.00027449862160281666
-0.01276170153742384,-0.4368159497338793,-0.013560030627083157,-1.5788601522009984,0.02962155248472501,1.132948355583999,-0.0002785733109077539
-0.012761042348381976,-0.4368159497338793,-0.013662495744058475,-1.5788596128942596,0.029990187315763087,1.1329063508539745,-0.0002827677734326093
-0.012760023730597281,-0.4368160695070992,-0.013766039474511526,-1.5788593732387366,0.03035987667473522,1.132863087850642,-0.00028726188717341646
-0.012758705461596635,-0.4368159497338793,-0.013869223667138665,-1.5788593732387366,0.030729470215131414,1.1328197648516167,-0.0002923551942630489
-0.012756668116944167,-0.4368160695070992,-0.014070858174046144,-1.5788591934698237,0.031485243334338435,1.1327255088907782,-0.00030427950187883067
-0.012756068923595341,-0.4368160695070992,-0.014171465824365027,-1.5788591934698237,0.03186768389429272,1.1326767930425303,-0.0003108108511890282
-0.012755949041292345,-0.4368160695070992,-0.014273451521211438,-1.5788589538143007,0.03225482235699458,1.132630473967678,-0.0003176418517151775
-0.012756068923595341,-0.4368160695070992,-0.014380410751927563,-1.5788587740453879,0.03264071430554468,1.132589547851131,-0.00032423319671841234
-0.01275570938576943,-0.4368160695070992,-0.014490725596296803,-1.5788586541630847,0.03302775677513769,1.1325546737728485,-0.00033166339059338695
-0.012754690767984736,-0.4368159497338793,-0.014597025637971066,-1.5788585942764748,0.03341547049836102,1.1325238143881777,-0.0003396328912072278
-0.012753012961158177,-0.4368155303094434,-0.014809386065796676,-1.5788582347386488,0.03419607494043494,1.1324693460437985,-0.000358807732868107
-0.012752773196552184,-0.43681505088931455,-0.014918142876559277,-1.5788582347386488,0.034588390573297004,1.1324444189241722,-0.0003696534270061563
-0.012752293885506355,-0.4368142120404428,-0.015030135527755076,-1.578857995083126,0.0349832947039727,1.132419431808853,-0.00038127808340598625
-0.012751155385418664,-0.4368130735403551,-0.01514069002764723,-1.578857995083126,0.03537896590685464,1.1323949840002725,-0.0003938015843705933
-0.012749477578592107,-0.4368115755024415,-0.015248967418280924,-1.578857995083126,0.03577799267975647,1.1323704163093893,-0.0004080028921617582
-0.012747799771765548,-0.4368101373511379,-0.015354308837863529,-1.5788581148563459,0.03617721108981017,1.1323476463076354,-0.000422983271297782
-0.012745402998370247,-0.43680726115761365,-0.015570504190388083,-1.578858534389865,0.03698427681773943,1.1323057614599137,-0.00045653908057970323
-0.012744743809328385,-0.4368055833507871,-0.015682736497106796,-1.578858534389865,0.037388864209638106,1.1322863469627298,-0.00047379635080803194
-0.012744264498282556,-0.43680396553965356,-0.015796346959436117,-1.578858534389865,0.037795081564525226,1.1322681908479368,-0.0004914131588622714
-0.012743006115891868,-0.43680288692617586,-0.015908878808287702,-1.578858414507562,0.03820599664762702,1.132252371729012,-0.0005091498492195073
-0.012740729115716484,-0.4368014487748722,-0.016018474577005122,-1.578858414507562,0.038620938379846086,1.132238050538918,-0.0005275456195355275
-0.012737613157586283,-0.4368004301570875,-0.016125014274202296,-1.578858294625259,0.03904192034754045,1.1322247480756915,-0.0005467203521133285
-0.012734677077452116,-0.4367997709680456,-0.016233171891616074,-1.578857995083126,0.039468271122546875,1.1322127638814659,-0.0005660748536040848
-0.012728445270274792,-0.43679863246795797,-0.016463029354276005,-1.57885769543191,0.04031531606045402,1.1321886156150183,-0.000605742696843412
-0.012724190921139978,-0.436798452699045,-0.016580175199171394,-1.57885769543191,0.04074166683546045,1.1321780095764031,-0.000627134542986637
-0.012718977731747348,-0.43679839281243504,-0.01669714116607075,-1.57885769543191,0.04117472875050664,1.132167463424398,-0.0006495450069145572
-0.01271334511791885,-0.436798452699045,-0.01681356793531432,-1.578857575549607,0.041609708258802,1.1321579958858705,-0.0006738130465819905
-0.012707532844260475,-0.43679839281243504,-0.016930414128993758,-1.5788573958897771,0.04205082364661567,1.132148468460733,-0.0007006577376407588
-0.012701660574909061,-0.436798512694738,-0.017049417440545583,-1.5788567965873452,0.04249692439290474,1.1321396001155546,-0.0007312174710954753
-0.012690635002774979,-0.436798692463651,-0.017290899668688423,-1.5788554184317347,0.043394111418491206,1.1321219234208904,-0.0008121109730146128
-0.012685182266942513,-0.436798692463651,-0.01741092159802494,-1.578854879124996,0.04384433480700641,1.1321127554244956,-0.0008611264724783867
-0.012679549653114014,-0.436798692463651,-0.017532681329881058,-1.5788544597005598,0.044294174572152026,1.1321028684615324,-0.0009159543546836149
-0.012674096808198471,-0.43679875235026094,-0.0176580363309132,-1.57885451958717,0.04474804116094785,1.132093580691918,-0.0009764147416342634
-0.012669003501108838,-0.436798692463651,-0.01778692671451142,-1.578854220045037,0.04520555095002428,1.1320839933801705,-0.0010405302843709012
-0.012664089962932161,-0.4367988122368709,-0.017918753178243804,-1.578854220045037,0.04566747083705465,1.1320754245771247,-0.0011117765879327182
-0.012655521268969495,-0.43679875235026094,-0.018179949336620232,-1.578854100162734,0.04659514579761372,1.1320618824583755,-0.0012651746667212823
-0.01265246530653233,-0.43679875235026094,-0.018316269914093422,-1.578854220045037,0.0470514092470713,1.1320576879958506,-0.001346727248599204
-0.012650008537443993,-0.43679863246795797,-0.01845828299200507,-1.578854100162734,0.047508056145365546,1.1320542724955875,-0.0014302572885196354
-0.01264779142387857,-0.43679839281243504,-0.018600895263265544,-1.578854100162734,0.04796336071093208,1.1320513363063704,-0.0015119298617836318
-0.01264539454140019,-0.43679839281243504,-0.018745365110265533,-1.578854100162734,0.04842317154209434,1.1320498382684567,-0.0015847938673958911
-0.012643477079050718,-0.4367979733879992,-0.018892051961747865,-1.578854100162734,0.04888758428289534,1.132048939423892,-0.0016442956322548817
-0.012642218805743108,-0.4367974340812603,-0.019041914767053435,-1.5788539802804311,0.0493546813400859,1.1320483402305432,-0.0016946892873292618
-0.012641319961178331,-0.4367953368499979,-0.019345115655454534,-1.578854100162734,0.05028877981042401,1.1320479208061072,-0.0017744442891607078
-0.012641799272224159,-0.4367935391608683,-0.01950097050333144,-1.578854100162734,0.05075578104903864,1.1320479208061072,-0.0018051837915283797
-0.012642098923440112,-0.43679156181190887,-0.019658563044644858,-1.578854100162734,0.05122556259715169,1.1320479208061072,-0.0018335864071107094
-0.012642158810050071,-0.4367892848117335,-0.019819031779482483,-1.578854100162734,0.051700521489957865,1.1320479208061072,-0.0018625882160418644
-0.012642518347875982,-0.43678688792925513,-0.019980878779013795,-1.5788539802804311,0.052177685431741,1.1320480406884104,-0.0018956048276679975
-0.012643177536917844,-0.4367846109290797,-0.020145302320853365,-1.5788539802804311,0.05265101436155873,1.1320480406884104,-0.0019343737172594693
-0.012643896612569665,-0.43678107565559676,-0.020484875325450635,-1.5788535608559953,0.053589810560111514,1.1320479208061072,-0.002031385989319244
-0.012643956499179624,-0.43677951762199013,-0.020659425594859507,-1.5788533212004723,0.05405527782884657,1.1320482204573232,-0.002090168678526413
-0.012644435810225453,-0.4367784990042054,-0.020836192868750728,-1.5788532013181693,0.054522566697721916,1.132048400226236,-0.0021565013348284747
-0.012644435810225453,-0.43677772004194365,-0.021015896331859196,-1.5788527220071233,0.05498956811086947,1.1320479208061072,-0.002226669024912559
-0.012644435810225453,-0.4367767613107689,-0.02119601921940353,-1.5788514037381227,0.0554628970406872,1.1320482204573232,-0.0022994731439148594
-0.012645094999267316,-0.436776102121727,-0.021374284531208355,-1.5788494262800803,0.05593795157753638,1.1320482204573232,-0.002373236103174974
-0.01264773153726861,-0.43677472396611644,-0.021739803382299614,-1.5788434342375088,0.056897264819578054,1.1320482204573232,-0.002521720643786861
-0.01264934934840213,-0.4367738851172447,-0.0219242406146718,-1.57883959931281,0.05737327824031828,1.1320479208061072,-0.002604291952532556
-0.012650727613095814,-0.43677310615498294,-0.022108018767085204,-1.578835224972289,0.05784305996296426,1.1320482204573232,-0.0026925557617167094
-0.012652405310839294,-0.43677196765489523,-0.022298328268808808,-1.5788307309676313,0.058312458062240655,1.1320480406884104,-0.0027873509202110598
-0.012653663693229983,-0.43677136835246333,-0.02249289211966722,-1.5788259372026745,0.058780993270734855,1.1320479208061072,-0.0028813072298336704
-0.012653663693229983,-0.4367703497346786,-0.022893944238082914,-1.5788125748528383,0.05971384540145412,1.1320480406884104,-0.0030969633847024373
-0.012653663693229983,-0.43677028984806865,-0.023099473665382373,-1.5788041259320955,0.06017883322824365,1.1320479208061072,-0.0032253743481717467
-0.012653543920010064,-0.4367699901968527,-0.023305422517117706,-1.578795137813697,0.06064267070852318,1.1320480406884104,-0.0033666683504315733
-0.012653424037707068,-0.43676903146567797,-0.02371995686767274,-1.5787748244719484,0.0615627716382603,1.1320479208061072,-0.00367592127709704
-0.012653663693229983,-0.4367683723857192,-0.02392668479075293,-1.5787640387735034,0.06202133595527079,1.132048400226236,-0.0038205110064000237
-0.01265372357983994,-0.43676753342776437,-0.024135509945095546,-1.5787530132013694,0.06248277657488856,1.1320480406884104,-0.00395024023886998
-0.01265414311335889,-0.4367666345831996,-0.024348289797357026,-1.5787418079694053,0.06294450482476706,1.1320482204573232,-0.004059716125284402
-0.012654382768881804,-0.4367642976964142,-0.024791346645797387,-1.5787166410851732,0.06386719425231781,1.1320482204573232,-0.004281424318417538
-0.012654083117665853,-0.43676345884754253,-0.025018148036937075,-1.5787035183908598,0.06432604619958902,1.132048639881759,-0.004410734017368545
-0.012653963344445934,-0.4367626198895877,-0.025247705848381055,-1.5786898563898073,0.06478441887944765,1.132048400226236,-0.0045436989811886205
-0.012653543920010064,-0.436761601271803,-0.025476364924343336,-1.5786753554308004,0.06524049051722043,1.132048400226236,-0.004681457709965455
-0.012653364151097109,-0.4367609420827611,-0.025707121122484966,-1.5786602553875275,0.06569790448772093,1.132048519999456,-0.004823830325703014
-0.012653424037707068,-0.43676028300280234,-0.025936319505186115,-1.5786440167350837,0.06615992019332724,1.132048519999456,-0.004969738214923566
-0.01265330415540407,-0.4367592642759346,-0.026162341934064023,-1.5786261002758135,0.06662212788515126,1.132048639881759,-0.005121398600275614
-0.012652824844358243,-0.4367574666958881,-0.026626790628647607,-1.5785872115039192,0.0675524871620999,1.132048759764062,-0.005464686756351909
-0.01265216565531638,-0.4367563281958004,-0.026865396445100085,-1.5785661791956018,0.06801968021239932,1.132048819650672,-0.005661347838472752
-0.012651027155228688,-0.4367557290024516,-0.027106039715288105,-1.5785444278116327,0.06848390114151552,1.1320491191928048,-0.005860945109810841
-0.012649768881921078,-0.4367550698134097,-0.02734776159895386,-1.578521478040966,0.06895444976183483,1.1320491191928048,-0.006050475649272661
-0.012648870037356302,-0.43675453050667085,-0.027591520718189006,-1.5784975694300414,0.06942777869165256,1.132049239075108,-0.006220471809247691
-0.01264779142387857,-0.43675441073345095,-0.027834261110556376,-1.578472881965938,0.06990331267044726,1.132049358957411,-0.006388250964740376
-0.01264695257500683,-0.43675423096453797,-0.028322498533761564,-1.578420870390647,0.07085716111206801,1.1320495387263239,-0.006772405350753649
-0.01264695257500683,-0.4367542908511479,-0.02857105130887039,-1.5783927674262805,0.07133365397475376,1.132049358957411,-0.006977155815791329
-0.012646892579313791,-0.436754171077928,-0.028824038311110065,-1.5783635259618265,0.07180842105587514,1.1320496584995439,-0.007186460281179775
-0.012646353381658005,-0.4367542908511479,-0.02908217850704933,-1.5783335054260277,0.07228337977414838,1.1320496584995439,-0.007398521166872512
-0.012645274768180271,-0.436754171077928,-0.02934127743416333,-1.578302646041357,0.07276198186723516,1.1320496584995439,-0.007629037709491228
-0.012644316037005535,-0.436754171077928,-0.02960289301697563,-1.5782701088498599,0.0732439393558089,1.1320498382684567,-0.007867883290549696
-0.012643177536917844,-0.436753931313322,-0.030124925904985656,-1.578202218269034,0.07421782539897304,1.1320499581507597,-0.00832879660256721
-0.012643357305830799,-0.436753931313322,-0.030390736059405888,-1.5781668048840127,0.07470400152288177,1.1320501379196728,-0.008542595181696463
-0.01264371684365671,-0.43675363177118914,-0.03066020126052903,-1.5781295339232517,0.07518586319287958,1.1320501379196728,-0.008771973224227488
-0.01264371684365671,-0.43675363177118914,-0.030935958373605615,-1.578091424113619,0.07566782085598625,1.1320502576928926,-0.00901261649441551
-0.01264371684365671,-0.43675363177118914,-0.031214591571123326,-1.5780536738418123,0.07615428443562279,1.1320505573441086,-0.009260390307262554
-0.012643596961353714,-0.43675363177118914,-0.031498917269079496,-1.5780141857674859,0.07664141926888965,1.1320508569953245,-0.009514755574195913
-0.01264371684365671,-0.43675363177118914,-0.031786119269642955,-1.5779718214996352,0.07712836229047171,1.1320510367642376,-0.009776371157008211
-0.012643477079050718,-0.43675363177118914,-0.03236909185564946,-1.5778866136528884,0.07810052255207146,1.1320516359575863,-0.010331899858607121
-0.012643417192440758,-0.43675351188888617,-0.032666240705786186,-1.577843290762946,0.07858248021517814,1.1320520553820221,-0.010609334669427184
-0.012643297310137762,-0.43675351188888617,-0.03296650551405312,-1.5777985896083102,0.07906386244323041,1.1320522950375451,-0.010891143711685055
-0.012643177536917844,-0.43675363177118914,-0.03327096467576183,-1.5777532292646324,0.07954390268762083,1.132052534693068,-0.011194224826866236
-0.012642398574656063,-0.43675351188888617,-0.03357997794690438,-1.5777044535297746,0.08002988699984478,1.132053073999807,-0.011507013027014696
-0.012641020309962378,-0.43675351188888617,-0.0338895305247858,-1.577654419303443,0.08051961033092528,1.1320538529620687,-0.01182237798763757
-0.012637964347525215,-0.43675363177118914,-0.03451462761403688,-1.5775541713000332,0.08150452179350717,1.1320552911133723,-0.01247258207451091
-0.012636765960827565,-0.4367537515444091,-0.03483238934805506,-1.5775017403003062,0.08199865539707453,1.132055890306721,-0.012803106965016605
-0.012635447691826918,-0.4367538115401021,-0.03515146935107388,-1.5774486502206206,0.08249710328001988,1.1320569090335888,-0.0131383657338691
-0.012633650002697363,-0.43675405119562505,-0.0354760620856182,-1.5773929834895437,0.08299641405374744,1.1320582871891995,-0.013487885588039641
-0.012632092078173802,-0.4367542908511479,-0.03580335124477378,-1.5773358786071632,0.08350540808869797,1.1320587665002453,-0.01384058139603342
-0.01263017461582433,-0.43675453050667085,-0.036133217055320695,-1.5772751785646895,0.08401401850027891,1.1320599649960261,-0.014195194557293594
-0.012623643266514132,-0.4367557888890615,-0.036806191253030945,-1.5771497636770475,0.08502002226687116,1.1320643991140737,-0.014943789180920394
-0.012619688459512191,-0.43675644807810343,-0.03714666299310991,-1.5770824721804875,0.08552010011280496,1.1320671555343782,-0.01532392876423869
-0.012615434001294298,-0.43675716704467216,-0.03748755426670783,-1.5770126641373126,0.08602669711256081,1.1320704511523383,-0.01571467438617212
-0.012610460576507661,-0.43675830554475986,-0.037831561498435945,-1.57693997979153,0.08653502006841396,1.1320757242283408,-0.016093256044966853
-0.012605487151721027,-0.43675920438932464,-0.038180661928170614,-1.5768668760213118,0.08704698622454772,1.1320806377665174,-0.016480046968981418
-0.012594701344192936,-0.436761601271803,-0.03889528131807962,-1.576703351214954,0.0880806016235053,1.1320885473805213,-0.017296831824649795
-0.012588589419318608,-0.4367627996585006,-0.039255047782122465,-1.5766176640571612,0.08859956654993954,1.1320903449605677,-0.017709029179336408
-0.012582237729838288,-0.43676345884754253,-0.039613915292517454,-1.576529759785803,0.089119490011199,1.1320919028850913,-0.018117092067191202
-0.012575646384835054,-0.43676381838536843,-0.03997709725682337,-1.5764419154010547,0.08964344047064157,1.132093281149785,-0.01852719229969847
-0.0125698340020936,-0.43676417781411125,-0.04034483322148005,-1.5763533519406545,0.09016403518553134,1.1320945994187857,-0.01896383746296547
-0.012564441152871093,-0.43676435758302423,-0.040719939493401754,-1.5762640695136856,0.09068779365875619,1.1320952584987445,-0.01941042958488882
-0.012558449001216684,-0.43676471712085013,-0.0410997794255041,-1.5761719706707196,0.09121308627639356,1.1320957379188734,-0.01985486458893979
-0.012543348957943819,-0.43676507665867603,-0.041856463432047734,-1.5759799834712525,0.09226300025803795,1.1320962771165293,-0.020736723827602617
-0.012535139692723987,-0.436765256427589,-0.04223798128005971,-1.5758808738588472,0.09278838869425125,1.1320965168811352,-0.021204408144453242
-0.012526930536587232,-0.4367654960831119,-0.04262543117494999,-1.5757794274687396,0.09331531110034412,1.132096936305571,-0.021669216376862737
-0.012518361842624564,-0.4367657358477179,-0.04301989194836244,-1.5756773817762002,0.09384558907645688,1.1320977152678329,-0.022129889924274258
-0.012509193846229996,-0.43676591561663086,-0.04341968568438745,-1.5755731789657883,0.0943807565924691,1.1321016101882249,-0.02259901239242853
-0.012498947345440771,-0.4367666345831996,-0.043819599302715444,-1.5754676577772928,0.09491995075759858,1.132107722113099,-0.02308916727798319
-0.012476836423645724,-0.436768971579068,-0.044629313502334754,-1.5752461294621556,0.09601559655443545,1.13213037223255,-0.024114118098952322
-0.012465031998332939,-0.43676957077241685,-0.04504504623958744,-1.5751318598107844,0.09656898024638365,1.1321440942292953,-0.024624765877002353
-0.012452508497368332,-0.43677028984806865,-0.045464374246016154,-1.575014654079279,0.09712188432185341,1.132159973343913,-0.025154648383323222
-0.012438067534054253,-0.43677118858355035,-0.045882743521270135,-1.5748984071880316,0.09768399239113357,1.1321762119963568,-0.025703585849001974
-0.01242176899500066,-0.4367720275415052,-0.04630033383426233,-1.5747789843429607,0.09824936021185766,1.1321942482288467,-0.02624844862537579
-0.01240415218694642,-0.436772746617157,-0.046721219874297684,-1.5746544681908003,0.09882306913560998,1.1322124642302498,-0.026806973402801904
-0.012366401806056566,-0.43677430454168054,-0.047571560539247985,-1.5743884783765503,0.09998534706543193,1.1322543490779715,-0.027963750687503418
-0.012344890186693422,-0.4367747838527264,-0.04799646127289524,-1.5742503002233377,0.1005734369786219,1.1322801751512457,-0.028539293079634945
-0.012322060189246553,-0.43677508350394234,-0.048423279359808884,-1.5741097851833394,0.10116862148068828,1.1323091169644837,-0.02912891700633772
-0.012297912031882118,-0.4367755029283782,-0.04885315351824278,-1.573967891987731,0.10176984621822999,1.1323432120805046,-0.029728547669223726
-0.012272385609823995,-0.4367759223528141,-0.049285963865893914,-1.5738204860605967,0.10237538506061676,1.1323828200371338,-0.03034184033316203
-0.012245001612026362,-0.4367766414284659,-0.04971775548667728,-1.5736702038308552,0.10298399201729562,1.1324285996961645,-0.03096609868262446
-0.012184960649511583,-0.43677730061750775,-0.050587630422031286,-1.573359632635189,0.10421558674555807,1.1325356788091836,-0.03225913654910613
-0.012153022760446261,-0.4367775402730307,-0.05102948877469091,-1.5731984448246996,0.10483828706141386,1.1325918248513063,-0.03291083878297615
-0.012121204644600855,-0.4367781394663795,-0.051478178127876695,-1.5730313248582488,0.1054710540873293,1.1326443757333362,-0.03357314694637823
-0.012087948377451809,-0.43677897842433433,-0.051929144590320934,-1.5728621075514526,0.10610698504611277,1.1326956681238922,-0.03424246587921941
-0.012051336605732724,-0.4367792779664672,-0.05238370621285813,-1.5726929502403493,0.10674483342361246,1.1327470206192245,-0.034921432119500995
-0.012012927144884084,-0.4367794577353801,-0.05284138379352552,-1.572523972698159,0.10738249016396029,1.1328024475856955,-0.03560746912491472
-0.011931194685010128,-0.4367806561220778,-0.05376482822869407,-1.5721707375834264,0.10867688218777535,1.1329439813525612,-0.036992006641013736
-0.011885774454722385,-0.43678173473555554,-0.0542283779696298,-1.571990494922662,0.10933543942044874,1.1330323649349654,-0.03769128611396081
-0.011840174564604764,-0.43678269346673027,-0.0546955829754346,-1.5718062374592028,0.10999121616909077,1.1331349499342436,-0.03838984662033914
-0.01179235745183864,-0.4367831728868592,-0.05516266820801948,-1.5716189839199164,0.11064804762019978,1.133249159589922,-0.03910925966612183
-0.011741424490025394,-0.43678347242899207,-0.05563268952073853,-1.5714300525738034,0.11131293236954336,1.1333724173596915,-0.03982609606051319
-0.0116907911794281,-0.4367840117357309,-0.05610660564476647,-1.5712322529915947,0.11198098105175493,1.1335059815168604,-0.040543471761643406
-0.011590183638192295,-0.4367864086182093,-0.05706306669156116,-1.5708152019853414,0.11333050069625764,1.1338078641362608,-0.042002131665745374
-0.011539430445292004,-0.4367877867738199,-0.057544413009464085,-1.570599186292647,0.11401062932582104,1.1339731865226652,-0.04274299644428125
-0.011487718521216977,-0.43678898516051756,-0.05802887528549721,-1.5703794555575563,0.1146962229303383,1.1341392878713314,-0.0435080693758746
-0.011435826828228994,-0.4367898241184724,-0.05851723248192232,-1.5701559497843767,0.1153905409121875,1.1343119206783907,-0.04427386138311976
-0.011384833870722711,-0.4367907828496471,-0.05900529002713147,-1.5699223172836276,0.11608955679678429,1.1344813776407099,-0.045056191584941445
-0.011332342984385903,-0.4367924006607806,-0.05949388687907949,-1.569683771244702,0.11678742216033818,1.1346485574937708,-0.04584960713642408
-0.011233832674412527,-0.43679503719878193,-0.06048725934880921,-1.569202305044496,0.11820041017949087,1.1349759665352293,-0.04747167196458092
-0.011184697292645755,-0.43679563650121384,-0.06098981774394241,-1.568955489962824,0.11892157289603207,1.1351339186143687,-0.048295227934165484
-0.011135202482136152,-0.43679725431234734,-0.06148722305445909,-1.5687056188096313,0.11965299413431771,1.1352987016940341,-0.04912891052223628
-0.011086426747278371,-0.43679947142591274,-0.06198402906254386,-1.5684517330719099,0.12039093487549125,1.1354821203086216,-0.049976614649185284
-0.011037890558860427,-0.43680168843039513,-0.06248335183541002,-1.56819563011154,0.12113251864241249,1.1356817774665697,-0.05083816065518262
-0.010990672748526206,-0.43680324646400176,-0.0629901646887611,-1.5679342541842507,0.12187908794234205,1.1358979130415674,-0.051713967746498
-0.010894259669815257,-0.4368081000064854,-0.06400936312268182,-1.5673738119444751,0.1233956197137644,1.1363270081286565,-0.05348793272461288
-0.010848420015091644,-0.43681187504457436,-0.06452708155678091,-1.5670798988256884,0.12416002139172744,1.1365278038957751,-0.05438495189315853
-0.010801981167019204,-0.4368153505405305,-0.06504797594470325,-1.5667798137863345,0.12493036748658984,1.1367142184771069,-0.05528616563331211
-0.010751647398554784,-0.4368194850073623,-0.06556695276119304,-1.5664734371622764,0.12570905450994752,1.1368924837889116,-0.05619445002951476
-0.010699995361089716,-0.43682553704562666,-0.06608491095989812,-1.5661649032021796,0.1264972329828434,1.1370696107097118,-0.05710908611519773
-0.010647144936926997,-0.43683206850401995,-0.06660670419238524,-1.5658545117754263,0.12729058862589945,1.137246557752516,-0.058024321285146445
-0.010538747663990307,-0.43684519119833337,-0.06765921867098187,-1.565212157306864,0.12888909257816855,1.1376480891819776,-0.05988625042122952
-0.010482601512784432,-0.4368526213922084,-0.06818838221073399,-1.5648847483744885,0.12969970551326956,1.1378884927966426,-0.060821978701839766
-0.010426815008487546,-0.4368593326195146,-0.06872084125936312,-1.5645587773752505,0.13052000170959355,1.1381526850308463,-0.06175830617579883
-0.0103702494328458,-0.436865204888866,-0.06925354007259825,-1.5642311286782689,0.1313453792575018,1.1384213712697078,-0.06270811599098032
-0.010312485470506404,-0.4368707775070015,-0.0697846809613098,-1.563897727594239,0.13217305767296297,1.1386898179621292,-0.06367116827369515
-0.01025669885712644,-0.43687790815874356,-0.07031719989654889,-1.5635557577071635,0.13301041952418005,1.1389396291196288,-0.06464069201911023
-0.010142249545925382,-0.43689324796662243,-0.07139685871742024,-1.5628377828126843,0.1346917583735451,1.139419537395311,-0.06661844873108806
-0.010083466965801292,-0.4368999590848456,-0.07194381883413957,-1.562473042923855,0.13553726934157267,1.1396626973211974,-0.06762326597922157
-0.010020969234198174,-0.4369063107743259,-0.07249473364877776,-1.5621108196907236,0.13639294301276875,1.1399338404382302,-0.06862424841173922
-0.009958591275814976,-0.4369121830436773,-0.07305217981272613,-1.561751053335764,0.13725839576376375,1.1402253566745384,-0.06963901261852909
-0.009891958968296961,-0.4369181151996387,-0.07361154354810706,-1.561387511833632,0.13812940930828851,1.1405280182562005,-0.07066474251084308
-0.009821911160515874,-0.4369245866623389,-0.07417234532570856,-1.5610155215198407,0.13900262790179027,1.1408330767203412,-0.07170053902595025
-0.009669891346420994,-0.4369383086590843,-0.07529802357021649,-1.560259256937733,0.1407724580858241,1.1414307300342679,-0.07379286482234905
-0.00958965692446064,-0.4369436416216968,-0.07586997069317199,-1.5598822332034616,0.14166302996447966,1.1417379456162808,-0.07484579883446464
-0.009507984460279723,-0.4369489146976994,-0.07644862904343372,-1.5595019738469234,0.14255331403834154,1.1420655344266524,-0.07589945192223206
-0.009423915113620425,-0.4369555060427026,-0.07703130197822428,-1.5591162615363867,0.14345069270107988,1.1424120583140787,-0.07695801854817615
-0.009338767153483394,-0.4369628163542746,-0.07761894844688454,-1.5587169471114075,0.14435248163630507,1.1427598404748127,-0.07801688471625311
-0.009253559306736405,-0.43697162481284324,-0.07821276683611217,-1.5583121200639858,0.14526098188610295,1.1430989940549743,-0.07908509854055451
-0.009081226150892956,-0.43698978092763635,-0.07940250073674678,-1.5575054618268036,0.14709571877062336,1.1437859297958697,-0.08121637310454081
-0.008997096917623699,-0.43699870915942496,-0.08000386920215238,-1.557104709359604,0.14801946272610816,1.1441481530290007,-0.0822922568873232
-0.008911589528743836,-0.4370079969290394,-0.08061260786573991,-1.5566964068162263,0.14893668735323798,1.1445228997630965,-0.08337916624223965
-0.008829557417653929,-0.4370180636609157,-0.08122260491171815,-1.5562809736211065,0.14986186963455936,1.1448980659216281,-0.08447434463990283
-0.008747765180253091,-0.4370296284307056,-0.08183493884448172,-1.5558633234215042,0.15079146201383467,1.1452749098869865,-0.08557779208031271
-0.008665673182553226,-0.4370409535449725,-0.08245560192476811,-1.555445972764035,0.15172565630274873,1.145653671314694,-0.08669268451729256
-0.00850196871636548,-0.43706288469785465,-0.08371448478861904,-1.5546139679827908,0.15359759208774856,1.1464400760967377,-0.08894871488896218
-0.008419936605275572,-0.4370734907364698,-0.0843537234081344,-1.5541939209007103,0.1545348544909547,1.146838911101588,-0.09008991271026193
-0.00833526806526745,-0.43708403677939184,-0.0850022496881812,-1.5537704583183667,0.15547019912637874,1.14723840529548,-0.09124315461239738
-0.008251318600911148,-0.43709470281370005,-0.08565305307748644,-1.553343700118063,0.15640966657856184,1.147653239188168,-0.09239795454813945
-0.00816563144311833,-0.4371053088523152,-0.08631026793379888,-1.5529141854974549,0.15735354412869887,1.1480803569262976,-0.09355437240409814
-0.00807772706267701,-0.4371159747775403,-0.08697065863485148,-1.552480296536326,0.1583025988489961,1.1485104708493374,-0.09471198853767139
-0.007900720133262875,-0.4371387447792941,-0.08829443611278391,-1.5516098224076234,0.16020578964117482,1.1493838811672574,-0.09702925825855344
-0.007807003479163178,-0.4371487516245604,-0.08896243677662444,-1.5511744355176638,0.1611601175247411,1.1498431765590584,-0.09819346584621301
-0.007711069711498058,-0.4371585188143038,-0.08963319386076928,-1.5507320378582654,0.16212106055523828,1.1503102616825602,-0.09934958394187265
-0.0076111812459140745,-0.4371703232396166,-0.09030802563421904,-1.5502810115092112,0.1630804696158559,1.1507710551122747,-0.1005100763780532
-0.00750733797332815,-0.43718344593393,-0.0909907669125896,-1.549822075655236,0.16403978285789755,1.1512304703863787,-0.10166577515836006
-0.007404093785007974,-0.43719602943058766,-0.09168165746048697,-1.5493642183056557,0.16500504034230568,1.1517007313546206,-0.10283735294420157
-0.007186040856743905,-0.4372152640497754,-0.09308087559542298,-1.5484613268677587,0.166930186154744,1.1526716333647293,-0.10519465004614886
-0.0070736887768052745,-0.43722575031517064,-0.09378177298858664,-1.5480077239763963,0.1679033053002348,1.1531584326366309,-0.10638558233348112
-0.006958640163172313,-0.43723773450939635,-0.09448087280170385,-1.5475411780505504,0.16888466938111202,1.1536570962204553,-0.10757837230563597
-0.006845389238668904,-0.43725079731709987,-0.09518212973269342,-1.5470666027374804,0.16986727997614104,1.1541663059562848,-0.10877505708909972
-0.006734415314340879,-0.4372630211668485,-0.09589075697094802,-1.5465856758440133,0.17085554718327572,1.1546831256549022,-0.10998180860443975
-0.00662404058336168,-0.4372757844324191,-0.09660405798277331,-1.5461037901102885,0.17184448546950784,1.1551814895875105,-0.11119473193126406
-0.006407785344227166,-0.4373010710898712,-0.09805648607969795,-1.5451289932888708,0.17382667614681713,1.1562136309468316,-0.11362183707638644
-0.0062981296888997874,-0.43731323516209303,-0.0987883627398353,-1.5446412952814876,0.17481839474254765,1.1567353042970157,-0.1148324236255085
-0.006185178306529253,-0.4373240209696211,-0.09952491317354331,-1.544158930127634,0.17581433179908024,1.1572538018024596,-0.11604492752789694
-0.006068511881762771,-0.4373346270082362,-0.10027027206582,-1.5436815985033427,0.17680777617637516,1.1577936311583539,-0.11725341673667347
-0.005951485919170377,-0.43734463374441945,-0.10101970553831854,-1.5431977354206585,0.17780141219082193,1.1583565901629107,-0.11846394339918556
-0.005832722263141466,-0.43735440093416283,-0.10177740816264687,-1.5427057829550574,0.1787950482052687,1.1589166728648606,-0.11966913688091894
-0.005596153682258382,-0.4373752534735672,-0.10332523072049776,-1.541726611902202,0.1807632415165099,1.1600611664132034,-0.12208395828968273
-0.005472536374662754,-0.4373841218187458,-0.10411301376723499,-1.541233640818816,0.1817426881786709,1.1606415024612087,-0.12329873919224654
-0.0053457433314100435,-0.43739215120596964,-0.1049114627391973,-1.5407363553906024,0.18272165557341927,1.1612231567782145,-0.1245213698222043
-0.0052136771030716665,-0.4374008397822353,-0.10571590386281403,-1.5402472791185255,0.18369496635606195,1.1618151775873955,-0.12574999260381645
-0.005078015714640339,-0.4374082100895003,-0.1065300521804811,-1.5397620378802306,0.1846657844594669,1.1624159467503692,-0.12698520662134877
-0.004938279636904073,-0.43741432201437463,-0.10734989299858665,-1.5392706247213683,0.1856346849696227,1.1630181540646467,-0.12822623302162253
-0.004659526557083364,-0.4374268456244223,-0.10900731132515495,-1.5382561001701014,0.18756337833829864,1.1642406648123014,-0.13072692135709207
-0.004521947706302563,-0.43743169916690594,-0.10983955576192211,-1.5377495869679663,0.1885267182294576,1.1648616873213307,-0.1319825086029829
-0.004385447359916417,-0.43743433570490725,-0.11067731303929784,-1.5372491256950123,0.18949667344208038,1.1654879829063625,-0.13323474023522064
-0.004250504938053832,-0.4374353543226919,-0.11152040327928611,-1.53675118118684,0.1904703676735597,1.1661159562982208,-0.13448385601841126
-0.004110049893748823,-0.43743583374282086,-0.11236858682636403,-1.5362542552964522,0.19144463734009343,1.1667464463457775,-0.1357310542301693
-0.003965520051055799,-0.43743595362512383,-0.11321952668466315,-1.5357540936747143,0.1924224542137989,1.167388321503294,-0.13697549623978922
-0.0036586041202587524,-0.4374369123562986,-0.11492284455256503,-1.534755687893588,0.19438940101088834,1.1686864526768654,-0.13945611088903312
-0.00350274927238185,-0.43743661270508266,-0.11578151425595508,-1.5342572040786766,0.1953733537641121,1.1693454053356975,-0.14068593205734292
-0.0033464750000690774,-0.43743673258738563,-0.11664857299347792,-1.5337617762262024,0.1963613333409861,1.1700074738435766,-0.1419250409952672
-0.0031858263872354157,-0.43743637304955973,-0.11752713650509759,-1.5332664681469481,0.19734902528759934,1.1706657074267568,-0.14316295154649386
-0.0030200845763952,-0.43743661270508266,-0.11841193182389459,-1.532763909642732,0.19833748413188593,1.1713234017031982,-0.14440469702241945
-0.0028518261098566867,-0.4374369123562986,-0.11930164068086825,-1.5322576959827297,0.19933409226751592,1.1719727069455068,-0.14564997777182803
-0.0025066803780408784,-0.4374362531672567,-0.12110622527904781,-1.5312400555824155,0.20133306096945755,1.1732634080342863,-0.14813203057237556
-0.0023360250290239853,-0.43743673258738563,-0.12202217952464835,-1.5307337220401103,0.20233494209382366,1.173915829234725,-0.1493740756995171
-0.0021687252936602084,-0.4374362531672567,-0.12294903956916305,-1.5302190595684484,0.20332675650813012,1.174563336896987,-0.15062109414236222
-0.0020017251004293044,-0.4374364329361697,-0.12388836311894932,-1.5297006818362242,0.20432317300660827,1.1752156981017328,-0.1518631991561137
-0.0018288526378469876,-0.4374364329361697,-0.12483781328722182,-1.5291882364781277,0.20531182366257963,1.1758771075296532,-0.15310446532099345
-0.0016499281370003023,-0.4374361333940368,-0.12579619179636597,-1.528680464784519,0.20630680183522118,1.176529049309963,-0.1543370428005245
-0.001283390668124347,-0.43743673258738563,-0.1277255920888388,-1.5276483834208907,0.20829704615983086,1.1778575006705492,-0.156786019211919
-0.0010940997841854413,-0.43743709212521154,-0.1286931983719044,-1.5271253319150961,0.2092975851260022,1.1785350887552202,-0.15799960172778518
-0.0008983974332393344,-0.43743661270508266,-0.1296632015374484,-1.5266008422579977,0.21030138366908455,1.179213096264327,-0.15920605359190926
-0.0006978414307265095,-0.4374371520118215,-0.1306398559346056,-1.526077371327767,0.21130451130760244,1.1798893660799974,-0.16040549479567728
-0.000494768772515387,-0.43743649282277963,-0.1316234612145919,-1.5255472491659232,0.21229891439425547,1.1805628195887534,-0.16161206654210436
-8.826380918415298e-05,-0.4374361333940368,-0.13361020604496826,-1.5244915587335035,0.21429807473334897,1.1818990007944306,-0.164019697303433
0.00011642676924356824,-0.43743523454947203,-0.13460273944766007,-1.523967608492227,0.21529870969262915,1.182560110571135,-0.16522830639451253
0.0003262106547609219,-0.4374353543226919,-0.13559593214847684,-1.5234407219526502,0.2162975228772361,1.1832180445030993,-0.1664368555989821
0.000538031775847666,-0.43743523454947203,-0.13659487723634203,-1.5229111390975454,0.21729758257599485,1.1838819105910248,-0.16764552457667162
0.0007512311616280943,-0.43743487501164613,-0.1376066453673047,-1.522382574860225,0.21828987625771393,1.1845424211743805,-0.168858448012579
0.0009625729716690094,-0.43743505478055905,-0.1386283604569237,-1.5218576657786909,0.21928629275619205,1.1851997559129959,-0.170072629721794
0.0013978998659353648,-0.4374342158226043,-0.14070229048300648,-1.5208116227627946,0.22127998829486462,1.1864968684687824,-0.17247996094098975
0.0016233830971574858,-0.43743433570490725,-0.14175246818390086,-1.520299117409005,0.22227630880023388,1.1871552818208757,-0.1736736496486263
0.0018505441352061644,-0.43743487501164613,-0.14281468996563093,-1.5197918850221348,0.22326400074684713,1.1878144741352306,-0.1748602675911307
0.0020798022954341927,-0.4374345753604302,-0.14388877605928374,-1.519273087974558,0.22425686986362056,1.1884668953356694,-0.17603442202836356
0.0023089406824423025,-0.43743511466716906,-0.1449752059940713,-1.5187489578552855,0.2252452328893312,1.1891226720406782,-0.17720540072993932
0.0025407754940616656,-0.43743583374282086,-0.14607529792991114,-1.5182275242697074,0.22622573425395917,1.1897719773920699,-0.17836163870790195
0.003019605265349371,-0.4374345753604302,-0.14828488934442527,-1.5172023936798253,0.22819488610002558,1.1910468592528416,-0.1806548800446395
0.003267558847109371,-0.4374348151250362,-0.1493873781627435,-1.5166975581754338,0.22918257804663883,1.1916838207630984,-0.18179302190350208
0.003519347353568316,-0.4374344555872103,-0.15049262329228294,-1.5161924231289092,0.23017899437058403,1.1923049032678208,-0.18293403995588886
0.0037773078896777036,-0.43743511466716906,-0.15160439988021565,-1.5156844717754705,0.23118058803922234,1.1929370711222038,-0.1840678674699236
0.0040394028926189094,-0.43743511466716906,-0.1527235466663303,-1.515174902501815,0.23218649581270576,1.1935810434018999,-0.18520355255969784
0.004304613744607238,-0.4374342158226043,-0.15384467091048748,-1.5146617379589837,0.23319374609344976,1.1942116533317597,-0.1863270736863334
0.00483521532657993,-0.43743385639386145,-0.15609315120597914,-1.5136523666014163,0.2352046989241673,1.1954820410787905,-0.18856548714086568
0.005102403636610769,-0.4374330174359066,-0.15722697872001384,-1.513150467286242,0.23621108631412913,1.1961078573527764,-0.18968097877119436
0.0053707903333392575,-0.43743319720481955,-0.1583671579235289,-1.512646830277631,0.2372140219664293,1.1967288798618057,-0.19078760216542748
0.0056423528748079065,-0.43743325709142955,-0.15951662478757536,-1.5121437324666758,0.23822108043548854,1.1973554750980535,-0.19188481790774312
0.005922484110239222,-0.4374327777803837,-0.16067555929923233,-1.5116401553446748,0.2392275636440263,1.197975418993605,-0.19297190692248944
0.006207049572801385,-0.4374336766249485,-0.16185001327859805,-1.5111337020291498,0.2402329921500971,1.19859020980454,-0.1940494685120984
0.006775641082103768,-0.43743649282277963,-0.16424703811039462,-1.5101114476327917,0.24224106885274027,1.1998087058585827,-0.19616252696559855
0.007063202511410058,-0.4374361333940368,-0.16546811070674575,-1.5095990021656123,0.24323019877612423,1.2004127706395165,-0.19720299747244258
0.007354119663452542,-0.43743649282277963,-0.166696254068229,-1.5090883543875622,0.24422565656524425,1.2010052707597436,-0.1982262105999752
0.007651028748983279,-0.4374369123562986,-0.16792565581210292,-1.5085752497313407,0.24521900494943027,1.2016087364564116,-0.19923875769319963
0.007957285599821541,-0.4374370321295185,-0.16915445836262805,-1.508052737532285,0.24621503782453882,1.202202554736556,-0.20025076558876828
0.00827360929161915,-0.4374370321295185,-0.17038877353559556,-1.5075262106396172,0.24721193359042953,1.2027957739324349,-0.20125114871885402
0.008903260490304083,-0.43743709212521154,-0.17288556695067314,-1.506471179396239,0.24920112321257223,1.2039669322938404,-0.2032388522804051
0.009217187190540235,-0.4374369123562986,-0.17413731927186504,-1.5059359639273058,0.2501971560876808,1.2045406171102326,-0.20422611271617744
0.009535847769123185,-0.43743709212521154,-0.17538463736592608,-1.5054022463872028,0.2511979826841128,1.2051108864263615,-0.20520372584450935
0.009859901196928643,-0.43743649282277963,-0.17663441233815855,-1.5048788354526652,0.2521974669478172,1.2056811558515734,-0.20617522704796692
0.010193482049871501,-0.43743547420499496,-0.17788646420148332,-1.5043606974850472,0.2532002111374984,1.2062486687473981,-0.20714469090677204
0.010535631705860105,-0.43743523454947203,-0.17914858279668436,-1.5038386047104273,0.25419806561274727,1.2068152829077412,-0.20811055960548422
0.010876463092848062,-0.43743583374282086,-0.18042274558180418,-1.5033145345868477,0.2551974540578757,1.2073923832243962,-0.20907133488802368
0.01154518283234042,-0.4374372718941245,-0.18302751695446565,-1.50227753957596,0.2571872189405398,1.2085177619267713,-0.21096130710186317
0.011881819756803521,-0.43743787108747334,-0.18434955673896156,-1.501754547956775,0.25817663649418454,1.2090840165492882,-0.21188912576846952
0.012229961455363456,-0.4374396087809098,-0.18568687633564326,-1.5012355112536755,0.25916442425937375,1.209632894019274,-0.21280525978298304
0.012589428268190348,-0.4374418857810852,-0.18702725200384523,-1.500726601059979,0.2601512533152048,1.2101791949469516,-0.21371372394809862
0.012957943195108812,-0.4374439231257377,-0.18837068363448436,-1.5002205072822796,0.2611427800992505,1.2107241776056283,-0.21460175510732882
0.013325319621939585,-0.43744602035700014,-0.18971795018982243,-1.4997056649326215,0.26214437376788885,1.2112771296558358,-0.2154791801188608
0.014067322900563152,-0.4374518326306585,-0.19243968742030015,-1.4986607005302028,0.2641649140412534,1.2123472011649599,-0.21720580729525538
0.014450278790795695,-0.43745285135752626,-0.19380552962395028,-1.4981466371428067,0.2651842442693493,1.2129031492909947,-0.21804662053506826
0.014844200257469286,-0.43745135331961266,-0.19516999356290674,-1.4976356897135408,0.2662020405275655,1.2134599363749843,-0.21886927766008807
0.015240997917667084,-0.43745027470613496,-0.19654074919565045,-1.4971269593978402,0.2672275066351797,1.214000784457746,-0.21969319305841548
0.01563336145981711,-0.437450154932915,-0.19791845560214025,-1.4966234421624491,0.26825527378487973,1.214538936115897,-0.22050979814517088
0.01602932027114317,-0.4374486568950014,-0.1993025736938034,-1.4961223816961464,0.2692800688133965,1.2150911691995356,-0.2213106439996116
0.016427136658208743,-0.4374471588570878,-0.2006951405971262,-1.4956223399567117,0.270310520454019,1.2156308787822099,-0.22211478547201235
0.017235172941918418,-0.4374486568950014,-0.203528031629928,-1.4946223762510618,0.2723677803604504,1.2166712292976678,-0.22368483883396129
0.01764017986733605,-0.4374488366639144,-0.20496919460827873,-1.4941267086339816,0.2733998617895284,1.2171982954970744,-0.22445973884190798
0.018053575717803392,-0.43744841713039545,-0.20641898616720208,-1.4936302022771126,0.2744278207509132,1.2177133775022553,-0.22521660250828152
0.01847637911110514,-0.43744967551278613,-0.2078684182973826,-1.4931342351178998,0.2754613403312948,1.2182280999696102,-0.22596711459425778
0.018909548996582187,-0.4374512334373097,-0.2093170114696083,-1.492640604845472,0.27649917419105446,1.2187485149374038,-0.22671397152444805
0.019352006542590644,-0.43745099378178676,-0.21076955944883594,-1.49214409837952,0.2775407470696707,1.2192788768638534,-0.22745693353424637
0.01979883832003691,-0.43745039458843793,-0.21222636188628147,-1.4916415998709969,0.2785873054812952,1.219802587449607,-0.22819420304360621
0.02069981240466758,-0.43745099378178676,-0.21514865511927203,-1.4906283935887306,0.2806995011967295,1.2208330510021017,-0.2296406390979595
0.021153535178333033,-0.43744967551278613,-0.21662217552020702,-1.4901228390086871,0.28176015296753093,1.2213561623945064,-0.2303477682983005
0.021611811952349253,-0.4374486568950014,-0.2181024670350582,-1.4896168651132908,0.2828229141432663,1.2218698662440766,-0.2310469278889446
0.022073324457715593,-0.4374494358572632,-0.21958683313013125,-1.4891105315709856,0.28388586695615364,1.222382731135692,-0.23173668004583733
0.022535196391824764,-0.43745027470613496,-0.22108222468825528,-1.4885965281792823,0.284951983527376,1.2228951766028717,-0.2324039017474161
0.022995150972667543,-0.4374505144707409,-0.22259187744078046,-1.48807563379136,0.2860134981889596,1.2234017498006997,-0.23307178252895364
0.023933276135756163,-0.43745111366408973,-0.22565366720506747,-1.4870311486999872,0.2881388285542127,1.2243797823534677,-0.23435577239042682
0.02440970902456549,-0.43745261170200334,-0.2271907638420002,-1.4865116325767587,0.2892024526207303,1.2248590315491912,-0.234988239896026
0.024894051418295617,-0.43745321089535216,-0.22872288716322942,-1.4859920564578368,0.2902728834713307,1.2253406176317,-0.235617651439188
0.02538474550150607,-0.4374548287064857,-0.23025429129972372,-1.485476974452656,0.29134801222467865,1.225829574021474,-0.23622405321599022
0.02589059962368242,-0.4374577049000099,-0.23178545578069512,-1.484966326674606,0.29243263260209773,1.2263240431427735,-0.2368149354160006
0.026402565779816176,-0.4374603414380112,-0.23331697979949242,-1.4844506454760762,0.29353249685973665,1.2268386457278253,-0.23740455923362028
0.027429493949744737,-0.4374681312787952,-0.23640046095205552,-1.4834125119651007,0.2957561938070992,1.227876299818672,-0.2385355105541308
0.02795080776210294,-0.4374697490899287,-0.23796014793091225,-1.4829034819981841,0.29687149358210985,1.2284143915902128,-0.23909924852094955
0.028474458461246487,-0.4374696292076257,-0.2395318191039947,-1.4823960100648743,0.2979857390037194,1.2289549999083687,-0.23967395195512625
0.02899367504234226,-0.43747016851436454,-0.2411183506648271,-1.4818880587114356,0.29909634105051536,1.229472239031422,-0.2402221703451532
0.02951049474095966,-0.43747076770771337,-0.24271698641127132,-1.4813840021693057,0.3002086688788757,1.2299920548058667,-0.24076397715908984
0.03003714140684733,-0.4374705880478835,-0.2443300031253366,-1.4808836008920447,0.30131534009513034,1.2305091741557,-0.24130710224202714
0.03111512252997521,-0.437468610589841,-0.24755987158724915,-1.479884056610831,0.3035442142126531,1.2315203430933137,-0.2423727395240203
0.03166232219313437,-0.43746891024105694,-0.24916366052739297,-1.4793855128002265,0.3046696766908322,1.232019486097267,-0.2428940533363785
0.032222584663997,-0.4374673522074503,-0.25076337477823185,-1.4788893658721005,0.30579868655071607,1.2325444550654112,-0.2434170448464802
0.032790696862253554,-0.43746519508957793,-0.2523578159530681,-1.478398252364454,0.30693325702959673,1.233077693185385,-0.2439372201587507
0.0333574309048995,-0.4374643562407062,-0.2539518975900785,-1.4779073785123307,0.3080716625204428,1.233592835077176,-0.24443690236035967
0.03392698114537662,-0.4374647157785321,-0.25555592618574524,-1.4774211186562511,0.3092202307144574,1.2341209198943672,-0.24493430767087637
0.03508771323708008,-0.43746447601392613,-0.25879280541709687,-1.4764586055711921,0.311505286806069,1.2351947664415803,-0.24592630187591238
0.03566493343603816,-0.43746501532066495,-0.26043122878000036,-1.475981453715814,0.31264407592028465,1.2357263866413377,-0.2464117828788133
0.03624311236617098,-0.4374668130097945,-0.2620848719593966,-1.4755065188649183,0.31377864639916536,1.2362548309963548,-0.2468958856170205
0.03682626483017352,-0.4374672324342304,-0.26375625193823315,-1.4750312244761967,0.3149146550293497,1.2367850131538918,-0.24738118674192539
0.03741055568518067,-0.4374668130097945,-0.26543907680455664,-1.4745583868565633,0.31605181418057693,1.2373035705459456,-0.24785720020629884
0.03800461372993121,-0.43746741220314334,-0.2671188457084429,-1.474086148539362,0.317192328901824,1.2378083460546443,-0.24832566359449432
0.03861029643108159,-0.43746843082092807,-0.26879112442276115,-1.4736088168059878,0.3183441566727497,1.2383222296731276,-0.2487803450993345
0.03984682871761455,-0.43746687289640446,-0.27211902388360126,-1.4726514570237115,0.32067513639123846,1.2393628798398013,-0.2496730499230523
0.040475641067427744,-0.43746555462740383,-0.2737714087896899,-1.4721700507101154,0.3218601365880592,1.2398758046180267,-0.2501083170397918
0.04110762915289802,-0.43746633358966563,-0.2754282278138263,-1.471690142434433,0.32305194374349566,1.240400533930648,-0.2505435840474482
0.041740516082933075,-0.4374666332408816,-0.2770942148343573,-1.471205500389487,0.32424423034087757,1.2409315549370565,-0.2509637510118317
0.04237298347944918,-0.4374658542786198,-0.2787738639650236,-1.4707241539625011,0.32545233607900087,1.2414535278293737,-0.2513781055934738
0.04300796764074666,-0.4374666332408816,-0.28046801383653097,-1.4702416091488175,0.32666159233816705,1.2419768189906912,-0.2517663944463189
0.04428201065264656,-0.4374678915141892,-0.28390017610347595,-1.4692819123706726,0.3290615052317267,1.24300674334553,-0.25253919722300316
0.044919631351945336,-0.43746843082092807,-0.2856297993556977,-1.4687964913634648,0.3302596400783663,1.243506904967268,-0.2529118466167534
0.04557025486325455,-0.4374694495477958,-0.28735373010748105,-1.468310710818431,0.33146074704618905,1.243992625625692,-0.253272631698581
0.0462319638333078,-0.4374702883966676,-0.2890667551694333,-1.4678275069247886,0.3326690445959971,1.244480922826424,-0.2536172980102679
0.046897747492665995,-0.4374705880478835,-0.2907716909575518,-1.4673466398088484,0.3338824233228565,1.24496886048933,-0.25394308924059295
0.04757269903933568,-0.4374701086277546,-0.29246841748045044,-1.4668582227258133,0.3351121006324027,1.2454586558370588,-0.2542752919379252
0.04893806182285689,-0.4374713670101453,-0.2958680424468151,-1.4658810290219173,0.3375901506948437,1.2464747981994593,-0.25494389179511456
0.04961960460544673,-0.4374705880478835,-0.29758652046276596,-1.4654042367043651,0.3388283609191029,1.2469894008935942,-0.2552527851839541
0.0503094765355594,-0.43747094747662635,-0.2993193794463379,-1.4649244482019026,0.34006733804103545,1.2475068197855606,-0.25554430152934543
0.05099533377206017,-0.4374725653968429,-0.30107045443131286,-1.4644408847704342,0.34129461848991993,1.2480242985641368,-0.25582227564690435
0.05168071158843203,-0.4374738836658436,-0.30284364033808286,-1.4639597181123614,0.34251777647111115,1.24853824206923,-0.2560864078854149
0.052371781905242346,-0.4374747825104084,-0.30463204627951185,-1.4634856821060303,0.343729525409515,1.2490307338415698,-0.25634946161953087
0.053765187766519985,-0.43747508205254126,-0.30820076867036983,-1.4625522308255954,0.3461511058676065,1.2499838391656284,-0.2568958224338183
0.05447992692964891,-0.4374747825104084,-0.30997347515701096,-1.4620898794713575,0.3473681277947465,1.2504674027061797,-0.25713940189322354
0.05519850101747678,-0.43747358401462766,-0.311731800676031,-1.4616307637393864,0.3485933950063388,1.2509411990569879,-0.2573653044397985
0.05592444541256967,-0.437472265745627,-0.313479340387523,-1.4611705695030206,0.3498254691765468,1.2514147556431898,-0.25758245863258084
0.05665206761448912,-0.4374719062078011,-0.3152284979101485,-1.4607043232283905,0.35106770604992327,1.2519061089154422,-0.25779194286688223
0.057378431543100954,-0.4374717265479712,-0.316988920660431,-1.4602301674488398,0.3523037110506726,1.252410165348489,-0.2579987306765724
0.058835533522679354,-0.4374725653968429,-0.32056465382072813,-1.4592899450544887,0.3547713107796843,1.2533881380146468,-0.2584166206407805
0.059564174342383494,-0.43747370389693063,-0.322382540882134,-1.4588346643562997,0.3560030015010557,1.253857859785233,-0.2586361117203482
0.06029287515778067,-0.43747334435910473,-0.3242173256759424,-1.458386034889724,0.35722941923369084,1.2543370489852637,-0.2588649504561404
0.061032361780705945,-0.43747316459019175,-0.3260532490789215,-1.4579392629988874,0.3584520977729366,1.254805332604546,-0.259081325686661
0.06177945836641914,-0.43747484239701834,-0.3278817421789426,-1.457493809377052,0.3596725712632053,1.255261272382694,-0.2592720546128205
0.0625341050283103,-0.43747669997275784,-0.32970196612713387,-1.4570474569106515,0.36089390746972333,1.2557170923876217,-0.2594364182680501
0.06406982350963247,-0.4374773590527166,-0.3333119142857548,-1.4561583472470265,0.3633508654026869,1.2566764895145506,-0.25976736258299166
0.06483513609674874,-0.43747765870393257,-0.33512171207332697,-1.4557140920118885,0.3645798716331357,1.2571477092139673,-0.25992932935574287
0.06560308522186628,-0.4374769995148907,-0.33694235544595413,-1.4552751098527532,0.3658147261128421,1.2576198277579487,-0.26008650247262044
0.06637079469146093,-0.43747669997275784,-0.3387778594244974,-1.4548371464204854,0.3670494847739726,1.2581093833410715,-0.26023768354692667
0.06713730566527484,-0.43747795824606545,-0.3406322383753194,-1.4543954078410457,0.3682729303854245,1.2585921079236682,-0.2603852692429737
0.06790633340387013,-0.4374789769729332,-0.3425087882436295,-1.4539483362989936,0.3694825700934274,1.2590646460011685,-0.2605338136701956
0.06945637307528645,-0.4374858678600693,-0.34628645567113314,-1.4530631814423707,0.37187941504722793,1.2599647811278445,-0.26086038386278243
0.07024805093333257,-0.4374880849736347,-0.34816456346396685,-1.4526274350145854,0.3730723727237073,1.260417964594771,-0.2610263054425356
0.07104380348068363,-0.4374919198983337,-0.3500344021049707,-1.4521948045449302,0.37426609747239287,1.2608558681404287,-0.26118563567728553
0.0718505814910857,-0.4374961743565516,-0.35188938035822465,-1.4517570807681854,0.3754632736096743,1.2612939514549995,-0.26131991891010625
0.07265652065261603,-0.4374989906634658,-0.3537395649556049,-1.4513164208022236,0.3766678319660929,1.261740064265877,-0.26143257064126085
0.07346132131405866,-0.43750072835690235,-0.3555995766293385,-1.450873543722696,0.3778675967757209,1.2621995993132007,-0.2615345564471903
0.07508248729765073,-0.43750222639481595,-0.3593717911028435,-1.4499765844407604,0.3802766176699821,1.2631039888980944,-0.2617437410302758
0.07589268080831586,-0.437505701781689,-0.3612907052390042,-1.4495205846669197,0.3814696711650374,1.2635336832876154,-0.261858010681647
0.07670359339463283,-0.4375089375130391,-0.36322873411204964,-1.449063626161904,0.38265678059225916,1.263949416024868,-0.2619757556108081
0.07752343421273837,-0.437512952206651,-0.36517143697683196,-1.4486140379641534,0.3838355489164527,1.2643506479121966,-0.26208900653531153
0.0783596934522005,-0.4375174463203918,-0.3671038932317419,-1.448174876036105,0.3850147008640159,1.264741513416433,-0.26220069953529135
0.07920356265445055,-0.4375225995140914,-0.3690270617170375,-1.4477407475285364,0.3861917434066451,1.2651236903444039,-0.26231335126644595
0.08090376467330532,-0.4375344039394042,-0.37283193326434266,-1.4468550533651745,0.3885832195531336,1.2659144094712753,-0.26252631088762035
0.08175560337616922,-0.4375397968977098,-0.37473394955901784,-1.4464044465496393,0.38978892843059504,1.2663061738200765,-0.26263285069390063
0.08260750196564308,-0.4375435719357988,-0.3766421377742604,-1.4459549182384988,0.3909965547267728,1.2666913467147913,-0.2627518540054525
0.08345820216841927,-0.4375476465160206,-0.3785664447596436,-1.4455048507297024,0.39220197597397355,1.2670724451383675,-0.2628706177705644
0.0843035094128899,-0.43755321924323914,-0.3805108853178624,-1.4450495699224302,0.3934025076812749,1.2674487497969869,-0.2629884226954186
0.08515486880470798,-0.4375594510504165,-0.38247827553766495,-1.444594888526673,0.3945938355692987,1.2678243952665644,-0.26310628750688275
0.08688179563231851,-0.43757101582020635,-0.38642366212496826,-1.4437167444394894,0.3969568371926397,1.2685163644279394,-0.26331948689266316
0.08776197706415478,-0.4375782662451684,-0.3883853599534154,-1.4432891472812308,0.3981427001057097,1.2688388000446114,-0.26341134597102334
0.08864761123182352,-0.4375855166701304,-0.3903329163606813,-1.4428565766981858,0.39933843809168745,1.269169085279594,-0.2634964938220773
0.08954690750962763,-0.43759168859069775,-0.39226860834694144,-1.442422508077227,0.40053091650075423,1.269510755515454,-0.26357139528142515
0.09044320760252145,-0.43759780051557207,-0.39420214321532915,-1.4419898774984887,0.40173087294753407,1.2698660877523658,-0.26363826724446604
0.09134070630027909,-0.43760187520487703,-0.3961454451643772,-1.4415604827601838,0.4029348560434312,1.2702120723330534,-0.2637075360899854
0.0931174274805321,-0.4376085863231002,-0.4000915508273323,-1.440685694286653,0.4053236476989972,1.2708480152255255,-0.2638793898256999
0.09401552537163856,-0.43761338008805695,-0.40209627200358883,-1.440245453745127,0.40650922315633936,1.2711596051480596,-0.26398479113189244
0.09491709854053498,-0.43761613639927816,-0.40410638602906784,-1.4398127632797788,0.4076831977592094,1.2714780259620364,-0.2640958848294404
0.09583071600843325,-0.4376180538616276,-0.40610918963389175,-1.4393924166555654,0.40885209118502813,1.2718002818097953,-0.2642078774806362
0.09675200321664633,-0.4376193122440183,-0.4080987507711824,-1.4389775826537945,0.41002491526685525,1.2721039620092423,-0.2643255625231874
0.09768521484155827,-0.43762093005515185,-0.410069616486941,-1.438561310609803,0.4112033001422121,1.2723925421654163,-0.2644440865236934
0.09956134528543252,-0.4376252443999797,-0.4139906751479669,-1.437727807790645,0.41357761481523164,1.2729205670959978,-0.2646964143368912
0.10049371795238965,-0.43762716186232914,-0.41596202017477135,-1.437309558288611,0.414764053163356,1.2731962043267713,-0.2648250050692735
0.10142057788782127,-0.4376300380558534,-0.4179466677738853,-1.4368907695889213,0.41594780684602495,1.2734926341012562,-0.2649597078356131
0.10235007436125419,-0.43763483182081014,-0.4199464154162721,-1.436469524120143,0.4171235072304594,1.273793557989482,-0.2651024398800935
0.10328424471734086,-0.4376404644346386,-0.42196449894236493,-1.436050375773544,0.4182988241660571,1.2740724308425226,-0.2652462506471347
0.10422195034691054,-0.4376457973972512,-0.42398761588893746,-1.4356373994565959,0.41947011445253757,1.2743271555381988,-0.2653957538055313
0.106134273138068,-0.437653946666778,-0.42800664555319784,-1.434829363063803,0.4218122154090201,1.274767455966335,-0.26570326903876024
0.10710733226604915,-0.43765712240243504,-0.4299966860015343,-1.4344275918697356,0.4229808212045781,1.2749820935034188,-0.2658545099996764
0.10808260850759573,-0.43765957917152337,-0.431978457407124,-1.434026240209187,0.4241588226310983,1.275211771197166,-0.2660113235787281
0.1090568661313576,-0.4376607776673041,-0.4339632847751509,-1.4336244691242024,0.4253380702227045,1.2754616422412755,-0.266185334432315
0.11003142329725235,-0.4376605380117812,-0.435958178765971,-1.4332217990855702,0.42651309952804145,1.2757231380508678,-0.26637103004707785
0.11100268473610395,-0.43766179628508883,-0.43796817301823004,-1.4328177510004103,0.4276927307430172,1.2759678559012777,-0.2665602010487138
0.11293897602479597,-0.4376689269368309,-0.4420436483758292,-1.4320062991073546,0.4300395296022473,1.276395692715059,-0.2669464525569064
0.11392198200235039,-0.43767066463026744,-0.44408911589971967,-1.4316060859468938,0.43120353348816653,1.27657743352282,-0.2671446716726339
0.11491619332095183,-0.4376712039370063,-0.44612229957816846,-1.4312136625181338,0.43235919627105757,1.2767551595278859,-0.267351459482324
0.11592023171590665,-0.4376721027815711,-0.44813463071721293,-1.4308259727495543,0.4335151466842094,1.2769310280662955,-0.26757119021741466
0.11693002249790989,-0.43767174324374514,-0.4501261092077699,-1.4304415188214081,0.434675603013891,1.2771190005721507,-0.26779367737280957
0.11794514624252565,-0.4376718630169651,-0.45211375288271105,-1.430049215274951,0.43584075742085315,1.2773312412267563,-0.26800963306981124
0.1199640087308803,-0.43767240232370397,-0.4561116903520442,-1.4292520245762965,0.43817748957002356,1.2777723805037642,-0.2684560455319047
0.12096565024335673,-0.4376750987483152,-0.4581376234964479,-1.4288520510713585,0.43934178091167064,1.2779785691201055,-0.26869716811313854
0.1219683703693109,-0.43767965274866594,-0.4601866264029044,-1.4284548938733348,0.4405018537925156,1.2781636055458265,-0.26893295773175985
0.12297774172687825,-0.4376846262825357,-0.4622473737389807,-1.428058575633266,0.44166183102931755,1.2783296470078827,-0.26916467266107624
0.12399412385388471,-0.43769079809401995,-0.4643022489147887,-1.427661658090765,0.442817110188839,1.2784793899308853,-0.2694004623887806
0.12502578590216007,-0.4376970898968903,-0.4663451996738978,-1.4272653996282232,0.4439694174017102,1.2786240395467983,-0.2696496143572383
0.12711601446729645,-0.4377033215949846,-0.4703739366412916,-1.4264911588093183,0.4462803595186556,1.2789325733978119,-0.27018770612877896
0.12816253690332177,-0.43770356135959054,-0.4723744033593303,-1.426110899343697,0.4474417747322283,1.279102329902264,-0.27045111929163773
0.12921343357078488,-0.43770356135959054,-0.4743806224644173,-1.42572195130181,0.44860625788556013,1.279286587365723,-0.27073023190928436
0.13025779888893782,-0.43770398078402645,-0.47640002436859386,-1.4253278500662234,0.4497781232580291,1.2794766572119238,-0.27100449087536427
0.13130114548022295,-0.43770619789759185,-0.47843650366500273,-1.424934048481853,0.450953248556475,1.2796709215206494,-0.27125969499116936
0.13233993807115735,-0.43770913397772604,-0.48049413515203193,-1.4245510925916203,0.45212290887996703,1.2798509245258907,-0.271516337149195
0.13445491409609006,-0.4377134483225539,-0.4846156899289607,-1.4238016590100389,0.45444746491414384,1.2801591588347716,-0.27207899650253603
0.13552744226521932,-0.43771536578490333,-0.48665558472563264,-1.423433803272162,0.4556118522488998,1.2802966777989424,-0.2723707525034502
0.13660650189274184,-0.43771596497825216,-0.48867324882728963,-1.4230704415389432,0.4567723087531143,1.2804361741120727,-0.27266095047075783
0.13769430998314,-0.4377142272848157,-0.49067617231441657,-1.4227103755327675,0.4579377506158043,1.2805852579551165,-0.2729558223207192
0.1387803204934917,-0.43771320866703095,-0.49268155257063184,-1.4223505491821147,0.459109903618534,1.2807396147650798,-0.27323853020754185
0.13986063839432183,-0.4377133284402509,-0.49469448290302515,-1.4219922807559855,0.46028569999607727,1.2809027200379186,-0.2735139276737094
0.14201144722871187,-0.4377159050916422,-0.49876983848740436,-1.4212670554365445,0.46264496242602876,1.2812331850418144,-0.27410427056698095
0.1430885893938849,-0.4377183019741206,-0.5008345406304826,-1.4209084274725894,0.46380887031883916,1.2813823886580782,-0.2744147219894271
0.14417489944636946,-0.4377210582853418,-0.5028991828869509,-1.4205598063539004,0.46496913501136894,1.2815297346986023,-0.2747201398823106
0.14527373299981863,-0.4377234551678202,-0.5049513016424546,-1.4202199338071704,0.46612901625506203,1.2816700699696875,-0.27502244203522996
0.1463850901633155,-0.4377250729789537,-0.5069907171280806,-1.4198865925006674,0.4672865006380934,1.2818014170132908,-0.2753200103098026
0.14750118098699297,-0.43772615159243145,-0.5090124559190427,-1.4195552287612898,0.4684475324028294,1.2819268320100161,-0.2756091297727155
0.14973617905034528,-0.4377262714747344,-0.513042630928657,-1.4188765620631412,0.4707654732900753,1.2821850919791753,-0.2762189470497808
0.15084909402928262,-0.4377260317101284,-0.5150662271862754,-1.418536269982892,0.4719278472130061,1.2823068517110314,-0.2765415024396726
0.1519532606544274,-0.4377266908991703,-0.5171076800165539,-1.4181967568649048,0.473091275663871,1.2824239375602338,-0.276847519634988
0.15306192128422993,-0.43772872824382275,-0.5191677682726714,-1.4178597605116987,0.4742489518585871,1.2825282003663385,-0.2771453875607765
0.15417567522112208,-0.43773166432395694,-0.5212372041850134,-1.4175286963144542,0.4753997251015787,1.2826239543650908,-0.27744930752482944
0.15529979554110646,-0.43773388143752234,-0.5232982511723057,-1.4172055416221305,0.47654953946067924,1.2827128173676237,-0.27775927941806366
0.15758153199466407,-0.4377371171688725,-0.5273634201425056,-1.4165867961132765,0.4788264464354803,1.2828811358298553,-0.27843147465351215
0.1587336355057949,-0.4377369373999595,-0.5293680813230691,-1.4162774234133912,0.47996811150323737,1.2829701786013012,-0.27879058192851314
0.15988172421423075,-0.43773663774874355,-0.5313754390373269,-1.415967750953207,0.48111572098789385,1.2830670709910579,-0.27912655966393435
0.16102394065331518,-0.43773663774874355,-0.5333922641810291,-1.4156540639084936,0.48226112524904047,1.2831655814101144,-0.27946073981930913
0.1621608841254801,-0.43773681751765653,-0.5354208339725172,-1.4153398375570414,0.48341151504319535,1.283252526950298,-0.27979707709255625
0.16329057706359995,-0.43773903463122193,-0.5374700165388036,-1.4150212368650685,0.4845501121711933,1.2833247318759513,-0.2801367099837635
0.16442116884628455,-0.43774328898035675,-0.5395386735979669,-1.4147038946645694,0.48567950547991384,1.2833731481820663,-0.2804946787586768
0.16671333167862742,-0.4377512585900537,-0.5436652616862921,-1.414105342506078,0.4879238152893412,1.283448768607983,-0.2812302704612101
0.16787586135037738,-0.4377534157079261,-0.5457075533654425,-1.4138243124260819,0.4890378688992659,1.2834847811863532,-0.2815927933455572
0.1690500157876102,-0.4377545542080138,-0.5477302507784961,-1.4135447204973894,0.49014952564852887,1.2835270255719007,-0.28196897812187355
0.17022830480075793,-0.43775467409031676,-0.549740724341801,-1.4132627915728284,0.49127134492642743,1.2835765204914935,-0.2823498367808437
0.17139868419990179,-0.43775485385922974,-0.5517535349009743,-1.4129770277235687,0.4923988208164317,1.2836306291889636,-0.2827458554787797
0.1725652286743467,-0.4377541347835779,-0.5537830633145541,-1.4126858710250865,0.49352246169447056,1.2836810828397311,-0.2831386384453656
0.17487992174383743,-0.4377560522459274,-0.5578956298640012,-1.4121045761368234,0.49573877624816304,1.2837421424200306,-0.2839016141456965
0.17603819706645255,-0.4377577300527539,-0.5599700393102129,-1.4118227670945656,0.49683164173550143,1.2837466365337715,-0.28429715353258667
0.17720797727224757,-0.4377586287882356,-0.5620375577602055,-1.4115490474352244,0.4979149197801928,1.2837460972270325,-0.28469952381091995
0.17838686547874413,-0.4377600669395393,-0.5640878789356626,-1.411280900394019,0.49899484225486435,1.2837468163026844,-0.2851157958549115
0.1795740228370705,-0.43776168485975586,-0.5661208828451985,-1.4110183859666419,0.5000676701406593,1.2837469960715973,-0.28553128893664126
0.18076765165809708,-0.43776198440188874,-0.5681378877578136,-1.410750838118785,0.5011391556937267,1.283748374227208,-0.2859520550943736
0.18196128047912366,-0.4377617447463658,-0.5701535745105112,-1.410476878803921,0.5022137091865533,1.2837486738784238,-0.28638366694624406
0.1843229517034257,-0.4377615649774529,-0.5742175449849304,-1.4099243460690662,0.5043577349951549,1.283748374227208,-0.2872531824528552
0.1855002819853987,-0.43776348243980234,-0.5762716411984765,-1.409644454489158,0.5054265360572998,1.283748014689382,-0.28768665188046516
0.18667665342711387,-0.43776797655354316,-0.5783423953798191,-1.4093673792161638,0.5064859416630153,1.283744958726945,-0.2881182037366425
0.18785955643630542,-0.4377734293984587,-0.5804215984819046,-1.40910001113722,0.5075354720212901,1.2837444194202061,-0.2885580847403427
0.18905162722372537,-0.43777792340311644,-0.582489416583113,-1.4088382756721047,0.508575223474299,1.2837426218401595,-0.28899730655500105
0.19025969700806603,-0.4377814587856825,-0.5845389586872254,-1.4085764203246864,0.5096075925336376,1.2837408840376399,-0.2894459960172699
0.19147148194388575,-0.43778427509259676,-0.5865698653654988,-1.408314924624177,0.510643604793257,1.2837393861088093,-0.28990211556433065
0.19390643670731897,-0.43778379567246783,-0.5906141218006014,-1.4077831845421167,0.5127135200820947,1.2837375285330699,-0.2908194480746249
0.19511348787387495,-0.4377815186722925,-0.5926454480123937,-1.4075127605007358,0.5137584487052637,1.283737168995244,-0.29126262469628517
0.19631628458221304,-0.43778091947894365,-0.5946925932340277,-1.4072444336906171,0.5147958031230778,1.283736629688505,-0.29171604781873467
0.19751662463054584,-0.43778199809242135,-0.5967580145618409,-1.4069831775365478,0.5158233784610929,1.2837342928017197,-0.29217126863031373
0.1987168446874926,-0.4377825972857702,-0.5988399140885374,-1.4067240187228238,0.5168449139126987,1.2837294990367631,-0.2926225945215008
0.19992563354748508,-0.43778361590355486,-0.6009212144218852,-1.4064694139094507,0.5178587793403736,1.2837242259607604,-0.29306637044559297
0.20115078083314114,-0.43778457463472964,-0.6029878340273129,-1.4062185241384733,0.5188668923373669,1.2837206906872776,-0.29351715703004116
0.20238030245931807,-0.43778451474811964,-0.605038874278422,-1.405975723750413,0.519867718933799,1.283719012880451,-0.29399017441858744
0.20485462541477467,-0.43778253739916023,-0.609099788790404,-1.4054879058607268,0.5218709060965427,1.283718533460322,-0.29492817969937307
0.20609061850365185,-0.4377822377479443,-0.6111295569685897,-1.4052397725100538,0.5228753758932554,1.283718533460322,-0.29537872662829834
0.20731984036952975,-0.43778235763024725,-0.613171788652047,-1.404990920083729,0.5238813796598476,1.283718293804799,-0.29583442675092325
0.20854474799966288,-0.43778235763024725,-0.6152284614079014,-1.4047402100816646,0.5248842194935719,1.2837172751870143,-0.2963023508323798
0.20977013504992492,-0.43778367589924794,-0.6173048483121557,-1.4044932751176893,0.5258730619612281,1.2837164962247527,-0.2967577513037888
0.21099797876019222,-0.43778571324390037,-0.6193921406880748,-1.404253830234199,0.5268476190834895,1.2837109834932272,-0.2972115939597572
0.21349279482631034,-0.43778601278603324,-0.6235382630468038,-1.403787344304046,0.5287846533806607,1.2837091259174875,-0.29816589777959646
0.2147520372279872,-0.4377854135926844,-0.6255837305706944,-1.403558205917038,0.5297442542529631,1.2837090659217945,-0.29865868909406934
0.21601697213010246,-0.43778367589924794,-0.6276130793244442,-1.4033270302944605,0.5307059641811337,1.2837102044218822,-0.2991377585208799
0.21727891106547365,-0.43778241751685726,-0.6296402708512386,-1.403095375142671,0.5316693042468256,1.2837090659217945,-0.29961976402782475
0.21853323992897378,-0.43778181832350843,-0.6316789672612129,-1.4028532339436524,0.5326244948466411,1.2837093655730105,-0.3001114767288199
0.21977864066976843,-0.4377813389033795,-0.6337315654368455,-1.4026079767865036,0.533577096948643,1.2837088262662717,-0.3006142150019491
0.22102386153256706,-0.43778277705468316,-0.6358039375384047,-1.4023682323608804,0.5345251929595821,1.2837088262662717,-0.30110317139172305
0.22351909702312106,-0.43778517393716154,-0.6399915852070295,-1.4018987503549003,0.5364055656661861,1.2836991789588312,-0.302110325635725
0.22478702800106357,-0.43778643221046915,-0.6420711478469407,-1.4016638594717605,0.5373372672758625,1.2836989991899184,-0.3026319989859091
0.22606250905518402,-0.4377873310550339,-0.6441315357542743,-1.4014374775050569,0.5382683936250173,1.2836988794166984,-0.3031477400710488
0.22734865603452958,-0.4377874509373369,-0.6461713106686432,-1.401211335193876,0.539195397506479,1.283700317458919,-0.3036658780386668
0.22863558208522,-0.43778625244155617,-0.6481997006912184,-1.4009802194579084,0.5401248938926455,1.283699598383267,-0.3041915660824628
0.22991825367769253,-0.4377850540548585,-0.6502313264451436,-1.4007422726123315,0.541053144113726,1.283699957921093,-0.30472714108922216
0.23119175727377048,-0.4377850540548585,-0.6522747566243816,-1.4005022286445754,0.5419826404998924,1.283699957921093,-0.3052586414066765
0.2337285779608302,-0.43778649220616217,-0.6564198003696329,-1.4000201032553277,0.5438220752871604,1.2836973213830918,-0.30634147607228807
0.2349995050145999,-0.4377876307062499,-0.6585121861617247,-1.399781916754228,0.5447355607209008,1.2836937861096087,-0.30688969446231495
0.23628205683385253,-0.4377884096685116,-0.6605937261505954,-1.3995506212493476,0.545647032917349,1.2836880336134773,-0.30744060927695316
0.23757467527589832,-0.43778828978620865,-0.6626580688649308,-1.3993284337451686,0.5465534239367459,1.2836844983399942,-0.3079981154365946
0.23887622205881576,-0.4377882298995987,-0.6647027574265596,-1.3991064858965125,0.5474568426604266,1.2836809030708183,-0.3085539437894094
0.2401853189179112,-0.4377876905928598,-0.6667304882600928,-1.398879085202941,0.548364767649703,1.2836794649195147,-0.30911714244948935
0.24277828564709372,-0.43778751082394685,-0.6708036266218236,-1.3984105619281355,0.5501765906300727,1.283677966881601,-0.3102525877746576
0.24406173620182803,-0.4377873310550339,-0.6728616176466786,-1.3981657840820325,0.5510768455954184,1.283677667339468,-0.31080488085398944
0.24534602571451714,-0.4377893084039933,-0.6749366862819322,-1.3979219051895775,0.5519750873234718,1.2836749708057738,-0.3113607092068043
0.2466305548827292,-0.4377928437865594,-0.677028652540505,-1.3976834790329549,0.5528637414343452,1.2836685593387667,-0.3119189343330145
0.24792185505577433,-0.4377974577826032,-0.6791186414501186,-1.397452602843427,0.5537510535615568,1.2836583127288943,-0.31247062810991444
0.2492295137635661,-0.43780177201834797,-0.6811911333248977,-1.3972255018010715,0.5546407623748972,1.2836507027661064,-0.31301836718889553
0.2518677809498165,-0.4378098614012648,-0.6852817687214627,-1.3967704607584055,0.5564189336619593,1.2836386586852706,-0.3141537526274538
0.2531896409653994,-0.43781267770817905,-0.6873119564331673,-1.3965369481399594,0.55730193133526,1.2836383590340548,-0.31471024006022746
0.2545062279049798,-0.4378127975904821,-0.689345559536052,-1.396294747054331,0.5581864631529732,1.2836375201851828,-0.31525779937029563
0.2558144858061204,-0.4378117788636143,-0.69138575398394,-1.3960483512880115,0.5590708988030445,1.28363734041627,-0.3158211777992884
0.2571158528201249,-0.43781267770817905,-0.6934433255843592,-1.3958034536686887,0.5599490069364458,1.2836354828405305,-0.31637341088292725
0.2584121265270397,-0.4378151943638774,-0.6955192928460113,-1.3955520247000557,0.5608197328507099,1.283626254957526,-0.3169217490461741
0.25971331377213125,-0.43781860986414045,-0.6976056864864487,-1.3952993972356418,0.5616855690505415,1.2836101361873853,-0.3174742817810289
0.2623445101932495,-0.437827777860535,-0.7017516890719578,-1.3948195488465693,0.5634012308468446,1.2835750224535798,-0.31861410133763496
0.2636714036293121,-0.4378323917474957,-0.7038005720961115,-1.3945801040721622,0.564253357136336,1.2835577651833514,-0.3191796368845002
0.26500932252842574,-0.4378358671343688,-0.705830819585343,-1.3943310718769244,0.5651109482262483,1.2835494361449118,-0.3197576361548031
0.2663426873181055,-0.43783928263463184,-0.7078591497213081,-1.394076826492294,0.565968155867324,1.283548357531434,-0.3203431852831179
0.2676674235272127,-0.437842758130588,-0.7098927528241928,-1.3938137128715682,0.5668318828367546,1.2835471591447363,-0.3209181284819006
0.26898514907596377,-0.437846113635158,-0.7119384600036063,-1.3935434685991002,0.567698869732162,1.2835472789179563,-0.3214954685631617
0.27161287011020896,-0.4378597757452934,-0.7160864399380747,-1.3929977069781616,0.5694166405843333,1.2835355343792534,-0.3226767536521366
0.2729293971631794,-0.43787098097725735,-0.7181744513896458,-1.3927314773993054,0.5702685750621398,1.2835239097228537,-0.32326595804532043
0.27425958621720203,-0.4378813472512665,-0.7202458647600302,-1.3924709403208877,0.5711163870722532,1.283511266339586,-0.3238607350566397
0.2756009805031887,-0.43788937674757333,-0.7222968450154462,-1.3922105231247732,0.5719590219122064,1.283495746762794,-0.32446869486704855
0.2769486664829626,-0.4378963276304025,-0.7243248755001954,-1.3919473496174373,0.5728037659825607,1.2834837625685684,-0.32507431768158895
0.27829347626921236,-0.43790381771088743,-0.7263425396018524,-1.3916750081137068,0.5736523450648803,1.283477950185827,-0.32569228422818103
0.2809697334918755,-0.4379148431739384,-0.7303933873819581,-1.3911035403017973,0.5753575563532213,1.2834735160677793,-0.326932531666193
0.2822914137385455,-0.43792161428785464,-0.7324421505238088,-1.3908051930649628,0.5762108331637555,1.283470879529778,-0.3275478616747838
0.2836106971027371,-0.43793275963320866,-0.7345120658562796,-1.39050450883226,0.5770657399372783,1.2834647674958206,-0.32815510230045775
0.28493471423619243,-0.4379466612897838,-0.7365954035342799,-1.3902071802132103,0.5779159488080534,1.283452663528375,-0.3287663577288267
0.28627059579065356,-0.43796194121105275,-0.7386713110184052,-1.389916083401338,0.5787578165758004,1.2834375033803258,-0.32938018969950383
0.28761936038390523,-0.43797746078784455,-0.7407273844718277,-1.3896304993209911,0.5796027522833065,1.283422463223663,-0.33000097255301014
0.29033576476085354,-0.4380079007480793,-0.7447874002483281,-1.3890551965843825,0.581306237964616,1.2834088611092207,-0.3312261798343592
0.2916930381614579,-0.43802222182909045,-0.7468108167370335,-1.38874612342663,0.5821575015378581,1.2834098198403954,-0.33183689595598925
0.29304210229684247,-0.43803702243931353,-0.7488399258352604,-1.3884255453856975,0.5830134628393149,1.2834099996093082,-0.33243305123200223
0.2943830172717833,-0.43805164317154055,-0.75088095913202,-1.3880999340333686,0.5838718208269006,1.2834101194916114,-0.3330327417814982
0.2957193182506803,-0.4380670428660294,-0.75293984900144,-1.3877763599166089,0.5847326716682568,1.2834105988026572,-0.33363494909577557
0.2970516045359654,-0.4380861577119972,-0.7550149175276104,-1.387457579564806,0.5855891124116591,1.2834086813403076,-0.33422547175796
0.2997452388020768,-0.4381347537870251,-0.7591585831172512,-1.3868275089416853,0.5873045822217445,1.2834064643358254,-0.3353912971567531
0.3011056880474213,-0.43816165836469384,-0.7612086645281023,-1.3865088483631023,0.588152202594706,1.2834054456089576,-0.33597726581858683
0.30247176990659436,-0.4381885629423626,-0.7632411891265923,-1.3861849747042099,0.5889948372601262,1.2834041873356499,-0.3365595194380246
0.3038439036949487,-0.4382143290199436,-0.7652612500016447,-1.3858528918891806,0.5898461008333684,1.283404606760086,-0.33714506867542243
0.3052077084448633,-0.4382396156773957,-0.767285565443998,-1.385517633120328,0.5907000487230001,1.283404606760086,-0.3377458378383961
0.3065644425387288,-0.43826424325488905,-0.769317610622359,-1.3851794382713414,0.59155495532199,1.283404606760086,-0.3383256945753555
0.30925927530062086,-0.43831805241022653,-0.7734186122929332,-1.3844875889922692,0.593263043087471,1.2834026892977364,-0.3394817527844052
0.3106079800072626,-0.43835154833289847,-0.7754990138907992,-1.384136511104492,0.5941053902971636,1.2833978356461697,-0.3400667028284542
0.3119620176765169,-0.43838744113804884,-0.7775779772282786,-1.3837874106747574,0.5949452446530854,1.2833919034902084,-0.3406385301781898
0.3133269609265191,-0.4384241127963779,-0.7796392040935669,-1.383444781707723,0.5957825105111936,1.2833850124939892,-0.341215270957019
0.31470161147965486,-0.4384600056015282,-0.7816835330082866,-1.3831064070898234,0.5966153662713479,1.2833767434512424,-0.34180549407707056
0.31608069615083834,-0.43849440036876497,-0.7837122825686877,-1.3827656356985285,0.5974572340390948,1.2833719496862857,-0.34238612977629174
0.3188290384168519,-0.43856306991185234,-0.787757317966052,-1.382034418227433,0.5991615826111865,1.2833690734927614,-0.34353727444716475
0.3201915250068489,-0.4385979439901349,-0.7897945163381127,-1.3816517618793334,0.6000168728335459,1.2833682346438897,-0.34411910853308353
0.3215441245247995,-0.4386341963331112,-0.7918532264386197,-1.3812700642624083,0.6008681362322551,1.2833659576437142,-0.3446905763449932
0.32289534588713953,-0.4386743434873963,-0.7939297331160937,-1.3808876476789147,0.6017142224608041,1.283356190453971,-0.3452706128508655
