AdrianPrados/GaussianPathwiseLfD/ExpJointIiwa/joint_gaussian_3_joints.csv
joint_0,joint_1,joint_2,joint_3,joint_4,joint_5,joint_6
-0.01265498196223063,-0.43537784271796576,-0.003867189509995377,-1.5768239724467223,0.0017661871582861381,1.1337947414419474,0.00011954261829069111
-0.012656599882447227,-0.43536603829265297,-0.0038694665101707605,-1.5768239724467223,0.0017660913397102038,1.1337950410931634,0.00011864377372591404
-0.012657738382534919,-0.4353602857965215,-0.003870964548084363,-1.5768241522156354,0.001765995346601344,1.1337953406352963,0.0001181644626800851
-0.012663490769583336,-0.4353538742204312,-0.0038753387795221737,-1.576829425291638,0.0017682963886871733,1.1337939025930757,0.00011804458037708874
-0.012690814771687934,-0.4353409312950307,-0.0038888210116615166,-1.5768480607174769,0.001769446909730088,1.1337940223662957,0.00011756526933125979
-0.012705914924043875,-0.43533601775685404,-0.0038904988184880747,-1.5768533337934794,0.0017682963886871733,1.1337942021352085,0.00011744538702826343
-0.0127232920765752,-0.4353315236431132,-0.0038900195074422455,-1.576862322020961,0.001768584018947902,1.1337937228241628,0.0001171458448953899
-0.012744024733676564,-0.43532672998723954,-0.0038897198562262937,-1.5768758641397103,0.001770501437664143,1.1337934231729467,0.00011696607598243449
-0.012767753575688209,-0.43532121725571404,-0.0038910381252269407,-1.5768914437121953,0.0017703096259793487,1.1337933032906438,0.00011696607598243449
-0.01279483792226989,-0.4353161838352344,-0.003893614776618276,-1.5769084612178175,0.0017680087584264446,1.133793123521731,0.00011678630706947907
-0.012860930923049038,-0.4353080345657076,-0.0039021235839709826,-1.5769465111408403,0.0017689674677845652,1.133792704097295,0.00011666642476648271
-0.012897902232594034,-0.43530419964100864,-0.0039061981641928417,-1.5769676034448505,0.001768584018947902,1.1337922846728592,0.00011654654246348635
-0.012936311693442674,-0.43530132344748446,-0.003910212857804742,-1.576991811597908,0.0017684880258390424,1.1337922846728592,0.00011636677355053094
-0.012977896889948394,-0.4352989865606991,-0.0039153061648943745,-1.5770187760621868,0.0017686798375238365,1.1337919251350332,0.00011624700033061282
-0.013024275851410874,-0.43529652979161076,-0.003922077278810564,-1.5770469390222461,0.001770501437664143,1.1337916255929004,0.0001160672314176574
-0.013073710775310518,-0.4352939531402194,-0.003930106666034364,-1.5770764201422232,0.0017723230378044494,1.1337913858282944,0.00011576758020170563
-0.013181868392724293,-0.4352905975265663,-0.003947124280739778,-1.5771418540630435,0.0017756786078243338,1.1337906068660326,0.00011534815576583574
-0.013237834775017214,-0.4352893392532587,-0.00395503389474366,-1.5771767880279361,0.0017787465475834893,1.1337904870928126,0.00011516838685288033
-0.013294819775094828,-0.43528766144643216,-0.00396306328196746,-1.5772127407196963,0.0017809517710933843,1.1337900076726837,0.0001148688447200068
-0.013352703510654143,-0.4352856839883896,-0.0039718717405361195,-1.577251449722678,0.0017832526386462883,1.1337897080214678,0.0001148688447200068
-0.013410827010819448,-0.435284185950476,-0.003982178127935302,-1.5772924957215277,0.001786128941253575,1.133789408479335,0.00011456919350405502
-0.01347074820011431,-0.4352824482570395,-0.003994102435551084,-1.5773341409137265,0.0017894845112734594,1.133788809285986,0.00011426954228810324
-0.013591549200795689,-0.435277055407817,-0.004022445164523454,-1.5774256404542608,0.001796579100149891,1.1337880902103343,0.00011385011785223336
-0.013654046932398805,-0.43527435898320577,-0.004038204396838181,-1.5774749556049406,0.001801948081994876,1.1337877905591183,0.00011367034893927795
-0.013718761668484269,-0.43527208198303036,-0.004054263280368859,-1.5775246900709732,0.0018099055616534938,1.1337874910169854,0.00011349058002632253
-0.013784914664956453,-0.4352699247560749,-0.004070561819422451,-1.5775755631461763,0.0018198764531372122,1.1337871913657696,0.00011277150437450086
-0.013851606859084426,-0.4352675279826796,-0.004086860358476044,-1.5776266159902925,0.0018320523935979002,1.1337864124035077,0.0001127116177645418
-0.01392063593999774,-0.4352655505246371,-0.004103578321965506,-1.5776802453767171,0.0018475839040784725,1.1337858132101588,0.00011241207563166828
-0.014066723707214327,-0.43526099652428635,-0.004138871933767023,-1.5777895414942187,0.0018900561423599042,1.1337840155210293,0.00011109380663102131
-0.014143482633218567,-0.435258479868588,-0.004156608515041181,-1.5778462268430802,0.001915941993160858,1.1337831167855477,0.00011049450419911776
-0.01422341740396297,-0.43525596310380665,-0.0041738058986595505,-1.5779037511498968,0.0019437454372109781,1.1337825174831158,0.00011019496206624424
-0.014307606632925263,-0.4352533266748884,-0.004189984664493224,-1.5779612754567132,0.0019740415604987964,1.1337819182897668,0.00010953577302438162
-0.01439167597958456,-0.4352506301411941,-0.004205684010197992,-1.5780204175746633,0.002006830363024313,1.133781438978721,0.00010911634858851174
-0.01447892106190094,-0.43524805359888585,-0.0042219225535585474,-1.578080997843917,0.00203961916554983,1.1337808397853721,0.00010833738632673103
-0.014657126487095804,-0.43524302017840616,-0.004256676858621197,-1.578206053193733,0.0021205366439295665,1.1337803004786333,0.00010725877284899852
-0.014745929603018822,-0.4352407431782308,-0.004275072628937217,-1.5782696894254238,0.002169624029141907,1.1337801207097205,0.00010618026845434427
-0.014834073638983057,-0.43523876582927135,-0.004295146206079795,-1.5783343443839823,0.002220341377342685,1.1337798210585044,0.00010558107510551898
-0.014920899296863568,-0.43523702802675174,-0.004317257127874842,-1.578402055195895,0.0022728801511508446,1.1337796412895915,0.00010450246162778648
-0.015006346799133471,-0.43523529033331526,-0.004341704936455231,-1.5784698260035008,0.002326185997165255,1.1337795215163715,0.00010378338597596482
-0.015093292339316977,-0.43523343275757576,-0.004368070207385092,-1.5785380761221524,0.00237862895239748,1.1337792218651557,0.00010204569253944796
-0.015273415226861313,-0.4352296578285698,-0.0044245757873338,-1.5786772728931497,0.0025043195366115526,1.1337788024407198,9.946904114811308e-05
-0.015362158456174373,-0.4352279200260502,-0.004454057016393862,-1.578747021158798,0.002574115602464656,1.1337786226718067,9.8030998927548e-05
-0.015451261223313344,-0.4352261224460038,-0.004484437090018701,-1.5788161101263212,0.002644582921948077,1.1337781432516778,9.62931964079529e-05
-0.015536948381106162,-0.4352245645214802,-0.004515835672345157,-1.5788853789718404,0.002718980897439914,1.133778023478458,9.413607853556616e-05
-0.015621197496678415,-0.43522300648787354,-0.004549811015146027,-1.5789569847041451,0.00279893966646153,1.133777843709545,9.173919605718669e-05
-0.015705446612250668,-0.4352213287901301,-0.00458612313564916,-1.5790300285877534,0.002880815854199387,1.133777723827242,8.928242696884818e-05
-0.01587220704087558,-0.4352188120253487,-0.004661803557258747,-1.579176715548319,0.003054155672322157,1.133777424285109,8.490819553103739e-05
-0.0159569954631867,-0.435217793407564,-0.004700572555933297,-1.5792529351675844,0.0031417844652745874,1.1337772445161962,8.245142644269888e-05
-0.016041484234281866,-0.43521671479408625,-0.004740480054695539,-1.5793266381311513,0.0032337273630720976,1.1337771246338932,7.975500183144588e-05
-0.016124654736376386,-0.43521581594952147,-0.004780507326677699,-1.5794018991283252,0.0033264373330758592,1.1337769448649802,7.621961926537487e-05
-0.01620812488968686,-0.4352150369872597,-0.004821493329834594,-1.5794774596676318,0.0034224070545235703,1.1337769448649802,7.214503904351585e-05
-0.016293452618736843,-0.435214138251778,-0.00486481632885991,-1.5795549376692877,0.0035193354853294023,1.1337770647472833,6.87295387804412e-05
-0.016464946816625477,-0.4352126402138644,-0.004952061520259368,-1.5797067178278597,0.0037233548755766536,1.1337769448649802,5.9801306991864207e-05
-0.01655398958807141,-0.4352118612516026,-0.004994964985765737,-1.5797838362916898,0.003829103676823289,1.1337769448649802,5.488776881518717e-05
-0.01664117489286091,-0.4352109025204279,-0.005038168102488056,-1.579861554057952,0.003942618320576674,1.1337768249826772,4.9974230638510134e-05
-0.01672836008856733,-0.4352099436801701,-0.005081371328293454,-1.5799372343704785,0.0040568998620033846,1.1337769448649802,4.571977242061746e-05
-0.016816623897751484,-0.4352094643691243,-0.00512637202506225,-1.5800123155987391,0.004176262755014351,1.1337771246338932,4.098600315689584e-05
-0.016901771857888513,-0.43520886517577545,-0.005174249024438332,-1.5800886551003075,0.004299268848305931,1.1337771246338932,3.583280945730433e-05
-0.01706985055551407,-0.43520730725125184,-0.005274137490022315,-1.580238637678833,0.0045559230054702015,1.1337772445161962,2.5047001929214125e-05
-0.017153740133260414,-0.43520604886886116,-0.0053275272209239,-1.5803124005290101,0.004685831875953419,1.1337772445161962,1.935450149075637e-05
-0.017236491210919063,-0.43520461071755756,-0.0053801379895637045,-1.5803886202573585,0.004820151193456426,1.133777424285109,1.3362458919425087e-05
-0.01731936217088071,-0.43520323256194693,-0.00543430668272707,-1.5804636414899262,0.004951690026928081,1.133777424285109,7.969500613840857e-06
-0.017403191752934016,-0.4352014948685104,-0.0054885353715834724,-1.5805421382184501,0.0050856257210615,1.133777364289416,2.097231262427686e-06
-0.017484804330504974,-0.4351998769482938,-0.005541984989095017,-1.580619496337803,0.005221670645595954,1.133777424285109,-3.175844740160182e-06
-0.01764892833021167,-0.4351976599438115,-0.005652419606684175,-1.5807748718746342,0.005498937664825052,1.133777424285109,-1.2403618661610701e-05
-0.017728743218653076,-0.4351966412169437,-0.005710243455633529,-1.5808506120737706,0.005640255578095632,1.133777424285109,-1.653819457650702e-05
-0.01780694029596096,-0.43519556271254906,-0.005768966149147662,-1.5809274908820778,0.005786559024374533,1.133777723827242,-2.037322835852981e-05
-0.017883879099961236,-0.4351947836412042,-0.0058281682627907005,-1.5810031114170775,0.005933916998587489,1.133777544058329,-2.354896401561174e-05
-0.01796165664375017,-0.4351943043301584,-0.005890665994393818,-1.581079630687559,0.006084822354505123,1.133777544058329,-2.636527092986109e-05
-0.01803559937192324,-0.4351937650234195,-0.005952864074780983,-1.5811554308823883,0.006241384322528472,1.133777544058329,-2.9181577844110442e-05
-0.018184083912535128,-0.4351925066410288,-0.006080196533855638,-1.5813097278057417,0.006559781247311294,1.133777723827242,-3.5772922847345277e-05
-0.018257487224886255,-0.4351920872165929,-0.006142454500852762,-1.5813885240763985,0.006721903834331496,1.133777544058329,-3.864911637155368e-05
-0.01832753503266734,-0.43519142813663414,-0.006203094765799445,-1.581467200464752,0.006885368579546481,1.133777544058329,-4.206461663462834e-05
-0.018398481685013207,-0.4351908289432853,-0.006263914690576004,-1.5815443189285823,0.007054010669454583,1.133777544058329,-4.577976811365476e-05
-0.01847020729962085,-0.4351904694054594,-0.006325873115440255,-1.581619100505627,0.007222748577938619,1.133777544058329,-4.8955612853814946e-05
-0.018542591994187282,-0.43519016975424346,-0.006388970040392197,-1.581693282889323,0.007396855293734715,1.133777544058329,-5.243099972684865e-05
-0.01868388599644711,-0.43518939079198166,-0.006522354537731221,-1.581841048354283,0.007763572706056551,1.133777544058329,-5.968142468886785e-05
-0.01875417345975111,-0.4351889113718528,-0.006590185231946885,-1.5819136128177627,0.007954361453376134,1.133777544058329,-6.279738281906898e-05
-0.01882386172970629,-0.4351887316029398,-0.006654420656986519,-1.5819859976214121,0.008143136963403541,1.133777544058329,-6.609300077914727e-05
-0.018890673806137258,-0.4351880126363711,-0.006718356430810201,-1.582059940240502,0.008332487733952405,1.133777723827242,-6.938861873922557e-05
-0.018959223576004745,-0.4351872935607192,-0.0067837903516305646,-1.582130407472719,0.008523947734902306,1.133777544058329,-7.310377021825199e-05
-0.01902747369465628,-0.4351861550606316,-0.006853298852672786,-1.582201114469542,0.008716462263786261,1.133777424285109,-7.65791570912857e-05
-0.01915696327160332,-0.43518315898480436,-0.006995192048281439,-1.5823410902028012,0.009119707497490161,1.133777544058329,-8.406934665929762e-05
-0.01921814273420579,-0.4351817208335007,-0.007066078814017345,-1.582408681241494,0.009331205099983432,1.133777424285109,-8.832369579411204e-05
-0.01927452854093458,-0.4351803426778901,-0.007139242470845556,-1.5824756729777547,0.009546921163278774,1.1337772445161962,-9.341700288374449e-05
-0.019329476196359725,-0.4351787847533665,-0.007213904165587369,-1.582541406440708,0.009769635996874613,1.1337772445161962,-9.976869236406485e-05
-0.019384064313958962,-0.43517704705993004,-0.007290423436068696,-1.5826073796682671,0.009992734279307114,1.1337771246338932,-0.00010677946180316959
-0.019438053238209373,-0.43517536925310346,-0.0073678415511148,-1.5826721544000457,0.010220913913323873,1.1337772445161962,-0.00011408977337514783
-0.019544712817709545,-0.43517219340836333,-0.007525493979038178,-1.5827986479011655,0.010685039023864138,1.1337768249826772,-0.00012889038359821626
-0.019597024044216475,-0.43517039582831685,-0.007605129207649706,-1.582860186901594,0.010925778221711173,1.1337766452137643,-0.00013662011960606437
-0.019648196661552635,-0.4351682386013614,-0.007684944096091111,-1.582923163944243,0.011176967578454523,1.1337766452137643,-0.0001442900780870317
-0.019696253429841673,-0.43516614137009896,-0.0077649987491385086,-1.5829826656000188,0.01143218358431515,1.1337761659027186,-0.0001514207298291328
-0.01974437008474067,-0.4351639842522265,-0.007844693864359995,-1.5830417478313588,0.011692385123184098,1.1337758662515025,-0.00015873104140111104
-0.019791767663987846,-0.43516146748744516,-0.007924748517407394,-1.5830996316760013,0.011952203038683459,1.1337750274026308,-0.00016592157975317117
-0.019882488242260337,-0.43515517579365787,-0.008087014941374576,-1.5832138413316794,0.012485165505718708,1.1337734094824141,-0.00017994311863138063
-0.01992611078341853,-0.4351517602933948,-0.008167908443293712,-1.5832678902516228,0.012753132712561479,1.1337725706335424,-0.00018737331250635525
-0.019966138164483765,-0.4351478654820859,-0.008247783218345076,-1.5833242160626586,0.013028386494498403,1.1337717316755875,-0.0001946238465514527
-0.020004427743029407,-0.43514367101956103,-0.008329635560522028,-1.5833797629114326,0.013308242011541134,1.1337699340955412,-0.00020193415812343093
-0.020041998245923228,-0.4351393566747332,-0.00841436398714011,-1.5834351301003766,0.013590973831191153,1.1337677169819758,-0.00020810607869079588
-0.020077591399857618,-0.4351351622122083,-0.008502448027411307,-1.5834895384490628,0.01388147149334792,1.1337656197507133,-0.0002151168481299006
-0.020143744396329804,-0.4351254549090749,-0.008679335183605525,-1.5835948198729524,0.014475218018643599,1.1337563918677087,-0.0002285990802692438
-0.02017550251648217,-0.43512024182876535,-0.008765681530440205,-1.5836461123725916,0.014779041967771044,1.1337494410939626,-0.00023459123192365333
-0.020204564321106365,-0.43511508863506576,-0.008855143835405086,-1.5836969254521018,0.015086413473136091,1.133740752517697,-0.00024004407683919662
-0.02023152878538505,-0.4351096357901502,-0.008944486148983894,-1.583748397720654,0.015394839506435195,1.1337291877479072,-0.0002454968126716616
-0.02025747463187904,-0.4351043028275377,-0.009034727416210557,-1.5837969936865988,0.01570460769792908,1.1337154657511619,-0.00025136908202307484
-0.02028120336480761,-0.435099269407058,-0.009126886036703613,-1.5838439719504933,0.016020895392310868,1.133699706518847,-0.0002569418092416145
-0.020321829939221672,-0.4350891427885718,-0.009307248688853942,-1.5839340333397238,0.016665934351795857,1.1336644130161286,-0.00026934542790322516
-0.020339207091752996,-0.4350838697125692,-0.009396890653648701,-1.583978075414401,0.01700254710344882,1.1336445790945089,-0.0002762963107323708
-0.020355625404026505,-0.4350784767542636,-0.009485514000658765,-1.584022776569037,0.017344337199794897,1.1336234868995818,-0.00028360673138742734
-0.020371204976511355,-0.43507290413612815,-0.009575815154495387,-1.5840655002656303,0.017689387047584923,1.133600117595396,-0.00029067738743649113
-0.02038630501978422,-0.4350669119844737,-0.009669411926292086,-1.5841064263821771,0.018038463544492227,1.1335738122110761,-0.00029768815687559585
-0.020400506327575386,-0.4350600210973376,-0.009763428231607734,-1.5841472327255042,0.01838955345322463,1.1335442112087961,-0.00030433938848878974
-0.02042351609393521,-0.4350445015205458,-0.00995074165750413,-1.584225190038206,0.019114167558361646,1.133466912976053,-0.00031650335162748596
-0.020432803863549696,-0.4350354534064542,-0.010040143966775975,-1.5842624011123572,0.019488363008396577,1.1334177775942862,-0.00032243561667193643
-0.020440893246466533,-0.4350254465611879,-0.010126190662394704,-1.5842985335730304,0.01987070774977492,1.133359354551988,-0.000329026852592093
-0.020448682978167418,-0.4350144210981369,-0.010209780698008174,-1.5843331679957902,0.020264653171092495,1.1332908047821206,-0.000335258659769417
-0.020456053285432433,-0.43500225713499824,-0.010292651548886741,-1.5843670833428978,0.020666076804656087,1.13321566366725,-0.00034083138698795664
-0.020463363597004413,-0.4349891344406848,-0.01037869824450547,-1.5844008189210927,0.021068554966153737,1.1331362682032442,-0.0003461044629905445
-0.02047636651809793,-0.4349609714806254,-0.010556783896480416,-1.5844651742284355,0.021879455531515473,1.1329757394727136,-0.00035593143026082033
-0.020480680862925777,-0.4349466502905312,-0.010642111516447323,-1.5844948351173254,0.022289507898368,1.1328905916216596,-0.0003610847330434901
-0.020484935212060594,-0.43493125059604243,-0.01072582132528071,-1.5845237770396465,0.022702052769925304,1.1328015488502137,-0.00036707677561482137
-0.02048859047692966,-0.4349147124014659,-0.010810310205458955,-1.5845527788485776,0.023120158435012386,1.132703757506809,-0.0003733085827921454
-0.02049182620827978,-0.43489739513554454,-0.010893121169727566,-1.5845804025018981,0.023545454682084757,1.1326059662724877,-0.0003800198100983766
-0.02049464240611095,-0.43487947867627436,-0.010976471440735042,-1.5846052098483046,0.023981201088053444,1.132515305580825,-0.00038709046614744035
-0.020499915482113537,-0.43484136886664165,-0.011144849789576552,-1.5846452971159797,0.02486784196163473,1.1323573535016858,-0.000401591425154557
-0.020502192482288923,-0.4348205163272373,-0.011228439716106943,-1.5846605170415555,0.02532103729680023,1.132282332269118,-0.0004080028921617582
-0.02050428971355135,-0.43479864517004824,-0.011311969756027372,-1.5846734000803462,0.025777109109105942,1.1322067118432013,-0.0004140549304261268
-0.020507285789378556,-0.43477521597925256,-0.0113972375984674,-1.5846840661146542,0.026232701304933208,1.1321309115392888,-0.00042016696438353264
-0.02051106082746754,-0.4347497494438044,-0.011484183138650905,-1.5846928145775299,0.026694525373387644,1.1320545720377204,-0.00042573958251899404
-0.020514536323423652,-0.43472188613496093,-0.011572207292312144,-1.584699585582363,0.027159896823546758,1.1319808690741533,-0.0004315519652604482
-0.020521247441646805,-0.43465884909661895,-0.01175197064203057,-1.5847095924276293,0.02810712994370368,1.1318278305331908,-0.00044233777278853835
-0.02052418352178097,-0.4346248139762912,-0.011841013413476504,-1.5847121091924108,0.028588416527712955,1.1317443603798802,-0.00044749096648812986
-0.020526340748736438,-0.43458987990231557,-0.011930056184922436,-1.5847131278101954,0.029073154325785125,1.1316507636080835,-0.000452464391274766
-0.020528437979998863,-0.4345533880128995,-0.012016642187280033,-1.5847137270035443,0.02956335709881114,1.131549257222283,-0.0004586363118421309
-0.02053071498017425,-0.4345147987831379,-0.012102748878591798,-1.5847138468858473,0.030055669102238187,1.131448709567657,-0.00046564708128123567
-0.020533231635872545,-0.43447393255320094,-0.012188675800990608,-1.5847135472346312,0.030553062282716564,1.1313476826019855,-0.00047307727515621023
-0.020538145174049224,-0.4343854889751038,-0.012361488267879889,-1.5847115698856717,0.0315664484429789,1.1311254351021134,-0.0004886567385579811
-0.020540362287614647,-0.43433911001364134,-0.0124505311484089,-1.5847095924276293,0.032084454485522114,1.1310029562946056,-0.0004973453148236437
-0.020542099981051165,-0.43429285093448183,-0.012537596461812324,-1.584707135658541,0.03260888421237729,1.1308807172517037,-0.0005059140087863098
-0.02054347813666177,-0.43424563312414766,-0.012623223732995183,-1.5847045591162328,0.03313964163043556,1.1307572198264109,-0.0005141831606161024
-0.020544916287965412,-0.4341981755492074,-0.012708251810829218,-1.5847014431581026,0.03367452151618705,1.1306327036742505,-0.0005230515057947204
-0.02054665398140193,-0.43415077796996027,-0.01279573665775159,-1.5846973685778807,0.03421294878364322,1.1305032740929966,-0.0005315004265374684
-0.02055102821283974,-0.4340533461643815,-0.012969507964898683,-1.5846877212704402,0.03530188344044031,1.1302637693228963,-0.0005479187388109791
-0.020553365208708162,-0.4340030723916101,-0.013057532118559922,-1.5846820287700019,0.03585248664835717,1.1301629221261376,-0.0005561878906407717
-0.020555462439970588,-0.4339505815052733,-0.013144417772133469,-1.5846754973116086,0.036406061977457244,1.1300642319381682,-0.0005643970467775271
-0.020557499675539978,-0.4338970718920688,-0.013230344585449201,-1.5846679472354306,0.036963280506837934,1.1299584113166228,-0.0005730257364332305
-0.0205597167891054,-0.43384170481220774,-0.01331717035241279,-1.584659019003642,0.03752318335260819,1.1298511524346906,-0.0005823135060477184
-0.020562053675890746,-0.4337843602743042,-0.013403157161421559,-1.5846497912297206,0.038087209015137506,1.1297413770061433,-0.0005935786246216375
-0.020567626403109284,-0.4336643981224946,-0.013582620859924033,-1.584633552577277,0.039223217645321835,1.1295143358503976,-0.0006185657399408926
-0.020570802247849445,-0.4335997432730191,-0.013674240282761301,-1.5846268413499707,0.03979731001791081,1.1293922165807155,-0.0006318683122503587
-0.020573858210286608,-0.4335323918898492,-0.013767597399035087,-1.5846206095427933,0.04036823845763177,1.1292678801974683,-0.0006456500865225753
-0.020576734403810817,-0.4334643814267206,-0.013860355321960047,-1.584614977038048,0.04094118030917782,1.1291420458853902,-0.0006606303565755209
-0.020580090017463932,-0.43339415385002655,-0.013952633824756101,-1.5846092245419163,0.04151613539801605,1.1290194473046624,-0.0006779476224968869
-0.02058428447998879,-0.4333225481177219,-0.014043893709767458,-1.5846039514659138,0.04209837706194844,1.1288942720725432,-0.0006977815441165505
-0.0205966880986504,-0.4331790969975897,-0.01423180632901268,-1.5845954427676443,0.043270146615841505,1.1286457791840443,-0.0007472763546261534
-0.020605436670609097,-0.4331059332316784,-0.014334331441681034,-1.5845905292294675,0.043857373638249285,1.128524738418757,-0.0007795737815173867
-0.0206149640957465,-0.43303121165032665,-0.014441829870052948,-1.5845857354645108,0.04444095746037645,1.128399023988982,-0.0008152868177547729
-0.020624791172099855,-0.4329532542285417,-0.014547770482984378,-1.5845808219263342,0.04502703396174131,1.1282762455302582,-0.0008549545519110218
-0.02063497778627912,-0.43287325957118733,-0.01465167364218026,-1.5845758485015475,0.04561569913545274,1.1281605978323594,-0.0008979180131104272
-0.02064654255606899,-0.4327883513756563,-0.014757794024024646,-1.584570156001109,0.04620532301852228,1.1280565147951676,-0.0009447763947018145
-0.020659545368079426,-0.4326971513772549,-0.014865651990222469,-1.584563624651799,0.04679552198758036,1.1279504544090162,-0.0009946307430373283
-0.02068950590818532,-0.43249797353035263,-0.01508993683474694,-1.5845456483059186,0.04796144329221584,1.1277293454092319,-0.0011012304359275425
-0.020706104098454862,-0.43238861752624125,-0.015202828221424438,-1.584532885040348,0.04854464366550634,1.1276095032488083,-0.001159413822702808
-0.02072258240642141,-0.432278422564175,-0.015315779494711893,-1.5845188036148599,0.049131583057653395,1.127491638328261,-0.001218675822955806
-0.020739120600997918,-0.43216295452610615,-0.015428431225866476,-1.584503343924678,0.0497240830687973,1.1273708973232726,-0.0012781774787317182
-0.020756797404745193,-0.4320431122565995,-0.015546356033023647,-1.5844873450368404,0.05031418639381237,1.1272453025576346,-0.0013398363614630956
-0.020775972137322993,-0.4319226109071341,-0.01567063242057806,-1.5844706269642679,0.05090534424676149,1.1271194682455565,-0.0014012554795884804
-0.020816718484956975,-0.43167783317011427,-0.01593015077212793,-1.5844311389990247,0.052103191463140304,1.1268904497408514,-0.001515525130959662
-0.020838170217710162,-0.4315524181733891,-0.016059940000290925,-1.584407829690532,0.05270278623769357,1.126777798009697,-0.0015632222523397107
-0.02086094032854707,-0.43142712316804993,-0.01619008865719675,-1.5843832021130386,0.05330333972160495,1.1266649665096293,-0.0015985757507511861
-0.02088418964134673,-0.43129907174240656,-0.016321855234319175,-1.584355398690805,0.05389814077483469,1.1265533335053426,-0.001623083445941534
-0.020908457790097243,-0.4311700015898954,-0.016458954774054145,-1.5843232210371336,0.05449332527690108,1.1264454155434516,-0.001642737598648242
-0.020933984103072286,-0.43103721639498827,-0.016597492356009682,-1.5842876278831992,0.055092920051454344,1.1263352804679954,-0.0016596354401337383
-0.02098659487171209,-0.430760260895214,-0.016877264053615088,-1.5842163218021106,0.05629930000801323,1.1261138120394683,-0.0016873788666742053
-0.021014398293945594,-0.43061189623690516,-0.017019217244916778,-1.5841798896902215,0.05691356340226488,1.126000141690529,-0.001699303174289987
-0.021042681027224928,-0.4304525060064622,-0.017162368822916118,-1.5841422593007177,0.057520348758803436,1.125896418191163,-0.0017089504817303857
-0.021071503176326205,-0.43028238996418416,-0.017307737405397802,-1.584103849839869,0.05812646286171167,1.1257914364184893,-0.001717459289083093
-0.021100984296303187,-0.43010394488346637,-0.017452926328049612,-1.584062504189803,0.058736891418530834,1.125684776729906,-0.0017244101719122386
-0.021130645294276204,-0.4299198073023101,-0.017601171213138585,-1.5840155260349917,0.05934731980081708,1.1255655936494413,-0.0017306418700064842
-0.021189487870093334,-0.429534933840645,-0.017911143215455873,-1.5839156974560178,0.06057297046124601,1.1253193178745078,-0.0017408284841857493
-0.02121681187219793,-0.42934180803200717,-0.01806771702990152,-1.5838651240320305,0.06118704221834579,1.125192225070956,-0.0017449630601006456
-0.021243536680953704,-0.42914544660110227,-0.01822566910904085,-1.5838129926835196,0.061802839582477016,1.125070645108013,-0.0017494571738414526
-0.021270561140925428,-0.42894644852311303,-0.0183899728776605,-1.5837581648013144,0.062417294788413465,1.124955716485766,-0.0017533519851503563
-0.021297525605204114,-0.4287475103317337,-0.018557692146543226,-1.5836978841832765,0.06303587246204312,1.1248505548350964,-0.0017580258678041188
-0.021323351569395108,-0.4285463551358721,-0.018728707033386027,-1.5836355662205865,0.0636625996015491,1.124755879449822,-0.001762579868154885
-0.021373146031120664,-0.4281222334735697,-0.019080803538947904,-1.5835009234499398,0.06491202688237796,1.124566948212792,-0.0017734855579859717
-0.021397893490917003,-0.42789651058682465,-0.019258230001880986,-1.5834282391041574,0.06553559008901594,1.124470894671907,-0.0017792978316443474
-0.021422760723933263,-0.4276676717419494,-0.01943535681359812,-1.583351659947066,0.06616020782358796,1.1243832899426816,-0.001785769403427664
-0.021447807834945553,-0.42743104327445636,-0.019615779352358406,-1.583266871524755,0.06678827712128874,1.1243035948274602,-0.0017925404082607761
-0.021472675067961813,-0.4271903401176584,-0.019797340282123307,-1.583178128404525,0.0674151958979466,1.1242249184391064,-0.0018005699045676544
-0.021497662183281068,-0.4269462214605973,-0.019979800165536063,-1.583085730019426,0.06804259411654998,1.1241458225172338,-0.0018108164053568783
-0.02155027295192087,-0.42644444191864284,-0.02035382782398003,-1.58289979474914,0.06929403480920393,1.1239695944409984,-0.0018376610964156465
-0.021577117533896562,-0.4261856426427448,-0.02054413732570363,-1.5828032019015164,0.06992440497445761,1.123882109703159,-0.0018562366356446223
-0.02160312337608359,-0.4259203717950634,-0.02073942025221387,-1.5827050511293688,0.07055122793253954,1.1238033133234193,-0.0018796058307472786
-0.021628230264622763,-0.42564731121568117,-0.02093626110324767,-1.5826037245124813,0.07118092701869583,1.1237326663222893,-0.0019090270641143035
-0.021652857842116107,-0.4253679589425116,-0.021136098139191747,-1.5824955667859844,0.07181033847459138,1.1236667530904232,-0.0019463580205682884
-0.02167754541530249,-0.42508405266899135,-0.021337133452750404,-1.5823811174747833,0.07243888703970475,1.123601259392076,-0.001993036524163642
-0.021728538263725696,-0.4245049150076838,-0.02174387807160455,-1.5821429309736836,0.07371304999935749,1.1234575085116447,-0.002113957298064939
-0.021755263072481466,-0.4242127395823337,-0.021949347612294053,-1.5820207518173917,0.0743577053354729,1.123382127741251,-0.0021889186440227043
-0.021782227536760155,-0.42391660934998165,-0.02215571599754833,-1.5818944380851847,0.07499785475505842,1.1233093835088588,-0.002269872141634879
-0.021811349227994305,-0.4236149664951872,-0.02236849584980981,-1.581760933814626,0.0756347444232,1.1232405940834682,-0.002355978723863567
-0.021842148726055013,-0.4233063726484805,-0.02258732784941874,-1.5816221564680644,0.07627460603799187,1.1231803733520407,-0.0024431041420431066
-0.02187264857289977,-0.42299292525929016,-0.022808197084597057,-1.5814802632724556,0.07691485127615334,1.123123568120876,-0.002536760800449766
-0.021931730804239814,-0.42234553747933107,-0.023263897207221943,-1.5811914434607586,0.07819668408520397,1.123011695351983,-0.0027488216861425024
-0.021961691344345707,-0.4220175292445237,-0.023492496287491185,-1.5810390641088379,0.07883510772322512,1.1229595041168623,-0.002866326959780725
-0.021992071308887466,-0.42168820274071567,-0.023722593405674033,-1.580875719071393,0.07947142213084525,1.1229113874619632,-0.00299210138524874
-0.02202227161359935,-0.4213523447785143,-0.023951612019462224,-1.5807067415292027,0.0801148311273418,1.1228684240007638,-0.003136451459028809
-0.02205193261157237,-0.42100594077339093,-0.02418170913764507,-1.5805357266423599,0.08076140405670637,1.1228336696957013,-0.003296081344994697
-0.022082372462724088,-0.4206525259988284,-0.02441887691187698,-1.5803620152218227,0.08140826461633166,1.1228064055802065,-0.0034723093121470515
-0.02214504996324016,-0.41992987722169556,-0.0249131063776535,-1.5799988932532099,0.08270361552403777,1.1227713517330111,-0.0038413036591944233
-0.02217471096121318,-0.4195677139842574,-0.025170587384550903,-1.579812838209704,0.08335594070955106,1.1227626631567453,-0.0040064462766858135
-0.022203533001231377,-0.41919859986399016,-0.025432382845359237,-1.579620191712112,0.0840083618881732,1.1227561318074353,-0.004156908166257132
-0.02223181573451071,-0.41882073717176416,-0.025699211617564163,-1.5794256877478636,0.08465742767130839,1.1227509786137355,-0.0043189349347014
-0.02225979892565717,-0.4184346654324845,-0.02596693912525079,-1.5792296258590917,0.08530361697730338,1.1227485817312572,-0.004495822090895617
-0.022287602347890675,-0.418040264545682,-0.026234726628630453,-1.579028650432143,0.08594798485769096,1.1227463047310817,-0.004681937021011284
-0.022342370234402865,-0.4172537997679454,-0.026781806518569692,-1.5785979373157542,0.08725081380311017,1.1227442673864294,-0.005075918483377911
-0.022369934001113458,-0.4168515492628321,-0.027064574292002302,-1.5783733530381798,0.08790774107279511,1.1227429491174288,-0.005287799600157692
-0.022397198116608095,-0.41643857294588366,-0.027349858830216286,-1.578150985656005,0.0885669693845659,1.1227429491174288,-0.005522690374214219
-0.02242422246749674,-0.41602116229272135,-0.027639457604175046,-1.5779242441514751,0.0892271564056948,1.1227429491174288,-0.005770524182754301
-0.022450048540770814,-0.4156035120931192,-0.02792887660922085,-1.577688035108418,0.08988398768227089,1.1227427094619058,-0.00602135395803851
-0.02247497566039703,-0.41518831866260536,-0.028218954803308514,-1.5774411001444426,0.09054494177560604,1.1227428293442088,-0.006252769345222003
-0.022525009886728578,-0.4143301881568711,-0.028813671928017846,-1.5769458520608814,0.09186924647387225,1.1227425895796028,-0.0067308200451648495
-0.022550296544180705,-0.4138904270354739,-0.029121906236898615,-1.5766968198656437,0.09253576118620425,1.12274240981069,-0.006990098741191806
-0.022574025277109274,-0.4134521639519903,-0.029432597205784648,-1.5764344852071797,0.09320726125701166,1.1227409118818594,-0.007257406933525641
-0.022595237354339544,-0.4130145000618555,-0.029745025977190274,-1.576159387283145,0.09388144581874155,1.1227397133860786,-0.007537837820172908
-0.022614292313697427,-0.412568387250978,-0.03005391936602983,-1.5758824917790637,0.09456425893922744,1.122738335230468,-0.00783570563687838
-0.02263244842849053,-0.41210825301030535,-0.0303646703306089,-1.5756024803168522,0.09525378337428604,1.1227362379992056,-0.008135491025016404
-0.02266929985573253,-0.4111852279995727,-0.03099965449190638,-1.5750230431134118,0.09665037699217599,1.1227295867675924,-0.008721220031327198
-0.02268727620161268,-0.4107208991872921,-0.031323348381885927,-1.5747198422250108,0.09735255680964079,1.122723295073805,-0.009031311915947483
-0.02270453358092409,-0.4102415302183486,-0.031652015805735186,-1.5744126865296078,0.09805924254363547,1.122716104535453,-0.009352848688054641
-0.022721071775500597,-0.40975664840879655,-0.0319842783896774,-1.5741033736072492,0.09877455683638617,1.1227109512326703,-0.009685830347648675
-0.02273641158337945,-0.40927236590167637,-0.03231588189366083,-1.573785911524447,0.09949687007397028,1.1227064572280125,-0.010032833546120919
-0.02275013347104171,-0.4087890421257309,-0.03264946285568677,-1.5734557461717673,0.10022052546974917,1.1226998658830094,-0.010388105896422955
-0.02277571977970979,-0.4077956097693912,-0.033316205137136616,-1.572771866393309,0.10168518954646077,1.1226877618064806,-0.011109676060078032
-0.022786985007366787,-0.4072925120675192,-0.033654699637339226,-1.5724263012370574,0.10243089595560814,1.1226848256172635,-0.01149604745057365
-0.022797171621546052,-0.40678989367669294,-0.03399085714167342,-1.5720691713110158,0.10317967030451466,1.1226820693060422,-0.011890867761812017
-0.022806758933293415,-0.4062848185167784,-0.034329770957228826,-1.571698679035138,0.10393716920528606,1.1226784141502562,-0.012298031805102035
-0.02281652612303681,-0.40577063535616226,-0.03466988326856496,-1.571320576687389,0.10470070816699983,1.1226777549612144,-0.012714184075873668
-0.02282611354386725,-0.4052507596951077,-0.03501119396659875,-1.5709416954864615,0.10547814885073867,1.1226772756501686,-0.013131354964429996
-0.022840914045007238,-0.4042068737970837,-0.03570004727892672,-1.570161522402512,0.10705440997795448,1.1226774554190815,-0.013999552092957446
-0.02284858389440513,-0.4036781896774605,-0.03605100528440091,-1.5697520813590466,0.10784901196062939,1.1226774554190815,-0.014443867214705416
-0.022856373626106014,-0.40314435236413765,-0.036405438785831204,-1.5693310755457914,0.10865137978581106,1.1226774554190815,-0.014908915102637827
-0.022863504277848112,-0.4026033245124628,-0.03676388687179032,-1.5689076129634478,0.1094641019513131,1.1226771557678654,-0.015378337112924969
-0.02286967619841548,-0.4020581021982631,-0.037122275180222555,-1.5684794764984504,0.11028257672202972,1.1226766164611266,-0.015855489077386115
-0.022874889278725028,-0.40151012357284216,-0.03748006418622289,-1.5680474452221442,0.11110335218576632,1.1226763768056038,-0.016326349238976905
-0.022883937392816602,-0.40038462509724715,-0.038196121618352466,-1.5671394603680744,0.11277903459755859,1.1226746989987773,-0.017311033132440957
-0.022887173124166722,-0.39982022794138655,-0.03855762577583183,-1.5666688998576994,0.11363355774771175,1.1226745791164743,-0.017808618102787516
-0.022888611275470365,-0.39924840070073403,-0.03891871050887532,-1.5661873736618006,0.11449661363804499,1.1226729613053408,-0.018305663875478287
-0.022889210468819192,-0.3986614133120326,-0.0392791959394869,-1.5656993161165913,0.11537059912922006,1.1226711636162112,-0.01882494034318402
-0.022890229086603885,-0.3980673553763651,-0.039638482983400836,-1.5652021505706808,0.11625513077240031,1.1226694259227745,-0.019364709812468205
-0.022891247704388582,-0.3974771322563135,-0.040001724834316715,-1.5646966558772473,0.117141292378569,1.122667688229338,-0.01990280147492583
-0.022892266431256355,-0.3962666057028845,-0.040740252726067246,-1.5636691285139699,0.11893576224831785,1.1226660703091216,-0.020986774640625042
-0.022892506086779268,-0.3956523541986884,-0.041114160502208216,-1.5631450582813073,0.11984953548685187,1.1226655909980756,-0.021549733645182007
-0.022892506086779268,-0.39503648488335874,-0.04148573139156385,-1.5626066669676337,0.12076580140462358,1.1226651115779467,-0.02211185369178415
-0.022892506086779268,-0.39440497621801734,-0.041852988045174705,-1.562061624422347,0.12168954536010838,1.1226646921535108,-0.022680565083389528
-0.022892506086779268,-0.3937728682502441,-0.042224199396704416,-1.5615167017593632,0.12261808321144965,1.1226648120358138,-0.023280195746275534
-0.02289280573799522,-0.3931435765893851,-0.042600384173020776,-1.5609615924822002,0.12355333202829775,1.1226643326156849,-0.02389067221238267
-0.022893105280128095,-0.39184035210872414,-0.04336797376031242,-1.5598205744298135,0.12543849863075818,1.1226633738845102,-0.025134514919570684
-0.02289322516243109,-0.39118757137045945,-0.04375122930176092,-1.55925587773182,0.1263958942795507,1.1226630743423773,-0.025782262237355687
-0.02289328504904105,-0.3905275400981497,-0.0441325073851669,-1.5586803952262984,0.1273617270244803,1.1226630743423773,-0.026430369092966602
-0.022893524704563965,-0.38985264854717305,-0.04451845935122665,-1.5580831014501977,0.1283266008855188,1.1226633738845102,-0.027092737252061717
-0.022893944238082914,-0.38918021365620165,-0.04491130231350558,-1.5574741830176972,0.12929674790982637,1.1226636735357263,-0.027775957950561193
-0.022895382280303477,-0.3885092768031439,-0.04531019720496581,-1.5568617292026306,0.13027494823236851,1.1226632541112902,-0.028462114729194833
-0.022895741818129388,-0.3871331882077876,-0.046102354483140845,-1.5556193246467462,0.13224726401130293,1.122663793308946,-0.029868163864656995
-0.022895861700432386,-0.3864433162776749,-0.04649591641198852,-1.5549950662972838,0.1332471318983769,1.122663793308946,-0.030587996334875557
-0.022895741818129388,-0.3857465534604262,-0.046891995105617576,-1.554365475094292,0.1342494924646885,1.1226644524979879,-0.0313243671087537
-0.02289568193151943,-0.38504092229799874,-0.047291728845949545,-1.5537241992392072,0.13525923542467025,1.1226644524979879,-0.032075897812514666
-0.022895562049216434,-0.3843315160974824,-0.04769128292645163,-1.5530740550389437,0.13628278393903526,1.1226651115779467,-0.03283653651697717
-0.02289568193151943,-0.3836168368209634,-0.048091795738128454,-1.5524166004180253,0.13731639951252575,1.1226655909980756,-0.03360658287335715
-0.022895741818129388,-0.38216746468647594,-0.04891079770736225,-1.5510711314427337,0.13940222976068062,1.1226658905402085,-0.03518023150448212
-0.02289568193151943,-0.3814329515974204,-0.04932551171774716,-1.550389049353405,0.14045463659609567,1.1226667294981634,-0.035978740363054394
-0.022895562049216434,-0.38068849154970846,-0.04973848814377864,-1.5496934849228539,0.14151222042713796,1.1226665497292503,-0.036788754213889656
-0.02289568193151943,-0.3799455894265201,-0.05015224353207189,-1.548986835142642,0.14257315982820012,1.1226670890359893,-0.03760380126703844
-0.02289568193151943,-0.37919321976480436,-0.05056779650041162,-1.548268500710337,0.14364004347162873,1.1226667294981634,-0.03842424138757588
-0.022895741818129388,-0.37842521075307683,-0.05098646542688155,-1.5475402792059856,0.14471574748549815,1.1226669092670762,-0.039266612551912335
-0.02289604146934534,-0.37765869967017984,-0.05141004789152816,-1.5468025902721898,0.14580171002111203,1.1226670890359893,-0.04010532845137973
-0.022895861700432386,-0.3761021885360633,-0.05226284532556679,-1.5452882636370109,0.14799252217284023,1.1226670890359893,-0.04180666897032218
-0.022895861700432386,-0.3753132669892384,-0.05268852491239275,-1.5445077310152358,0.14908759270915561,1.1226673885781222,-0.04267354793893206
-0.022895562049216434,-0.3745103239035353,-0.0531159423017383,-1.5437307337760264,0.15018947037861965,1.122667568347035,-0.04356763102734355
-0.022895741818129388,-0.37371151539374703,-0.05354635576691106,-1.5429581707639481,0.15130093531619782,1.1226699053429035,-0.044469983158501744
-0.022895562049216434,-0.372904677496735,-0.05397778784986851,-1.5421693091037332,0.15241939902407647,1.1226697854606005,-0.045396783207323405
-0.022895562049216434,-0.3720824997918441,-0.05441023865969374,-1.5413696018584633,0.15354045140430167,1.1226706243094722,-0.04633382975693429
-0.02289568193151943,-0.3704381442729793,-0.05528107232622248,-1.53977869595711,0.15579751241471124,1.1226814701126935,-0.04825496089757734
-0.022895442275996516,-0.3696059597228221,-0.055718736216357256,-1.5389836025988008,0.15693332923321077,1.1226826684993911,-0.04923706813965006
-0.02289526250708356,-0.3687737151769719,-0.05615759849318968,-1.5381656792430447,0.15807643262680443,1.1226872224997417,-0.05023577357199232
-0.022895322393693518,-0.36793074481928656,-0.0565992171903264,-1.537332056541584,0.15922826039773008,1.1226915967311797,-0.05125035800986923
-0.022895142624780564,-0.36709298754191083,-0.05703891842511364,-1.5364974751089484,0.16037749967084208,1.1226991468073575,-0.05228345810036516
-0.02289526250708356,-0.3662530731466627,-0.05748227481568688,-1.5356628936763128,0.16153507987244936,1.1227101722704085,-0.053323389300470314
-0.022894723200344694,-0.36454663932063064,-0.05837497974848775,-1.5339869598062086,0.1638648132513193,1.1227226957713732,-0.055434949825139954
-0.022894842973564613,-0.36368850892397947,-0.0588242084084124,-1.5331474648353962,0.16503773332625526,1.1227327026166396,-0.05650298388052841
-0.022894723200344694,-0.36282636383371636,-0.059271939030423444,-1.532293468905577,0.16620748946832323,1.1227359383479896,-0.05757533238982779
-0.022894723200344694,-0.361961222558543,-0.05972080826160526,-1.5314276086638348,0.16738098480378066,1.1227371368437704,-0.05866284082900999
-0.022895022742477567,-0.36108577500505357,-0.06017578930857832,-1.5305552769593924,0.16856512210981922,1.122738155461555,-0.05975628153323665
-0.022895022742477567,-0.3602092487290033,-0.06063598354494401,-1.5296729384096839,0.16975203972535619,1.122738035579252,-0.06085469566224994
-0.022894962855867607,-0.35843798028458274,-0.061554574328545844,-1.5278781808878577,0.17213421605945836,1.1227388745372069,-0.0630850198429485
-0.022895022742477567,-0.35754275869608354,-0.06201225190921324,-1.5269653424913043,0.1733312962036309,1.1227388745372069,-0.06422058505041973
-0.022895322393693518,-0.35663962749358047,-0.06247526245249318,-1.526041178980484,0.17452828070376047,1.1227391141927299,-0.06537508533494586
-0.022895562049216434,-0.3557378745557711,-0.06294534365182218,-1.5250990391237833,0.17572785370170366,1.122737975692642,-0.06653887338908648
-0.022895562049216434,-0.3548206619277799,-0.06341620392249606,-1.5241507873422084,0.176937013967761,1.1227391141927299,-0.0677150651709718
-0.02289568193151943,-0.35390722422879456,-0.06388838235308748,-1.5232102654057245,0.1781500092457837,1.1227406721172533,-0.06889694945329555
-0.022895921587042345,-0.35205452297571604,-0.06484712029097447,-1.521309267728834,0.18057782157650237,1.1227424698063828,-0.0713035615968395
-0.02289604146934534,-0.35112083203975825,-0.06533230164265942,-1.520358019871432,0.18179206319414395,1.1227504991936066,-0.07252703107566899
-0.022895921587042345,-0.3501818680277979,-0.06581664414547263,-1.5194171982837321,0.18301224905415198,1.122767756463835,-0.07375876970632826
-0.02289604146934534,-0.34924667905392653,-0.06630536077064056,-1.5184645122750264,0.18422284747151293,1.1227835158052328,-0.07499955645107911
-0.022896221238258296,-0.3483032808148353,-0.0667984517363294,-1.5174903146469576,0.1854415951802173,1.1228023309999846,-0.07625035004109627
-0.022896341011478215,-0.34735994257143715,-0.0672939395844966,-1.5165116229051478,0.1866623563007468,1.122819768039126,-0.07749982525302972
-0.02289688031821708,-0.34547368550907664,-0.06828779125618907,-1.5145626284556615,0.18910512488142456,1.122868184345241,-0.08002598012394743
-0.022896640662694166,-0.3445194415758474,-0.06878771322240405,-1.5135898688698133,0.19033748668189326,1.1228914936537338,-0.0812942106440228
-0.022896640662694166,-0.34356220167587403,-0.06928877368870673,-1.512606023934304,0.19157186189418707,1.122923191887276,-0.08257622315653654
-0.022896640662694166,-0.3426056807424694,-0.06978749715914097,-1.5116094757289171,0.19280825034377305,1.1229564481544252,-0.08386794286310063
-0.022896580776084207,-0.34164526488867275,-0.07028867750774664,-1.5106013627537405,0.19404626875634748,1.122993958770709,-0.08517739915093889
-0.022896580776084207,-0.34067741895008424,-0.07079201497422469,-1.5095751535503807,0.19528716329699625,1.1230312896180799,-0.0865011766288713
-0.02289676054499716,-0.3387318400008608,-0.07181277133266896,-1.5075058974069517,0.19777154105064038,1.1231098462332136,-0.08918402508745459
-0.02289646089378121,-0.33775027195644386,-0.07232587587980734,-1.5064541018949238,0.19902106432457808,1.1231441211181474,-0.09054405490836324
-0.022896281124868256,-0.3367649889787141,-0.0728410777672912,-1.5053876856506687,0.20028362625522575,1.1231813919698252,-0.09191960419698066
-0.022895861700432386,-0.33577664992946404,-0.07335615966338901,-1.504313299796717,0.20154762651171,1.1232205803929356,-0.09329605243924591
-0.022895442275996516,-0.3347759072615524,-0.07386854524395864,-1.5032418502410654,0.2028209264060476,1.1232621058119145,-0.09467993076630307
-0.02289568193151943,-0.3337836134053004,-0.07438350736683652,-1.502176932034724,0.20409537682142817,1.123320109429777,-0.09606824332049108
-0.022895562049216434,-0.3317659493036434,-0.07542457695794628,-1.5000500915887856,0.20665175586443527,1.1234534339314228,-0.09885559424070213
-0.022895562049216434,-0.33074621156298384,-0.07595421980874424,-1.4989959591899724,0.2079363688084514,1.123544873585347,-0.10025367387555045
-0.022895741818129388,-0.3297321664318458,-0.07648901585324179,-1.4979319997148057,0.20922606327858473,1.1236441029709723,-0.1016515738505689
-0.022895142624780564,-0.3287171624604499,-0.07702471074230412,-1.4968542583562838,0.21052055129550865,1.1237634658203501,-0.10306727029347146
-0.022894842973564613,-0.32769946206444284,-0.07756184367358701,-1.4957707046150206,0.2118144640519111,1.1238952323974725,-0.10449441173294396
-0.022894543431431737,-0.3266826605130005,-0.07810191279408714,-1.4946848139869717,0.21311537557861407,1.1240347887062958,-0.10592568774833137
-0.022893584700257003,-0.32463911056054257,-0.07918211092169737,-1.4925138118022192,0.21572515628621153,1.1243365514433932,-0.10882077686152035
-0.022894124006995867,-0.323615418012881,-0.07972745300911702,-1.4914172551398623,0.21703853155816882,1.1245087648260168,-0.11027763918557583
-0.02289364458686696,-0.3225885497295624,-0.08027962620614588,-1.4902985277781837,0.218342415206055,1.124674326867944,-0.11174690512829293
-0.022893944238082914,-0.32156024329494015,-0.08083473548330893,-1.4891681157644119,0.21965348943592647,1.124840907527656,-0.11321760922231368
-0.022893824355779916,-0.320535172591668,-0.08138924556712314,-1.4880290151743747,0.22096533056347126,1.1250127613724537,-0.11469071008972972
-0.022893944238082914,-0.31949985538760667,-0.08194753068902634,-1.486869661238282,0.22227889747258042,1.1251687959892436,-0.11616243291061823
-0.022893944238082914,-0.3174198134366496,-0.08307950062732156,-1.4845154202078548,0.22491303006109928,1.125463068645856,-0.119110012910144
-0.022894004124692873,-0.3163777851143651,-0.08364881121227576,-1.4833461793087985,0.22623570497090997,1.1256171856912134,-0.12058083688646774
-0.022894004124692873,-0.3153168216059426,-0.0842221964865349,-1.482181732065616,0.22756096855306723,1.1257768155771792,-0.12205783267427578
-0.022893105280128095,-0.31425993289590815,-0.08479863772323121,-1.4810297484367883,0.2288846981653449,1.1259497479263716,-0.12354183923152291
-0.022892565973389227,-0.31319825031183385,-0.08537400034644978,-1.4798857344176575,0.23021820685742153,1.1261579140007554,-0.1250356728651234
-0.022891607242214493,-0.31213321233227265,-0.08594948285197135,-1.4787330317131777,0.23156216570839444,1.1263581703520522,-0.1265395133439902
-0.02288933024203911,-0.30999067254062934,-0.08710889667467415,-1.4764134251055103,0.23426130081597576,1.1267947556287092,-0.12957044361452344
-0.02288891081760324,-0.30892347733411263,-0.08769144983624479,-1.4752549100182892,0.23561657289116011,1.1270205385111474,-0.13110118867105897
-0.022888611275470365,-0.307852327320594,-0.08827909630490505,-1.4740924402331492,0.23697807666443874,1.1272538113649873,-0.13263457026559577
-0.022888191741951416,-0.3067774022689863,-0.08887039792935131,-1.4729244576074008,0.23834667502659376,1.1274818112519076,-0.13416777209121963
-0.022887592548602592,-0.3057035558308564,-0.08946145989827464,-1.471754317972863,0.23972150543590887,1.1277232933709673,-0.1357022321901511
-0.022887173124166722,-0.304631447086163,-0.09005330093854284,-1.4705710555349285,0.2411063065621748,1.1279736438352057,-0.1372324979356408
-0.022886334275294982,-0.3024853120253437,-0.09124351415022328,-1.4681567734329035,0.24388175723849712,1.1284933398364305,-0.14027996640075055
-0.022886334275294982,-0.30141218466286557,-0.0918439837710641,-1.466922518146546,0.24527403640247614,1.1287351214976231,-0.1418065169947612
-0.022886334275294982,-0.3003428322293934,-0.09244732958542914,-1.4656724436321806,0.24667015075295348,1.1289709711119376,-0.14333462551329545
-0.022886334275294982,-0.29927042383348407,-0.09305193367310179,-1.4644219496933795,0.2480653062195398,1.129201787196689,-0.14486956503235582
-0.02288603462407903,-0.29819010593265394,-0.09365623821864155,-1.4631742120657993,0.24946496777718888,1.1294371573908746,-0.14640941808959287
-0.022885794968556115,-0.29710367599786636,-0.09425832575969897,-1.4619384587415283,0.25086136975792694,1.1296816955814546,-0.14794633506669577
-0.022885495317340163,-0.2949069076264497,-0.09546819312408612,-1.4595062004027062,0.2536705679461329,1.1302372242830534,-0.15102903725699707
-0.02288561519964316,-0.29380489822826045,-0.09607950843906499,-1.4582799146169625,0.25507368106691075,1.1305415636715421,-0.15256775181414645
-0.022885495317340163,-0.2926971364430227,-0.09669346029204516,-1.4570460187593477,0.25648273825552215,1.1308354767903288,-0.15409837698837897
-0.02288573497286308,-0.29157990701017444,-0.09731376383450564,-1.455812242784036,0.2578924665232309,1.1311190235260231,-0.15562402873782485
-0.022885495317340163,-0.2904680706447148,-0.09793946011710557,-1.4545899716919042,0.2593053587238076,1.131412277564851,-0.15714290937335457
-0.022885435430730204,-0.28935233924978015,-0.09856617523565633,-1.4533682399065113,0.2607181551058085,1.1317224292269983,-0.15865214270144387
-0.022885016006294334,-0.28711668210646907,-0.09982158271263422,-1.450874502453871,0.26357481071623834,1.1323682591915167,-0.1616481990027776
-0.02288531554842721,-0.2860043662117975,-0.10045878387841405,-1.4496057925136665,0.26501013737902024,1.1326921927370193,-0.16314724571668765
-0.022885435430730204,-0.2848967841954727,-0.10109970030475597,-1.4483253380347594,0.2664482443513006,1.132990000776198,-0.16464731115746548
-0.022885794968556115,-0.2837894418346708,-0.10174708808471507,-1.4470185181758395,0.2678853926142228,1.1332795995501566,-0.1661512115229422
-0.02288651393512486,-0.28268299820935067,-0.10240526178128533,-1.445698276080473,0.26932282850740574,1.1335615883613275,-0.16765265522841372
-0.022887592548602592,-0.28158044961350553,-0.10306900798690798,-1.4443860034857205,0.270756717018884,1.1338700623257312,-0.1691577539805881
-0.022889749775558056,-0.2793679818963842,-0.10442280600063931,-1.4417954934165433,0.27363772468476816,1.1345406995275729,-0.1721609408245809
-0.02289004931769093,-0.27825039303479304,-0.10510776439257531,-1.4405124022905518,0.2750679699959658,1.134888301919394,-0.17364956137787182
-0.022890348968906883,-0.2771339425642066,-0.10579793586482085,-1.4392261954245964,0.27649984527015187,1.1352293130752948,-0.17512967301472698
-0.022890528737819837,-0.2760123988956135,-0.10649350029537198,-1.4379414266008614,0.2779298029510888,1.135580570731985,-0.17659600287730992
-0.0228904687421268,-0.27489540922737127,-0.10718804610813841,-1.4366523434322986,0.2793542958316048,1.1359617889287812,-0.1780528652013654
-0.022890648511039755,-0.2737667947936461,-0.10788630696330079,-1.435358107070036,0.2807878968873552,1.1363691327409842,-0.1794966047220244
-0.022890648511039755,-0.27148931268922327,-0.10929043863641348,-1.4327810792329982,0.28364110110918933,1.1371781278649515,-0.18237090118241894
-0.022890948162255707,-0.2703520696749255,-0.10999786737888735,-1.4314836071393857,0.28507700303249267,1.1375667762556225,-0.18380655142924415
-0.022890948162255707,-0.26921123139145164,-0.11071176769314453,-1.4301649828551528,0.2865079194227877,1.1379680680295612,-0.18523489125541434
-0.022891247704388582,-0.26807434791497975,-0.11143166004997306,-1.4288231092581205,0.2879455471276554,1.1383905718807301,-0.18665298468987834
-0.022891427473301536,-0.2669377640897238,-0.11215946202080546,-1.4274568476300344,0.2893819283183714,1.1388104391938976,-0.18806538551482083
-0.022891427473301536,-0.26580573415573555,-0.11289163833215875,-1.4260784820345027,0.29081600864153445,1.1392062182363107,-0.18947550933958793
-0.022891427473301536,-0.2635501233175849,-0.11436042485474694,-1.4233356525000147,0.29369979661691703,1.1400022703257946,-0.19226981103354504
-0.022891906893430444,-0.26241707476581194,-0.11510027101549812,-1.4219871874488959,0.2951553526929271,1.1404316650640995,-0.19364925524255444
-0.02289286562460518,-0.26128480517630076,-0.11584898552142792,-1.4206562794283044,0.2966062108661896,1.1408867061067658,-0.1950120413746843
-0.022895022742477567,-0.26015103754887603,-0.11660548964997552,-1.4193184204158007,0.2980558226998332,1.141347919069999,-0.1963657795018057
-0.022896580776084207,-0.25901948703501665,-0.11737355865739607,-1.4179752285497675,0.2995035171147606,1.141822734038592,-0.19769854509813667
-0.02289765928047886,-0.25788404160076533,-0.1181461816651674,-1.4166244864984734,0.3009474723362985,1.1423232551981557,-0.19901531180662999
-0.02289879778056655,-0.25560110676051007,-0.11970215349254508,-1.4139508059272017,0.30385053101555115,1.143351142099259,-0.20162919117999298
-0.02289879778056655,-0.2544529580563812,-0.12048442369867372,-1.412609950947954,0.30531394857811095,1.143872935331746,-0.20292935969821674
-0.022898678007346632,-0.25330211292764104,-0.12126597493823361,-1.4112484231982148,0.30677679105468225,1.1443858601099715,-0.20422761075409104
-0.022898977549479508,-0.2521489907987255,-0.12205387786727384,-1.4098724543760783,0.3082407840522965,1.1449072936955498,-0.2055183717294804
-0.022899396973915378,-0.2510055159772504,-0.12284981018353786,-1.4084722774008844,0.3097078448151369,1.1454167431959852,-0.20680373974656419
-0.022899936280654242,-0.24986383884490482,-0.12365245361802502,-1.407045735263844,0.31117404286172806,1.1459144480486347,-0.20808671099025267
-0.022900715242916026,-0.24758641662709197,-0.12528152921562097,-1.4041575969244011,0.3141120953924832,1.1469050041023672,-0.21063072221566445
-0.02290089501182898,-0.24644869430174834,-0.1261096391855563,-1.402746933901978,0.31558318297897386,1.1474103789134975,-0.21188786738607884
-0.022900595469696108,-0.24531115163623457,-0.12694026581118992,-1.401359220541139,0.3170551334562467,1.147945234844605,-0.2131299125132204
-0.022900235931870197,-0.24416929462589299,-0.12777149163017237,-1.3999698293734733,0.31853619193422106,1.1485024413530305,-0.21436183091279262
-0.022900235931870197,-0.24302941507359388,-0.12860493456272026,-1.3985775021256732,0.32001581226089176,1.1490695948201124,-0.2155756530841817
-0.0229001160495672,-0.2419007408623418,-0.1294400553020947,-1.3971844559113047,0.3214966789271813,1.149673959252262,-0.21677773082595103
-0.02289999627634728,-0.23963554249427763,-0.13112240074828924,-1.394391831806008,0.32446972548397185,1.1509266104180187,-0.2191283167005921
-0.02289957674282833,-0.23849578282428152,-0.13196842706841166,-1.3929875802505922,0.3259726431636299,1.151558958041315,-0.2202941420993852
-0.0228992173140855,-0.23735626280980834,-0.13281379430857534,-1.3915714043875609,0.3274825596135884,1.1521976572450083,-0.22144678480817181
-0.02289837835613068,-0.23621704244655112,-0.13365622546860484,-1.3901475586751315,0.3289925718821229,1.1528262898259087,-0.22259828901687073
-0.0228975993938689,-0.2350821962056486,-0.13449542078820112,-1.3886970480405563,0.33050948727691487,1.1534566599911624,-0.22374464014095316
-0.02289688031821708,-0.23394435399800198,-0.13533503553223328,-1.3872189137526605,0.3320340723465718,1.1540888278455455,-0.22488410015973329
-0.02289795893169481,-0.23167256439401762,-0.13703032401291138,-1.384259529218739,0.3350834344721033,1.1553337491662112,-0.22713449791757442
-0.022897899045084852,-0.2305372388420693,-0.13789444656121697,-1.3828059026260335,0.33661875750545023,1.1559771222525586,-0.22825262608590438
-0.02289795893169481,-0.2293958612518566,-0.138764381492264,-1.381360545185158,0.3381438220170526,1.1566243902592976,-0.22936422290492414
-0.02289879778056655,-0.228254363888424,-0.13964600096632085,-1.3799132103953229,0.33967435132907603,1.1572875373806546,-0.2304621577228916
-0.02289891766286955,-0.2271186188029567,-0.14053391213416497,-1.3784706692613615,0.3412024837804376,1.1579799259664656,-0.23155511900698936
-0.0228992173140855,-0.2259927607895358,-0.1414304519916648,-1.3770251320515732,0.3427231381940861,1.158695503978466,-0.23263310002103416
-0.02290089501182898,-0.22373744960260109,-0.1432571475116394,-1.3741199162108149,0.3457643508537413,1.1601851431495418,-0.23475604554658072
-0.022902213280829628,-0.22261518685835624,-0.14418784237176996,-1.372663832849021,0.3472903742492348,1.160931880197429,-0.23580544417613022
-0.0229041307431791,-0.22149855661885678,-0.14512836441733695,-1.3711918104859997,0.34881563039798913,1.1616973725534583,-0.23683668669088664
-0.02290449028100501,-0.22038306498852814,-0.14607320069864874,-1.3696886890827848,0.3503474060496313,1.1624586105603527,-0.23785528593145855
-0.022903471663220314,-0.2192706892072466,-0.14701300355948083,-1.3681572250596805,0.3518852219367488,1.163190786762623,-0.23886208063763456
-0.022903471663220314,-0.21816304730431185,-0.14794903149130703,-1.366600893694477,0.35342735192871144,1.1639365650793354,-0.23987139210859196
-0.02290089501182898,-0.21594908154927683,-0.14980856374491172,-1.3635117799280854,0.35652944463973596,1.1654013370173948,-0.24187587352024248
-0.0229017339697838,-0.21482993465407912,-0.15074435191213192,-1.3619967342172545,0.3580976522941843,1.166163473759771,-0.24287194241458346
-0.02290083512521902,-0.21370695294326553,-0.15168571280657067,-1.3604903770826895,0.3596595324319624,1.1669029603826961,-0.24386968900666792
-0.02290131454534793,-0.21258331193432697,-0.15263600193279797,-1.3589918096798252,0.3612255350374338,1.1677062630062254,-0.24485790828269804
-0.022900715242916026,-0.21147303349339094,-0.1535891672525495,-1.3574909652767857,0.3627934550616214,1.1685303581734656,-0.2458440901049926
-0.0228992173140855,-0.2103628748256748,-0.15454281199242995,-1.3559854469910924,0.3643616628906027,1.1693577490677491,-0.24682553815802347
-0.02289927720069546,-0.2081426772634625,-0.1564629245152883,-1.3529404951816808,0.36752894975784156,1.1710757476635711,-0.24878280175933976
-0.02289927720069546,-0.2070430048611416,-0.1574352645676176,-1.351406634167015,0.36911738682551803,1.171935376098136,-0.24974825092453298
-0.022900235931870197,-0.2059510021991355,-0.15841659284742854,-1.3498530592221158,0.3707196297966437,1.1727836794184336,-0.2507044723158047
-0.022900295818480156,-0.20486025802860316,-0.15940690924563802,-1.348260715278542,0.3723248447144196,1.1736192195822441,-0.25164954825263947
-0.02290053558308615,-0.20377616498060097,-0.16040177964419827,-1.3466466798376089,0.3739299638136196,1.1744430152073515,-0.25258425791546496
-0.022901434318567847,-0.20270549438721122,-0.1614062973501989,-1.3450343820901123,0.37553987680867607,1.1752565643316697,-0.2535073428128076
-0.022903831201046224,-0.20054821409012097,-0.16344595260043102,-1.3418616185105805,0.3787453212857525,1.176913922771628,-0.25532475045408465
-0.022904969701133916,-0.1994587880795062,-0.1644803709599276,-1.3402943814555457,0.38034756425687816,1.177761686785187,-0.25621092403757534
-0.022906168087831566,-0.1983758935272847,-0.16552323813108383,-1.3387321778209906,0.38194951959774304,1.1786421078725462,-0.25708858870463025
-0.022906168087831566,-0.19729263943723732,-0.1665660455247132,-1.337169255219867,0.3835490780779462,1.1795191134596423,-0.2579512731016322
-0.022904969701133916,-0.19621705519658783,-0.16760483811564758,-1.3356055535473983,0.38515870326820895,1.180431712200673,-0.2588113809563259
-0.02290365143213327,-0.1951333217954946,-0.16863584097488107,-1.3340229766844849,0.3867738890774686,1.1813390378657007,-0.25967005065971593
-0.02290293235648145,-0.1929783783851897,-0.1707000638069135,-1.3308149194931513,0.39005104738818025,1.1831747813906839,-0.2613592272155197
-0.02290245304543562,-0.19191346017884836,-0.17173945559119672,-1.3291712830499383,0.3917079383635151,1.1840767740930993,-0.2621926101523745
-0.02290209350760971,-0.19084842209020403,-0.17278256252695895,-1.3274866606035685,0.3933749920420184,1.1849719956815985,-0.2630225776980494
-0.02290203351191667,-0.1897950087670426,-0.17382722749632784,-1.3257931697029368,0.39505067427927776,1.18585121838226,-0.26384703240311563
-0.02290209350760971,-0.1887452504905841,-0.17487662612587734,-1.324122508908835,0.3967265483282219,1.1867334970453587,-0.264660461754214
-0.022902333163132622,-0.18768962005385725,-0.1759323764449072,-1.322479471658971,0.398414310687366,1.1876356694076038,-0.26547047549596614
-0.02290335178091732,-0.18557392506235582,-0.17807335820294384,-1.3192330050067889,0.40178206956314744,1.1895136574272176,-0.2670747437471558
-0.022905089583436913,-0.18452518551276506,-0.17916014756647422,-1.317610340985283,0.40346254552173033,1.190482522092674,-0.2678709756055527
-0.022905988318918612,-0.18348004123235037,-0.1802555657287434,-1.3159868980015157,0.405142158589531,1.1914912942568925,-0.26865648165211453
-0.022906767281180393,-0.1824381326832858,-0.18135829420258454,-1.3143521297943983,0.4068229221783746,1.1924968905763709,-0.269428445470844
-0.022907905781268084,-0.18139874089900257,-0.18246845287030067,-1.3126936329634353,0.4085085753071177,1.1935091980140724,-0.2701927993267855
-0.022910063008223548,-0.18036150623259176,-0.18358682069415355,-1.3110149426730267,0.41019739236872876,1.1945331302172568,-0.2709476856441996
-0.022911441163834156,-0.17830657117017382,-0.18584003475890892,-1.307570975980769,0.4136087738293016,1.196523709972332,-0.2724070047373434
-0.022910722088182334,-0.1772868934252073,-0.18696487404546203,-1.305827750614105,0.4153249148930173,1.1975109704081044,-0.2731179089757734
-0.022909943125920554,-0.17627308794959215,-0.18808533920966042,-1.3041109505140636,0.4170550533228011,1.198493197423397,-0.2738062828679725
-0.02290964358378768,-0.17524717839744827,-0.18920532495372988,-1.3024074528772487,0.41878902693908315,1.1995029882054002,-0.27449651433591105
-0.022909403819181686,-0.1742137786557364,-0.1903295051603242,-1.3007177970103991,0.4205376691750636,1.2005164941388826,-0.2751685296933635
-0.022909343932571727,-0.1731831353343288,-0.19146129532970646,-1.2990367098375122,0.4222898587927487,1.2015619979571233,-0.27581651677575447
-0.022909104277048814,-0.1711433603108768,-0.19374357109000295,-1.2956559000658996,0.42580698905456826,1.2037451042184044,-0.27708169133339267
-0.022909403819181686,-0.17012332302808433,-0.19488836418047872,-1.29394317454608,0.42756521873319575,1.204850409343637,-0.277691328841545
-0.022909943125920554,-0.16910634170772904,-0.19604160619169725,-1.2922175660965534,0.4293379252198369,1.205956673090961,-0.27829329650029944
-0.022909823352700635,-0.16809726989229457,-0.19720119978331302,-1.2904737414274572,0.4311235747191449,1.2070532297533179,-0.27890059712166637
-0.022910542319269377,-0.1670980252622965,-0.19836678552658318,-1.2886963610581623,0.4329047181273902,1.2081436743817173,-0.27947679859375674
-0.022911141621701284,-0.16610315486373625,-0.19953980146372835,-1.2868914769178499,0.43470302300910446,1.2092178803576732,-0.2800418548295761
-0.022912160239485977,-0.16511601420118385,-0.20072192540157502,-1.2851020523586363,0.43650056081861244,1.2102827386774044,-0.28060445429630715
-0.02291809239544735,-0.16313759840924724,-0.20311918977981144,-1.281590314967856,0.4400921850490327,1.2124531416688082,-0.28169783500484075
-0.022920609160228724,-0.162146383166473,-0.20433355136702247,-1.2798529018748501,0.44188617565136895,1.2135589261050865,-0.2822268786622899
-0.022923844891578844,-0.16115714538174125,-0.20555762003920078,-1.278110036046012,0.44368150841189996,1.2146948508503836,-0.28275891828648314
-0.022925402816102405,-0.1601718024083184,-0.20678420547616047,-1.2763731024822182,0.44548077200297237,1.2158462951724727,-0.2832764570607524
-0.02292414443371172,-0.15919113331754933,-0.20800863368616468,-1.2746282591953375,0.447277638733383,1.2170270409547088,-0.28377530041348964
-0.022923605126972852,-0.15820345334825808,-0.20923000604281483,-1.2728653797850498,0.449093392718827,1.2182201304689964,-0.2842698894170921
-0.022922586509188155,-0.15625146282294436,-0.21167167203355428,-1.2692559709331677,0.4527737960887096,1.2206086463843573,-0.2852406715448978
-0.022921807546926375,-0.15528361677527278,-0.21289082716755592,-1.2674056065668744,0.4546423764782225,1.2217825012794572,-0.285706378512789
-0.022920249622402813,-0.15431565095438127,-0.21410782518368518,-1.2655578787385826,0.45652562548743375,1.222956176296561,-0.28616639298024177
-0.02291887135770913,-0.1533477450200997,-0.2153275796201187,-1.2637414298284804,0.45841079191536127,1.2241144516191762,-0.2866241304475191
-0.02291929089122808,-0.15237456600981555,-0.2165561425151209,-1.261943077037478,0.46030506651852326,1.2252897445564968,-0.28707048291391957
-0.02292000985779682,-0.1513970128771767,-0.2177936335328286,-1.2601534727093515,0.46219914931000045,1.2264724078010822,-0.28750760749731546
-0.022923605126972852,-0.14946245928192117,-0.2203054072179591,-1.2565819340115791,0.4659533755693864,1.2289227024814775,-0.288327568197724
-0.022928279009626615,-0.14850000619255516,-0.22158891765930339,-1.2547938277213662,0.4678185043957705,1.230168342768712,-0.2887165761262209
-0.022932593354454467,-0.14754630156606477,-0.222886150097393,-1.252987205778534,0.46968545482229496,1.2314469996675725,-0.28908485139761647
-0.022937387010328148,-0.1465963120910534,-0.22419692476331496,-1.2511502638668535,0.4715536517629712,1.2327180466036454,-0.2894483927906652
-0.022940383086155352,-0.14565920565483256,-0.2255160283585936,-1.24928515888603,0.47343440809294474,1.2339657841221423,-0.2898020473298337
-0.022941042166114135,-0.14473234571940094,-0.2268321958737381,-1.2473963251722784,0.47532571040039057,1.2352345540580396,-0.29013472933821177
-0.02293894493485171,-0.14288575639119672,-0.2294518276341495,-1.2436635387774067,0.47913937838530923,1.2377399161670797,-0.29076384123015786
-0.02293774654815406,-0.14195673922880964,-0.23076008553529012,-1.2418256380254682,0.48106145643252135,1.239019891334941,-0.29103270734701525
-0.022936727930369362,-0.14102041175485056,-0.23206870297425664,-1.2400006203123202,0.4829887114753607,1.2403038212007211,-0.2912898888117798
-0.022936667934676327,-0.14008576208771806,-0.2333822938380098,-1.2381786586706922,0.484912802759865,1.2416308944056968,-0.29155018612559147
-0.0229375667792411,-0.13914937461806595,-0.23470049869780674,-1.2363525024574566,0.48684235884479016,1.242970431115944,-0.2918009561233488
-0.02293774654815406,-0.1382086130260591,-0.23603170636961415,-1.2345139426255591,0.4887653956013604,1.244309848052971,-0.2920225444341789
-0.022940922392894216,-0.1363311643131842,-0.2387229438623302,-1.2307697112341176,0.4926151121402485,1.2469802928928928,-0.29242096001459333
-0.022943199393069602,-0.13540424449114263,-0.2400842319565465,-1.228858407060745,0.4945494617719643,1.2482999357949103,-0.29259730786404864
-0.022947753393420367,-0.13447474801770973,-0.24145774390051142,-1.2269425489961043,0.4964795931174109,1.2495966888128711,-0.29274291621113635
-0.02295440462503356,-0.13355525828046003,-0.24284485806800177,-1.225048621975263,0.4984182572030377,1.2509054261341406,-0.2928637171027346
-0.022962134470124487,-0.13263492980342168,-0.2442456342365444,-1.2231798019520437,0.5003549080513722,1.2522185376868478,-0.29296869898449135
-0.022968246394998816,-0.1317076503344711,-0.24565330129222318,-1.2213212883162237,0.502287052634111,1.2535348848618222,-0.29305085086880117
-0.022977114740177433,-0.12988317192806192,-0.2484815184423712,-1.2176160655789796,0.5061518214160671,1.2562986269314076,-0.2931977773758064
-0.022981548858225204,-0.1289815987591655,-0.2499053042681906,-1.2157604282457668,0.5080763919679839,1.2577158814079168,-0.2932666866834998
-0.022985503665227145,-0.12808338109483913,-0.25133442305662257,-1.2138838783774568,0.510006044046018,1.2591709460428429,-0.29333218049093013
-0.02298933858992609,-0.12718756031299114,-0.25276414103840333,-1.2119793453180001,0.5119464339132092,1.2606173820971962,-0.29338802699092004
-0.022992754090189162,-0.12630156649841343,-0.25419541705379073,-1.2100418557516937,0.5138939183692767,1.2620552493485038,-0.29343236860773003
-0.022999465317495395,-0.1254195275999207,-0.2556368796833574,-1.2080833936545965,0.5158488810375902,1.2634850872125876,-0.29346478591692426
-0.02301528443642008,-0.12365532981154922,-0.258529751682981,-1.204216383913514,0.5197847880435942,1.2662850815160662,-0.293491690494593
-0.023026669546380073,-0.12275405618478569,-0.2599863143558205,-1.2023181426569278,0.5217384083791801,1.2676827417264787,-0.29349085164572125
-0.023042608547607753,-0.12185188371345737,-0.261458037176709,-1.200437158561487,0.5236878104284967,1.2690958616270729,-0.29349031233898243
-0.02306292178027325,-0.1209468949352148,-0.2629474964697886,-1.1985658218825694,0.5256207220834418,1.270539781025728,-0.2934891738388947
-0.023085631895417118,-0.12004310465275296,-0.2644560707179191,-1.1966950244013077,0.5275304322039754,1.2720058112370949,-0.2934876758009811
-0.023107802703822126,-0.11912990671837363,-0.26597279423557646,-1.1948184146463876,0.5294413888386609,1.2734763355622027,-0.29348575833863166
-0.02314794985810728,-0.11732849796493423,-0.26902277946546754,-1.1910134832124726,0.5332504549139409,1.276492345449293,-0.29347904722040846
-0.023164967472812697,-0.11643429499421976,-0.27055670036674323,-1.1890639493471642,0.5351600692158986,1.2779636487366626,-0.29347683010684306
-0.023180127511778597,-0.1155505782889005,-0.272090021965587,-1.18712022797368,0.5370993085620468,1.2794622761352197,-0.2934767102245401
-0.023193429975004985,-0.11466236746984043,-0.2736239428668627,-1.1852004149929547,0.5390359592358483,1.280934658036067,-0.2934767102245401
-0.023208110702925056,-0.11377775191995639,-0.27516691188222997,-1.1833013348874968,0.5409711719328792,1.2824214209045355,-0.29347683010684306
-0.023226206822025124,-0.11288762352946377,-0.2767195280959545,-1.181404291908525,0.5429100278301908,1.2838944618853414,-0.2934767102245401
-0.023273005207923473,-0.1111258826192637,-0.2798637092909912,-1.1776057121640902,0.5467522661568329,1.2868666695714437,-0.2934767102245401
-0.023305662281723698,-0.11024905680108055,-0.28146522123095963,-1.1757030965669832,0.5486574703608367,1.2883776405929694,-0.29347659045132013
-0.02334233394005274,-0.10937181155846153,-0.28308572813459293,-1.173785980119952,0.5505559632502679,1.2898810017607905,-0.29347647056901716
-0.02338086328320438,-0.10849941985832613,-0.2847208557704532,-1.1718519059448254,0.5524460193926277,1.291404256627758,-0.29347647056901716
-0.023416516323748724,-0.10763403903671294,-0.2863567024819654,-1.1698967995704646,0.5543459504333625,1.2929127109935854,-0.2934760511445813
-0.023445578128372918,-0.10677213349288969,-0.287986796697346,-1.1679445692805448,0.5562606460869045,1.2944156526278876,-0.29347575149336536
-0.02348956020735702,-0.10502812916396378,-0.291229907735875,-1.1641265150432332,0.5600968443526042,1.2974573088193389,-0.2934664038371409
-0.023504540477409963,-0.10414573072764517,-0.2928431642145462,-1.1622441529012648,0.5620227572372488,1.2989961432587913,-0.2934567565297005
-0.023523295785551894,-0.10325859852206283,-0.2944666671940067,-1.160358614805473,0.5639347683998683,1.300540789971902,-0.2934462103776953
-0.023548582443004024,-0.10237476193444058,-0.2961096444481779,-1.1584799078192904,0.5658393973433506,1.302092327681232,-0.2934336868767307
-0.023581299403414205,-0.10148583203972868,-0.2977725755062717,-1.1565947293704077,0.5677321379766331,1.3036457229663014,-0.29341972522446247
-0.023619109670914018,-0.10059420572040553,-0.29945420198589745,-1.154691514579952,0.5696174002231366,1.305176168371621,-0.29340306714758296
-0.023715702518537923,-0.09881676535541763,-0.3028783346474525,-1.1508353505330073,0.5733643400819612,1.3081801940644855,-0.29335782679529127
-0.023767534324915948,-0.09794035896167035,-0.3046120924755892,-1.1488856968944792,0.5752440418840008,1.3096533549275946,-0.2933258289105329
-0.023816130290860774,-0.09705556364287335,-0.30634087687893924,-1.146957315219791,0.57713160517259,1.3111223812147887,-0.2932861011806836
-0.023858494558711352,-0.09617112786190227,-0.3080609727060236,-1.1450762113511301,0.5790271261153709,1.312583198345846,-0.2932387634880464
-0.02389546586825635,-0.095276145928926,-0.30977837199941366,-1.1432202144800914,0.5809324261379506,1.3140917725939767,-0.29318153883244585
-0.023931298677713653,-0.09438487914742877,-0.3114921161370177,-1.1413613414155286,0.5828325488158372,1.3156099940404644,-0.29311478664262486
-0.024004402447931904,-0.09261582781657364,-0.31492991090870814,-1.1376339477607964,0.586624549410757,1.3187490221508846,-0.2929400567133861
-0.02404892383365487,-0.09173528684691146,-0.3166736755821111,-1.1357560197368757,0.5885100994620541,1.3203249476731018,-0.29282872325123216
-0.0241006357577299,-0.09085450622172637,-0.31843505706356834,-1.1338610142116394,0.5903828981378362,1.321909561880668,-0.29271241636429157
-0.0241589990225012,-0.08997564316797382,-0.320220766471303,-1.1319421000754788,0.5922594360070077,1.3234443815174253,-0.29258849940548
-0.024222335602976056,-0.08910816500601512,-0.32202648956957025,-1.1300039513201303,0.5941288792873027,1.3249416905378988,-0.2924575118997024
-0.024290825486233583,-0.08824691865123373,-0.3238525857871129,-1.1280786257169626,0.595994871004469,1.3264123347453096,-0.29233497309650147
-0.024409888684395364,-0.0864951844772169,-0.32750471844467144,-1.1243181556730772,0.5997336615719504,1.329309341320848,-0.29210104105361967
-0.02445686694828975,-0.08560835192285052,-0.3293217066615126,-1.1224736036895255,0.6015975440587157,1.3307784276037353,-0.29198629209120264
-0.024498811682621382,-0.08472799072210128,-0.331130785373433,-1.1206338453618474,0.6034619059874264,1.3322744183552082,-0.2918588998546011
-0.024537221143470022,-0.08383588498264924,-0.3329350703203966,-1.1187900124539474,0.6053231999763782,1.3337952764487804,-0.2917248562773033
-0.024577428184365136,-0.08293652881823517,-0.33474828360823183,-1.1169383299277367,0.6071782620927026,1.3353463946245914,-0.291600220351923
-0.024620990838913368,-0.0820345361158198,-0.3365710243212045,-1.1150871865991818,0.6090374468512533,1.3368891238753526,-0.29148427289372525
-0.024726212376192973,-0.0802292325510715,-0.3402633040239651,-1.1113239002483821,0.6127696220972707,1.339956965677904,-0.29125926908263206
-0.0247875716077084,-0.07932789892861493,-0.3421412320478858,-1.1094254193362731,0.614638873565881,1.3414313848143207,-0.29113972646434133
-0.024854683226272243,-0.07843609284037882,-0.3440379154890315,-1.1075611533134047,0.6165092755555341,1.3428815959067628,-0.29101389215226336
-0.024919817495876653,-0.07752762867526322,-0.34593399962774535,-1.1057327200999936,0.6183896482621382,1.3442963936141838,-0.29087475526787593
-0.024982195345176775,-0.07661407120305798,-0.347826788039416,-1.1039255588504227,0.620263789270648,1.345706337670038,-0.29072315476913385
-0.02503995930751617,-0.07569883603310927,-0.3497147829042961,-1.1021240902103733,0.6221295893506624,1.3471310822270322,-0.29055915065173016
-0.02515075357201432,-0.07389718751506388,-0.3534778294904896,-1.0985239092414958,0.6258514102563595,1.3500645808010696,-0.29024887910728
-0.02520995557657428,-0.07299130000133962,-0.3553655845907637,-1.0966999701418254,0.6277067600029447,1.3515750725115496,-0.2901093227984567
-0.02527622834626638,-0.07209080533683786,-0.3572670616877831,-1.0948657844322829,0.6295621097495299,1.3530802911460271,-0.28998744329338066
-0.025350530503182284,-0.07119702179055924,-0.3591881928284261,-1.0930151205238567,0.6314237871873183,1.3545923407810305,-0.28986616287257033
-0.02543388088327284,-0.07030695339575967,-0.3611258022770357,-1.0911386306512398,0.6332880532974531,1.3560894700325912,-0.28973050148413904
-0.02552292365471877,-0.0694216187702238,-0.36307989003361185,-1.089275503128459,0.6351597014521922,1.3575322509311585,-0.2895885482928373
-0.025696335314956877,-0.06763327282448788,-0.3669938180428956,-1.0856445226615208,0.6389177627235436,1.3604155955056447,-0.2893204612473248
-0.025776030430178364,-0.0667255277350241,-0.36894185387029044,-1.0838676814898818,0.6408053260121328,1.3618257193304117,-0.2892070904405184
-0.02585213027622382,-0.06581610483873376,-0.37088431697046675,-1.082090181238284,0.6426988335430885,1.363246389307184,-0.28910120982328
-0.025927091622181587,-0.06491201490505596,-0.37282504237720654,-1.0803137596001637,0.6445932039648264,1.364671613175224,-0.2889985050507818
-0.026008644313142586,-0.06399965581954838,-0.3747758944024326,-1.0785299676547786,0.6464800961743183,1.3661105591490923,-0.2888977176315499
-0.026098226391327386,-0.06307746976677052,-0.3767359143149701,-1.0767375470197378,0.6483728368076008,1.3675572348589686,-0.2887968704347912
-0.026292730355575843,-0.06123255824539286,-0.38069064866758084,-1.073138444664338,0.6521703020284085,1.3704477099761136,-0.2885788773931371
-0.026399329939382977,-0.060304320154350624,-0.38269590904149314,-1.0713181008338437,0.6540701372505674,1.3718522012961354,-0.2884701205823745
-0.026500716551963642,-0.05938536972383981,-0.3847042853735357,-1.06952046700941,0.6559880926555534,1.3732497416242448,-0.288368314545358
-0.02659677009284868,-0.05846294401553903,-0.38671080423892173,-1.0677585463302972,0.6579032677510409,1.3746552515620512,-0.2882798709672609
-0.026688868826731778,-0.05753003193275996,-0.3887181019574865,-1.0660246686198576,0.6598216066048634,1.3760383509268466,-0.2881981985030799
-0.02677311794230403,-0.0565992171903264,-0.39071790959556635,-1.0643022959016808,0.6617515461386253,1.377424746018685,-0.28812677253968827
-0.026946589598235173,-0.0547563430136012,-0.3947249549565179,-1.060847303746372,0.6656186157881343,1.380246132168307,-0.28801406081284064
-0.02704150463903252,-0.05384206657482722,-0.396749749709917,-1.0591063553798832,0.6675517192547642,1.381649305110245,-0.2879710374650313
-0.0271446289450497,-0.052926172106753565,-0.3987903036956308,-1.0573466517052525,0.6694920131288464,1.3830397148956954,-0.28793748165574934
-0.027255183444941856,-0.05201908609724857,-0.40084631726244335,-1.0555808361057475,0.6714438120388249,1.3844230539160136,-0.2879115358092553
-0.027371370449579432,-0.051117512928352156,-0.4029177906285209,-1.0538051335432792,0.673403568253929,1.3857717586226554,-0.28789188165654866
-0.027489594798869473,-0.05021725791937331,-0.4049902226166901,-1.052014630370588,0.6753877725175963,1.387105662828157,-0.2878754033485821
-0.02771843364374471,-0.04841944443510994,-0.4091074629397079,-1.0485000766728931,0.6793818749095142,1.389756573288592,-0.28785479046470064
-0.027827849643549174,-0.04750936234977774,-0.4111423244249832,-1.046794481804816,0.6814069212739415,1.3910968291835741,-0.28784963727100105
-0.02793480876518222,-0.046588194914784574,-0.41317460936795036,-1.045102488942098,0.6834326388919992,1.3924456536634358,-0.2878475400397386
-0.02804793991646571,-0.04566942436226979,-0.4152147438201452,-1.0434058823015022,0.6854528915351031,1.3938048445263895,-0.2878470007329998
-0.028170178959367655,-0.04474999462071314,-0.4172708173826508,-1.041715447363308,0.6874757328505535,1.3951793751972223,-0.2878470007329998
-0.02830356345670668,-0.04382936649245884,-0.41934540659777547,-1.0400190803782352,0.6894891785350417,1.3965397045602639,-0.2878471805019127
-0.028588128810185763,-0.041964021856112685,-0.423545338111842,-1.0366298216858796,0.6935320806819112,1.3992091906690107,-0.2878473602708257
-0.028723131118658308,-0.04103164918915556,-0.42564395560202806,-1.034940525356856,0.695574767961753,1.4005091195317116,-0.2878475400397386
-0.028852440926692393,-0.04009418310602572,-0.4277381390832494,-1.033226901101555,0.6976279052259583,1.4017630888573858,-0.2878478995775645
-0.02897581846968203,-0.03916930062863661,-0.42982165642107956,-1.0315077041190353,0.699710763527463,1.4029824238693835,-0.28784873842643627
-0.02909254489014155,-0.038245376773339154,-0.43189576621607534,-1.0298033076376556,0.7018089617022962,1.4042204541938301,-0.28784891819534925
-0.029212806584084063,-0.037320853724692876,-0.4339725725447654,-1.0281200033512032,0.7039154049870489,1.4054444629793983,-0.28784963727100105
-0.0294840095877268,-0.03545101508368899,-0.4381796945971839,-1.0248099005764135,0.7081487126069341,1.4079580343536584,-0.28785149484674055
-0.029640104091126617,-0.03453218453548117,-0.4403137854680845,-1.0231660843642874,0.7102600452570533,1.409221650986773,-0.2878519742668695
-0.029808662208881082,-0.0336120357182727,-0.4424615982266473,-1.02153113649734,0.712382595312808,1.4105073186550727,-0.28785299288465416
-0.029979377444507935,-0.03268871116540714,-0.44460947098090314,-1.0199078731734026,0.71450802167117,1.4117927466678497,-0.28785479046470064
-0.03014589832669301,-0.03176436788567382,-0.44674979354989797,-1.0182929389969877,0.7166400631764628,1.4130681078396672,-0.2878558690781784
-0.03030666671274659,-0.030844338950768345,-0.4488775927270112,-1.0166814202117531,0.7187908001251043,1.414356831470404,-0.2878569476916561
-0.030621252602024602,-0.02901290966153002,-0.4531117392394015,-1.0133813841688395,0.7231470178451723,1.4168766945384514,-0.28786054296083213
-0.030785676143864172,-0.02810762134115458,-0.4552362426894716,-1.0117041919163445,0.7253571966938794,1.4181079538580648,-0.28786281996100754
-0.03095896803088236,-0.027201194520691446,-0.45737249067824454,-1.0100453354384726,0.7275697722287153,1.4193366364172038,-0.2878668945412294
-0.031136214724902488,-0.026288955317486856,-0.45952042331911036,-1.0084078709158268,0.7297940442620664,1.4205230746998783,-0.28787096923053435
-0.03131250268774788,-0.02536359331088576,-0.46167974096085307,-1.0067940152438069,0.7320312594826174,1.421690937443324,-0.2878765418486698
-0.0314867533059408,-0.024434696030801666,-0.4638363621779846,-1.0051995740689705,0.7342792123177925,1.422860897418032,-0.2878821744624983
-0.0318400483072834,-0.022567434041189115,-0.4681375004266357,-1.002076604842081,0.7388206583407162,1.4251906307532687,-0.2878939788878111
-0.03201753465682645,-0.0216291889957975,-0.47027266991101396,-1.0005304600910567,0.7411192327055162,1.426370058266504,-0.28789739438807416
-0.03219669881319605,-0.02068177617217747,-0.47240352505056443,-0.9989836561509906,0.7434375570415986,1.4275609905538362,-0.2878988325393778
-0.03238341304574362,-0.019746227660480183,-0.4745440273884722,-0.9974358335931397,0.745777644760789,1.4287497657232962,-0.28789925196381366
-0.03257719793434025,-0.01881259661113237,-0.4766998696433419,-0.9958740493830205,0.748117061400882,1.429934945732663,-0.2878997313839426
-0.03277853289911486,-0.017886156100136618,-0.4788706921682645,-0.9942763724768341,0.7504667363881864,1.4311023889425898,-0.2879000309260754
-0.03319114978732042,-0.016044719965631987,-0.4832339687197759,-0.9911072041664782,0.7551932189022809,1.433340982275118,-0.2879020682707279
-0.03338948867626782,-0.015129185144467318,-0.4854085661737044,-0.9895700475338524,0.7575730941942972,1.4344316665590404,-0.28790236792194385
-0.03358225494707976,-0.014196273170771326,-0.4875726175847109,-0.9880543426339797,0.7599659124989805,1.4355040149592566,-0.2879032067708156
-0.033777118449154125,-0.013268694159687882,-0.4897276808773188,-0.9865477458438918,0.7623739746838836,1.4365857111247806,-0.2879032067708156
-0.03398097006962703,-0.012354117960614874,-0.4918861595611067,-0.9850496578611565,0.7647981436397888,1.4376671676347814,-0.28790350642203155
-0.034197105644624706,-0.01144361655992988,-0.49405524439259285,-0.9835473753068132,0.7672349679781001,1.4387655217681017,-0.28790368619094453
-0.034664190768126504,-0.009619317922433658,-0.49843835475664083,-0.9805344812687701,0.772142747789976,1.4409143532535322,-0.2879042253886003
-0.03490567288718627,-0.008709895026143319,-0.5006501633938034,-0.9790313598655551,0.774609005360793,1.4419733393039122,-0.28790440515751325
-0.03514499788837364,-0.007803288327684151,-0.5028559198836186,-0.9775407619633047,0.7770907946166236,1.443003383431971,-0.2879048246910322
-0.0353754545443824,-0.006886495124128797,-0.5050482540279044,-0.9760489056786638,0.7795809248009493,1.444028693790766,-0.2879058433088169
-0.0355986007797361,-0.005966645958136278,-0.5072283044358316,-0.9745465033511006,0.7820795877254552,1.4450317733454632,-0.2879059631911199
-0.03581695335921612,-0.005052009981536388,-0.509395651464798,-0.9730507522551506,0.7845987676934498,1.4460137608143158,-0.28790626273325276
-0.03627828609566951,-0.0032129107338170985,-0.5137429890150818,-0.9701154559919835,0.789671929669257,1.44797863437842,-0.2879067421533817
-0.03653073379117031,-0.0022882679119508994,-0.5159404763530672,-0.9686754915094135,0.7922210223117029,1.4489547494688384,-0.2879067421533817
-0.03679558521441581,-0.0013558952449937737,-0.5181593556462788,-0.9672466722631143,0.7947741416032661,1.449908094557503,-0.2879067421533817
-0.037065649717970856,-0.00043604596991817705,-0.5203922563692857,-0.9658286388243434,0.7973383823073559,1.450855447603596,-0.2879067421533817
-0.037333616990263475,0.0004835634314683487,-0.52261976424307,-0.9644194138441411,0.7999191132312844,1.4517832662702024,-0.2879068619266016
-0.037595232573075774,0.0014149774763338163,-0.5248333105736691,-0.9630266072852953,0.8025142251446505,1.452702815894062,-0.28790698180890456
-0.03809773108159901,0.0032761875367650745,-0.5292076125882315,-0.9602999564075578,0.8077575631802454,1.4545291517671277,-0.2879081801956022
-0.03835287531079415,0.0041947783203669054,-0.5313914979208576,-0.9589302792792088,0.8104028171812908,1.455449660122162,-0.2879081801956022
-0.03862347912108806,0.005107796485833274,-0.5335870079098836,-0.9575429255652786,0.8130499887755854,1.456345720559533,-0.28790877938895104
-0.038910920668091355,0.0060135043397276655,-0.5358032505560109,-0.956130884169079,0.8156987899838026,1.4572314147228946,-0.2879094984646029
-0.039209028358485894,0.006903992158963118,-0.5380391474639279,-0.9547014658385141,0.8183598631255894,1.4580884066194582,-0.2879109366159065
-0.039512708557932825,0.007789446557718897,-0.5402862494947259,-0.9532843911309179,0.8210300444426106,1.458911483277997,-0.28791309373377894
-0.040103291215810334,0.00958246638610858,-0.5447428831625111,-0.9505418012519528,0.8264097150330006,1.4604838734176482,-0.2879243589614359
-0.0403871374936376,0.010492908009266694,-0.5469463626521509,-0.9492240758122846,0.8291206426322061,1.4612422951176283,-0.28793382649996335
-0.04066882676267555,0.011404128485603508,-0.5491369591030001,-0.9479215104115825,0.8318453759603276,1.4620119220495724,-0.2879440730007526
-0.04096238034363625,0.012312772419632067,-0.5513303718607636,-0.9466183458175316,0.8345862160594512,1.4627964693649596,-0.2879551583504135
-0.041266120538776214,0.013216802466699899,-0.5535382256909244,-0.9453136231898739,0.8373265768911622,1.4635767622221287,-0.28796726242694226
-0.04158454135275318,0.014122390438291294,-0.5557686696448427,-0.9440195067099145,0.8400682798810679,1.464368020655739,-0.28798056499925173
-0.04225218258785088,0.015941535773004847,-0.5602734798541369,-0.941459496487582,0.8455372090528659,1.465871321827867,-0.2880081885434892
-0.042578513015831716,0.016856531396513726,-0.5625192637250174,-0.9401998945480793,0.8482794873032932,1.4665936110671738,-0.2880246668514558
-0.04290310575037604,0.017777519062593936,-0.5647504867502806,-0.9389547934585005,0.8510337498570292,1.4672716785719737,-0.28804312261746484
-0.04322757860261737,0.01870264130458904,-0.5669654111274073,-0.9377153849784434,0.8538019141327904,1.4679308707772456,-0.2880637355013463
-0.043551871685945744,0.01961805635253379,-0.5691713473861354,-0.9364668085019917,0.8565891571262038,1.4685913214739912,-0.28808524712070943
-0.04388659114805937,0.020534250362740317,-0.5713836952209538,-0.9352048695666205,0.8594000810959741,1.4692124638653234,-0.28810741792911443
-0.04458635004113535,0.02233697738518036,-0.5758546500788332,-0.932730187073338,0.86505404658441,1.4704382702309382,-0.28815481561744466
-0.044951269698877784,0.02323753193629208,-0.5781220054556867,-0.9315117509059051,0.8678940203378493,1.4710029669289317,-0.2881826789262881
-0.04532577666836758,0.024126761373136844,-0.5803953529841946,-0.9303185416183974,0.8707446360618698,1.4715601734373571,-0.2882113211973934
-0.04569968455359163,0.025019286537024767,-0.5826546790829074,-0.929139114105162,0.8735984155442252,1.4721291245935686,-0.28824170116193515
-0.046071554985080136,0.02591133238986686,-0.5849006426136176,-0.9279716108995424,0.8764575640084258,1.472682915601731,-0.2882742983491254
-0.046436175100689696,0.026801640440189355,-0.5871300679497514,-0.9268172903839292,0.8793273544432074,1.4732322724918456,-0.2883105505830186
-0.04715846433999659,0.028573747733481644,-0.5915749570788338,-0.9245418455150758,0.885124651256739,1.4743435696596494,-0.2883891670847623
-0.047546333768405814,0.029453569627492,-0.5938225984163706,-0.9234173057706555,0.8880416116580166,1.4749072476307752,-0.2884269173565691
-0.04795277873604401,0.030331893483588758,-0.5960940284825291,-0.9222914477572347,0.8909748704674483,1.475441564364227,-0.28846191131715465
-0.04836677377986018,0.031203446225769326,-0.5983775027386063,-0.9211726605089459,0.89392739998075,1.4759534705246675,-0.28849474815986786
-0.04877507632323789,0.032075897812514666,-0.6006563629986397,-0.9200613633411421,0.896897762046618,1.4764494376838806,-0.2885277646624109
-0.049170375945522087,0.03294966766826066,-0.6029145504881818,-0.9189606122162604,0.8998948728540692,1.476914904996249,-0.28856215942964764
-0.04996139472360942,0.03472183484816291,-0.607363274541963,-0.916774270223629,0.9059372231448258,1.4777782484732096,-0.2886419144314791
-0.05035825237950026,0.03560651039373998,-0.6095731057210831,-0.9156947911716706,0.908973066997169,1.4782195676282135,-0.28868757431728975
-0.050764038158096596,0.036487830325663946,-0.6117958798256037,-0.9146304721586781,0.9120115953404346,1.4786526175223045,-0.2887387469346259
-0.05118114916004296,0.03737226610663503,-0.6140365703893945,-0.9135687296879939,0.9150583687936197,1.479072185293339,-0.28879866801483767
-0.05161389951200106,0.03825358592947591,-0.6162968551101989,-0.9125268212480123,0.9181115659311166,1.4794731175294518,-0.2888653603180487
-0.05206001232287858,0.039113993435385554,-0.6185730189456211,-0.9115070835073528,0.9211707071364471,1.47986805761391,-0.2889374453613992
-0.05293851583880522,0.040864289458098745,-0.6230844803865284,-0.9095236344040196,0.9273611824736229,1.4806031700053977,-0.2891092992061968
-0.05336431541701725,0.041738478738280606,-0.6253097712558304,-0.9085619002812223,0.9304905990122191,1.4809535288175228,-0.28920936744069375
-0.05379005499953624,0.04260631643806522,-0.627521220246084,-0.9076237152315237,0.9336480109810831,1.4813149730883923,-0.28931998182719587
-0.05422658038958333,0.043463248338935674,-0.629735126005426,-0.90668960487113,0.9368128049945513,1.481686603864358,-0.28944240074809385
-0.05467526974276911,0.044323595849152284,-0.6319658696105603,-0.9057539963637398,0.9399807629408876,1.4820584744049294,-0.28956386082873403
-0.05514013786178856,0.04517609374105804,-0.6342228587134048,-0.9048334281220954,0.9431547609481663,1.4824145257174932,-0.28967837013562814
-0.05609564006832543,0.046846155341810886,-0.6387795606156869,-0.9030226118258217,0.9495521319781967,1.4830987650337775,-0.289889771832279
-0.056569016994697595,0.0476822948080531,-0.6410382874119678,-0.9021216377411909,0.9527880643902457,1.4834208410035403,-0.29000110529443296
-0.057031727886761585,0.04851759520725741,-0.6432678925170144,-0.9012370221913069,0.9560593742771668,1.4837505270451743,-0.29012903683777336
-0.05748569031594995,0.04935445364006836,-0.6454710724645214,-0.900374217912002,0.9593630895177768,1.4840733820862821,-0.29027374634029623
-0.05793348093365403,0.05019718434223073,-0.6476553173349734,-0.8995171661288285,0.9626964298025773,1.4843720888609424,-0.29041420149368435
-0.05838876163184305,0.051038716657695445,-0.649837105327254,-0.8986614325055726,0.9660634217806854,1.484663065899595,-0.2905503423022446
-0.05934809876307886,0.0526968539508325,-0.6542519739205375,-0.896975252025596,0.9728014323860189,1.4852570639486524,-0.29080177137996066
-0.059847002111509146,0.053527540572159166,-0.6564911065598047,-0.8961422885131771,0.9761774365462527,1.4855536734920503,-0.29091975607372783
-0.06034350857746105,0.05435379296635499,-0.658726164509767,-0.8953307168469014,0.9795719441636173,1.4858447704130058,-0.29105164242407017
-0.060832404971541944,0.05518400005846967,-0.6609327598484539,-0.8945484465316896,0.9829836134289838,1.4861220254549128,-0.29119569284663427
-0.06131429070526681,0.05601564541097107,-0.6631173642567317,-0.8937979943323233,0.9864222230730852,1.4863788473818516,-0.2913590377749961
-0.06179204175399371,0.056853282806043806,-0.6652827938233489,-0.8930622228608771,0.9898814455792516,1.4866190711185205,-0.29153514596892854
-0.06274592614939706,0.05851825120879009,-0.6695928604128716,-0.891633403614578,0.9968671941527327,1.4871304379722223,-0.291895990937366
-0.06324584811561203,0.059338631224551415,-0.6717721317494539,-0.8909385582596787,1.0003712855833093,1.4874165613593082,-0.292062811361684
-0.06376530435223073,0.060160149849483514,-0.6739791466216598,-0.890241555786907,1.0038620507269154,1.487694595363477,-0.2922403577069201
-0.06428967412702609,0.06096746716662445,-0.6762015612974375,-0.8895616308154507,1.0073622113269507,1.4879601058666814,-0.29242833021277526
-0.0648111077126042,0.061773765865980684,-0.6784194817503914,-0.8889017793120538,1.0108791499516183,1.488205183254917,-0.2926222949793679
-0.06532822706243756,0.06257658906938081,-0.6806150516260273,-0.8882619416082728,1.0144040460559445,1.4884117314090843,-0.2928063726739142
-0.06634071426905204,0.06419673643518817,-0.6849317694471633,-0.8870342775578354,1.0215359060894866,1.488768322028387,-0.29317338956291905
-0.0668374005039169,0.06499692310058701,-0.6870705940873275,-0.8864444739713027,1.0251270510524944,1.488957133492197,-0.2933790987591315
-0.0673499657443164,0.06579423357246163,-0.6892180474171475,-0.885861741040819,1.0287539569392106,1.4891618839572347,-0.2936034433811828
-0.06787906928837549,0.0665879488842433,-0.6913795820633726,-0.8852836219972963,1.0323709877530192,1.489374963460712,-0.29384594422711036
-0.06841740071543911,0.06737537239315461,-0.6935602316646485,-0.8847183859925639,1.0359698983840007,1.4895818112660952,-0.29408874461517076
-0.06896034602946345,0.06816003948176162,-0.6957529253467603,-0.8841712462160147,1.0395832859975287,1.489771761229993,-0.29432615215400865
-0.07005234858238647,0.06973189042375703,-0.7001031390905682,-0.8831285588137714,1.046823579497773,1.4900598619660381,-0.2948031842361668
-0.07058019374405487,0.07052770285771806,-0.70223992638608,-0.8826464933111335,1.0504769464958117,1.4901653231588408,-0.2950402921237888
-0.07110078848076125,0.071323754947202,-0.70436113421819,-0.8821886359615533,1.054138270973509,1.4902617961241615,-0.2952756622088911
-0.07162851386920974,0.07211351545198172,-0.7064762300163426,-0.8817430625664977,1.0578017046816075,1.490356471509436,-0.2955240353241701
-0.07216390910705611,0.07290878857920388,-0.708592404427973,-0.8812967101000972,1.061501570567045,1.4904478512767503,-0.2957943994789411
-0.07270883177003988,0.07369884862611649,-0.710721342105174,-0.8808605442478761,1.065177180215604,1.4905326395899783,-0.2960837584882938
-0.07383121439658773,0.07526416810971862,-0.7150245176984776,-0.880042560896427,1.0725149774071756,1.4906593128600112,-0.29665906122490243
-0.074396450292237,0.07603774984866468,-0.7171726301082564,-0.8796395913156617,1.0761852180738898,1.4906996397832093,-0.2969571688062139
-0.0749507207205283,0.07682025981939931,-0.7192985118230202,-0.8792589724212977,1.0798695522743136,1.490730259512357,-0.2972666614974854
-0.07549516407246624,0.07760666471052592,-0.7214039603137323,-0.8789195791856134,1.0835722942878254,1.490760579590289,-0.2975904752697679
-0.07604068603788192,0.07838264322286728,-0.7234953873746495,-0.8786069706452948,1.0872845279254084,1.4907910195505236,-0.2979372388127172
-0.07658770593212813,0.07916587226925373,-0.7255770472458232,-0.8782902875247544,1.0910234143114657,1.4908202610149777,-0.29830497466829087
-0.07769984205788676,0.0807056054441878,-0.7297601409140972,-0.8776771745206459,1.0984964893553655,1.490896900167762,-0.2990161785579368
-0.07827256814310403,0.0814727157204336,-0.7318676267494619,-0.8773941670916904,1.1022277058920247,1.4909338115906972,-0.2993838545269004
-0.07885062719093386,0.0822277219201507,-0.733977629349608,-0.8771143353983919,1.1059714818179815,1.4909692249757185,-0.2997683084550466
-0.07942796727219494,0.08297805423721401,-0.7360852350672757,-0.8768426530837033,1.1097129568763853,1.4909978073602137,-0.3001801463809904
-0.0799959595881485,0.08373216159236631,-0.7381751640902792,-0.8765988938553851,1.1134816599437847,1.491019199206357,-0.30061014031264416
-0.08055915824822837,0.08448195460269076,-0.7402434016159235,-0.8763860541165137,1.1172615804168198,1.4910508974398995,-0.30103264416381303
-0.08167548883651186,0.08598980977516946,-0.7443343365546214,-0.8759951886122772,1.1248796165742707,1.4911237615545947,-0.3019152224781277
-0.08223077788258785,0.08673648693644678,-0.7463661420774597,-0.875817881922564,1.128694722710493,1.4911882366351574,-0.30238961802228453
-0.08279553446719129,0.08748136640859455,-0.7484065761808705,-0.8756524996495498,1.1325042680531856,1.4912647559056387,-0.30287060491144463
-0.08336981847693213,0.08822870264983067,-0.750451744162628,-0.8754959257260211,1.1363376861839198,1.491356195559563,-0.3033552469563907
-0.08394158583097468,0.08897010673510541,-0.7524963727285637,-0.8753457633785826,1.1401591198368122,1.4914532078316227,-0.30386050188521824
-0.08451179526049366,0.08970743613107521,-0.7545358481007998,-0.8752194496463758,1.1439934006837957,1.4915467447168094,-0.3043876878578448
-0.08565257365735753,0.09120067057132687,-0.7585681203416766,-0.8750417236413098,1.151715268223777,1.4917101496408642,-0.3054802897131997
-0.08620642466121296,0.09195130253960614,-0.7605503710583121,-0.874984978296755,1.1556044848797635,1.4917773212551213,-0.30604804237363037
-0.08675907716928766,0.09270624874363019,-0.7625215963118968,-0.8749441720625112,1.1594906334214576,1.4918492865252517,-0.3066280787704196
